(lift_and_grabber_parts)
(Lift and Grabber parts)
(Machine)
(  vendor: Carbide 3D)
(  model: 3)
(  description: Shapeoko)
(T2  D=3.175 CR=0 - ZMIN=-6.85 - flat end mill)
G90 G94
G17
G21
G28 G91 Z0
G90

(Small holes)
T2 M6
(2 Flute)
S18000 M3
G54
G0 X18.312 Y190.923
Z15
Z0.683
G1 Z-1 F100
X18.318 Y190.916
X18.324 Y190.923
G3 X18.299 Y190.923 I-0.012 J0
X18.324 Y190.923 I0.012 J0
G1 X18.318 Y190.929
X18.312 Y190.923
G0 Z5
Z-0.317
G1 Z-2 F100
X18.318 Y190.916
X18.324 Y190.923
G3 X18.299 Y190.923 I-0.012 J0
X18.324 Y190.923 I0.012 J0
G1 X18.318 Y190.929
X18.312 Y190.923
G0 Z5
Z-1.317
G1 Z-3 F100
X18.318 Y190.916
X18.324 Y190.923
G3 X18.299 Y190.923 I-0.012 J0
X18.324 Y190.923 I0.012 J0
G1 X18.318 Y190.929
X18.312 Y190.923
G0 Z5
Z-2.318
G1 Z-4 F100
X18.318 Y190.916
X18.324 Y190.923
G3 X18.299 Y190.923 I-0.012 J0
X18.324 Y190.923 I0.012 J0
G1 X18.318 Y190.929
X18.312 Y190.923
G0 Z5
Z-3.318
G1 Z-5 F100
X18.318 Y190.916
X18.324 Y190.923
G3 X18.299 Y190.923 I-0.012 J0
X18.324 Y190.923 I0.012 J0
G1 X18.318 Y190.929
X18.312 Y190.923
G0 Z5
Z-4.242
G1 Z-5.925 F100
X18.318 Y190.916
X18.324 Y190.923
G3 X18.299 Y190.923 I-0.012 J0
X18.324 Y190.923 I0.012 J0
G1 X18.318 Y190.929
X18.312 Y190.923
G0 Z5
Z-5.168
G1 Z-6.85 F100
X18.318 Y190.916
X18.324 Y190.923
G3 X18.299 Y190.923 I-0.012 J0
X18.324 Y190.923 I0.012 J0
G1 X18.318 Y190.929
X18.312 Y190.923
G0 Z5
Y170.333
Z0.683
G1 Z-1 F100
X18.318 Y170.339
X18.312 Y170.345
G3 X18.312 Y170.32 I0 J-0.012
X18.312 Y170.345 I0 J0.012
G1 X18.306 Y170.339
X18.312 Y170.333
G0 Z5
Z-0.317
G1 Z-2 F100
X18.318 Y170.339
X18.312 Y170.345
G3 X18.312 Y170.32 I0 J-0.012
X18.312 Y170.345 I0 J0.012
G1 X18.306 Y170.339
X18.312 Y170.333
G0 Z5
Z-1.317
G1 Z-3 F100
X18.318 Y170.339
X18.312 Y170.345
G3 X18.312 Y170.32 I0 J-0.012
X18.312 Y170.345 I0 J0.012
G1 X18.306 Y170.339
X18.312 Y170.333
G0 Z5
Z-2.318
G1 Z-4 F100
X18.318 Y170.339
X18.312 Y170.345
G3 X18.312 Y170.32 I0 J-0.012
X18.312 Y170.345 I0 J0.012
G1 X18.306 Y170.339
X18.312 Y170.333
G0 Z5
Z-3.318
G1 Z-5 F100
X18.318 Y170.339
X18.312 Y170.345
G3 X18.312 Y170.32 I0 J-0.012
X18.312 Y170.345 I0 J0.012
G1 X18.306 Y170.339
X18.312 Y170.333
G0 Z5
Z-4.242
G1 Z-5.925 F100
X18.318 Y170.339
X18.312 Y170.345
G3 X18.312 Y170.32 I0 J-0.012
X18.312 Y170.345 I0 J0.012
G1 X18.306 Y170.339
X18.312 Y170.333
G0 Z5
Z-5.168
G1 Z-6.85 F100
X18.318 Y170.339
X18.312 Y170.345
G3 X18.312 Y170.32 I0 J-0.012
X18.312 Y170.345 I0 J0.012
G1 X18.306 Y170.339
X18.312 Y170.333
G0 Z5
Y149.742
Z0.683
G1 Z-1 F100
X18.318 Y149.749
X18.312 Y149.755
G3 X18.312 Y149.73 I0 J-0.013
X18.312 Y149.755 I0 J0.013
G1 X18.306 Y149.749
X18.312 Y149.742
G0 Z5
Z-0.317
G1 Z-2 F100
X18.318 Y149.749
X18.312 Y149.755
G3 X18.312 Y149.73 I0 J-0.013
X18.312 Y149.755 I0 J0.013
G1 X18.306 Y149.749
X18.312 Y149.742
G0 Z5
Z-1.317
G1 Z-3 F100
X18.318 Y149.749
X18.312 Y149.755
G3 X18.312 Y149.73 I0 J-0.013
X18.312 Y149.755 I0 J0.013
G1 X18.306 Y149.749
X18.312 Y149.742
G0 Z5
Z-2.318
G1 Z-4 F100
X18.318 Y149.749
X18.312 Y149.755
G3 X18.312 Y149.73 I0 J-0.013
X18.312 Y149.755 I0 J0.013
G1 X18.306 Y149.749
X18.312 Y149.742
G0 Z5
Z-3.318
G1 Z-5 F100
X18.318 Y149.749
X18.312 Y149.755
G3 X18.312 Y149.73 I0 J-0.013
X18.312 Y149.755 I0 J0.013
G1 X18.306 Y149.749
X18.312 Y149.742
G0 Z5
Z-4.242
G1 Z-5.925 F100
X18.318 Y149.749
X18.312 Y149.755
G3 X18.312 Y149.73 I0 J-0.013
X18.312 Y149.755 I0 J0.013
G1 X18.306 Y149.749
X18.312 Y149.742
G0 Z5
Z-5.168
G1 Z-6.85 F100
X18.318 Y149.749
X18.312 Y149.755
G3 X18.312 Y149.73 I0 J-0.013
X18.312 Y149.755 I0 J0.013
G1 X18.306 Y149.749
X18.312 Y149.742
G0 Z5
Y129.152
Z0.683
G1 Z-1 F100
X18.318 Y129.159
X18.312 Y129.165
G3 X18.312 Y129.14 I0 J-0.012
X18.312 Y129.165 I0 J0.012
G1 X18.306 Y129.159
X18.312 Y129.152
G0 Z5
Z-0.317
G1 Z-2 F100
X18.318 Y129.159
X18.312 Y129.165
G3 X18.312 Y129.14 I0 J-0.012
X18.312 Y129.165 I0 J0.012
G1 X18.306 Y129.159
X18.312 Y129.152
G0 Z5
Z-1.317
G1 Z-3 F100
X18.318 Y129.159
X18.312 Y129.165
G3 X18.312 Y129.14 I0 J-0.012
X18.312 Y129.165 I0 J0.012
G1 X18.306 Y129.159
X18.312 Y129.152
G0 Z5
Z-2.318
G1 Z-4 F100
X18.318 Y129.159
X18.312 Y129.165
G3 X18.312 Y129.14 I0 J-0.012
X18.312 Y129.165 I0 J0.012
G1 X18.306 Y129.159
X18.312 Y129.152
G0 Z5
Z-3.318
G1 Z-5 F100
X18.318 Y129.159
X18.312 Y129.165
G3 X18.312 Y129.14 I0 J-0.012
X18.312 Y129.165 I0 J0.012
G1 X18.306 Y129.159
X18.312 Y129.152
G0 Z5
Z-4.242
G1 Z-5.925 F100
X18.318 Y129.159
X18.312 Y129.165
G3 X18.312 Y129.14 I0 J-0.012
X18.312 Y129.165 I0 J0.012
G1 X18.306 Y129.159
X18.312 Y129.152
G0 Z5
Z-5.168
G1 Z-6.85 F100
X18.318 Y129.159
X18.312 Y129.165
G3 X18.312 Y129.14 I0 J-0.012
X18.312 Y129.165 I0 J0.012
G1 X18.306 Y129.159
X18.312 Y129.152
G0 Z5
Y108.563
Z0.683
G1 Z-1 F100
X18.318 Y108.569
X18.312 Y108.575
G3 X18.312 Y108.55 I0 J-0.012
X18.312 Y108.575 I0 J0.012
G1 X18.306 Y108.569
X18.312 Y108.563
G0 Z5
Z-0.317
G1 Z-2 F100
X18.318 Y108.569
X18.312 Y108.575
G3 X18.312 Y108.55 I0 J-0.012
X18.312 Y108.575 I0 J0.012
G1 X18.306 Y108.569
X18.312 Y108.563
G0 Z5
Z-1.317
G1 Z-3 F100
X18.318 Y108.569
X18.312 Y108.575
G3 X18.312 Y108.55 I0 J-0.012
X18.312 Y108.575 I0 J0.012
G1 X18.306 Y108.569
X18.312 Y108.563
G0 Z5
Z-2.318
G1 Z-4 F100
X18.318 Y108.569
X18.312 Y108.575
G3 X18.312 Y108.55 I0 J-0.012
X18.312 Y108.575 I0 J0.012
G1 X18.306 Y108.569
X18.312 Y108.563
G0 Z5
Z-3.318
G1 Z-5 F100
X18.318 Y108.569
X18.312 Y108.575
G3 X18.312 Y108.55 I0 J-0.012
X18.312 Y108.575 I0 J0.012
G1 X18.306 Y108.569
X18.312 Y108.563
G0 Z5
Z-4.242
G1 Z-5.925 F100
X18.318 Y108.569
X18.312 Y108.575
G3 X18.312 Y108.55 I0 J-0.012
X18.312 Y108.575 I0 J0.012
G1 X18.306 Y108.569
X18.312 Y108.563
G0 Z5
Z-5.168
G1 Z-6.85 F100
X18.318 Y108.569
X18.312 Y108.575
G3 X18.312 Y108.55 I0 J-0.012
X18.312 Y108.575 I0 J0.012
G1 X18.306 Y108.569
X18.312 Y108.563
G0 Z5
X106.076 Y43.482
Z0.683
G1 Z-1 F100
X106.074 Y43.491
X106.065 Y43.489
G3 X106.086 Y43.474 I0.01 J-0.007
X106.065 Y43.489 I-0.01 J0.007
G1 X106.067 Y43.481
X106.076 Y43.482
G0 Z5
Z-0.317
G1 Z-2 F100
X106.074 Y43.491
X106.065 Y43.489
G3 X106.086 Y43.474 I0.01 J-0.007
X106.065 Y43.489 I-0.01 J0.007
G1 X106.067 Y43.481
X106.076 Y43.482
G0 Z5
Z-1.317
G1 Z-3 F100
X106.074 Y43.491
X106.065 Y43.489
G3 X106.086 Y43.474 I0.01 J-0.007
X106.065 Y43.489 I-0.01 J0.007
G1 X106.067 Y43.481
X106.076 Y43.482
G0 Z5
Z-2.318
G1 Z-4 F100
X106.074 Y43.491
X106.065 Y43.489
G3 X106.086 Y43.474 I0.01 J-0.007
X106.065 Y43.489 I-0.01 J0.007
G1 X106.067 Y43.481
X106.076 Y43.482
G0 Z5
Z-3.318
G1 Z-5 F100
X106.074 Y43.491
X106.065 Y43.489
G3 X106.086 Y43.474 I0.01 J-0.007
X106.065 Y43.489 I-0.01 J0.007
G1 X106.067 Y43.481
X106.076 Y43.482
G0 Z5
Z-4.242
G1 Z-5.925 F100
X106.074 Y43.491
X106.065 Y43.489
G3 X106.086 Y43.474 I0.01 J-0.007
X106.065 Y43.489 I-0.01 J0.007
G1 X106.067 Y43.481
X106.076 Y43.482
G0 Z5
Z-5.168
G1 Z-6.85 F100
X106.074 Y43.491
X106.065 Y43.489
G3 X106.086 Y43.474 I0.01 J-0.007
X106.065 Y43.489 I-0.01 J0.007
G1 X106.067 Y43.481
X106.076 Y43.482
G0 Z5
X126.665
Z0.683
G1 Z-1 F100
X126.659 Y43.488
X126.653 Y43.482
G3 X126.678 Y43.482 I0.012 J0
X126.653 Y43.482 I-0.012 J0
G1 X126.659 Y43.476
X126.665 Y43.482
G0 Z5
Z-0.317
G1 Z-2 F100
X126.659 Y43.488
X126.653 Y43.482
G3 X126.678 Y43.482 I0.012 J0
X126.653 Y43.482 I-0.012 J0
G1 X126.659 Y43.476
X126.665 Y43.482
G0 Z5
Z-1.317
G1 Z-3 F100
X126.659 Y43.488
X126.653 Y43.482
G3 X126.678 Y43.482 I0.012 J0
X126.653 Y43.482 I-0.012 J0
G1 X126.659 Y43.476
X126.665 Y43.482
G0 Z5
Z-2.318
G1 Z-4 F100
X126.659 Y43.488
X126.653 Y43.482
G3 X126.678 Y43.482 I0.012 J0
X126.653 Y43.482 I-0.012 J0
G1 X126.659 Y43.476
X126.665 Y43.482
G0 Z5
Z-3.318
G1 Z-5 F100
X126.659 Y43.488
X126.653 Y43.482
G3 X126.678 Y43.482 I0.012 J0
X126.653 Y43.482 I-0.012 J0
G1 X126.659 Y43.476
X126.665 Y43.482
G0 Z5
Z-4.242
G1 Z-5.925 F100
X126.659 Y43.488
X126.653 Y43.482
G3 X126.678 Y43.482 I0.012 J0
X126.653 Y43.482 I-0.012 J0
G1 X126.659 Y43.476
X126.665 Y43.482
G0 Z5
Z-5.168
G1 Z-6.85 F100
X126.659 Y43.488
X126.653 Y43.482
G3 X126.678 Y43.482 I0.012 J0
X126.653 Y43.482 I-0.012 J0
G1 X126.659 Y43.476
X126.665 Y43.482
G0 Z5
X139.7 Y78.744
Z0.683
G1 Z-1 F100
X139.692 Y78.741
X139.696 Y78.733
G3 X139.704 Y78.756 I0.004 J0.012
X139.696 Y78.733 I-0.004 J-0.012
G1 X139.704 Y78.736
X139.7 Y78.744
G0 Z5
Z-0.317
G1 Z-2 F100
X139.692 Y78.741
X139.696 Y78.733
G3 X139.704 Y78.756 I0.004 J0.012
X139.696 Y78.733 I-0.004 J-0.012
G1 X139.704 Y78.736
X139.7 Y78.744
G0 Z5
Z-1.317
G1 Z-3 F100
X139.692 Y78.741
X139.696 Y78.733
G3 X139.704 Y78.756 I0.004 J0.012
X139.696 Y78.733 I-0.004 J-0.012
G1 X139.704 Y78.736
X139.7 Y78.744
G0 Z5
Z-2.318
G1 Z-4 F100
X139.692 Y78.741
X139.696 Y78.733
G3 X139.704 Y78.756 I0.004 J0.012
X139.696 Y78.733 I-0.004 J-0.012
G1 X139.704 Y78.736
X139.7 Y78.744
G0 Z5
Z-3.318
G1 Z-5 F100
X139.692 Y78.741
X139.696 Y78.733
G3 X139.704 Y78.756 I0.004 J0.012
X139.696 Y78.733 I-0.004 J-0.012
G1 X139.704 Y78.736
X139.7 Y78.744
G0 Z5
Z-4.242
G1 Z-5.925 F100
X139.692 Y78.741
X139.696 Y78.733
G3 X139.704 Y78.756 I0.004 J0.012
X139.696 Y78.733 I-0.004 J-0.012
G1 X139.704 Y78.736
X139.7 Y78.744
G0 Z5
Z-5.168
G1 Z-6.85 F100
X139.692 Y78.741
X139.696 Y78.733
G3 X139.704 Y78.756 I0.004 J0.012
X139.696 Y78.733 I-0.004 J-0.012
G1 X139.704 Y78.736
X139.7 Y78.744
G0 Z5
Y68.744
Z0.683
G1 Z-1 F100
X139.706 Y68.751
X139.7 Y68.757
G3 X139.7 Y68.732 I0 J-0.012
X139.7 Y68.757 I0 J0.012
G1 X139.694 Y68.751
X139.7 Y68.744
G0 Z5
Z-0.317
G1 Z-2 F100
X139.706 Y68.751
X139.7 Y68.757
G3 X139.7 Y68.732 I0 J-0.012
X139.7 Y68.757 I0 J0.012
G1 X139.694 Y68.751
X139.7 Y68.744
G0 Z5
Z-1.317
G1 Z-3 F100
X139.706 Y68.751
X139.7 Y68.757
G3 X139.7 Y68.732 I0 J-0.012
X139.7 Y68.757 I0 J0.012
G1 X139.694 Y68.751
X139.7 Y68.744
G0 Z5
Z-2.318
G1 Z-4 F100
X139.706 Y68.751
X139.7 Y68.757
G3 X139.7 Y68.732 I0 J-0.012
X139.7 Y68.757 I0 J0.012
G1 X139.694 Y68.751
X139.7 Y68.744
G0 Z5
Z-3.318
G1 Z-5 F100
X139.706 Y68.751
X139.7 Y68.757
G3 X139.7 Y68.732 I0 J-0.012
X139.7 Y68.757 I0 J0.012
G1 X139.694 Y68.751
X139.7 Y68.744
G0 Z5
Z-4.242
G1 Z-5.925 F100
X139.706 Y68.751
X139.7 Y68.757
G3 X139.7 Y68.732 I0 J-0.012
X139.7 Y68.757 I0 J0.012
G1 X139.694 Y68.751
X139.7 Y68.744
G0 Z5
Z-5.168
G1 Z-6.85 F100
X139.706 Y68.751
X139.7 Y68.757
G3 X139.7 Y68.732 I0 J-0.012
X139.7 Y68.757 I0 J0.012
G1 X139.694 Y68.751
X139.7 Y68.744
G0 Z5
Y58.744
Z0.683
G1 Z-1 F100
X139.706 Y58.751
X139.7 Y58.757
G3 X139.7 Y58.732 I0 J-0.013
X139.7 Y58.757 I0 J0.013
G1 X139.694 Y58.751
X139.7 Y58.744
G0 Z5
Z-0.317
G1 Z-2 F100
X139.706 Y58.751
X139.7 Y58.757
G3 X139.7 Y58.732 I0 J-0.013
X139.7 Y58.757 I0 J0.013
G1 X139.694 Y58.751
X139.7 Y58.744
G0 Z5
Z-1.317
G1 Z-3 F100
X139.706 Y58.751
X139.7 Y58.757
G3 X139.7 Y58.732 I0 J-0.013
X139.7 Y58.757 I0 J0.013
G1 X139.694 Y58.751
X139.7 Y58.744
G0 Z5
Z-2.318
G1 Z-4 F100
X139.706 Y58.751
X139.7 Y58.757
G3 X139.7 Y58.732 I0 J-0.013
X139.7 Y58.757 I0 J0.013
G1 X139.694 Y58.751
X139.7 Y58.744
G0 Z5
Z-3.318
G1 Z-5 F100
X139.706 Y58.751
X139.7 Y58.757
G3 X139.7 Y58.732 I0 J-0.013
X139.7 Y58.757 I0 J0.013
G1 X139.694 Y58.751
X139.7 Y58.744
G0 Z5
Z-4.242
G1 Z-5.925 F100
X139.706 Y58.751
X139.7 Y58.757
G3 X139.7 Y58.732 I0 J-0.013
X139.7 Y58.757 I0 J0.013
G1 X139.694 Y58.751
X139.7 Y58.744
G0 Z5
Z-5.168
G1 Z-6.85 F100
X139.706 Y58.751
X139.7 Y58.757
G3 X139.7 Y58.732 I0 J-0.013
X139.7 Y58.757 I0 J0.013
G1 X139.694 Y58.751
X139.7 Y58.744
G0 Z5
X147.255 Y43.482
Z0.683
G1 Z-1 F100
X147.258 Y43.49
X147.25 Y43.493
G3 X147.261 Y43.471 I0.006 J-0.011
X147.25 Y43.493 I-0.006 J0.011
G1 X147.247 Y43.485
X147.255 Y43.482
G0 Z5
Z-0.317
G1 Z-2 F100
X147.258 Y43.49
X147.25 Y43.493
G3 X147.261 Y43.471 I0.006 J-0.011
X147.25 Y43.493 I-0.006 J0.011
G1 X147.247 Y43.485
X147.255 Y43.482
G0 Z5
Z-1.317
G1 Z-3 F100
X147.258 Y43.49
X147.25 Y43.493
G3 X147.261 Y43.471 I0.006 J-0.011
X147.25 Y43.493 I-0.006 J0.011
G1 X147.247 Y43.485
X147.255 Y43.482
G0 Z5
Z-2.318
G1 Z-4 F100
X147.258 Y43.49
X147.25 Y43.493
G3 X147.261 Y43.471 I0.006 J-0.011
X147.25 Y43.493 I-0.006 J0.011
G1 X147.247 Y43.485
X147.255 Y43.482
G0 Z5
Z-3.318
G1 Z-5 F100
X147.258 Y43.49
X147.25 Y43.493
G3 X147.261 Y43.471 I0.006 J-0.011
X147.25 Y43.493 I-0.006 J0.011
G1 X147.247 Y43.485
X147.255 Y43.482
G0 Z5
Z-4.242
G1 Z-5.925 F100
X147.258 Y43.49
X147.25 Y43.493
G3 X147.261 Y43.471 I0.006 J-0.011
X147.25 Y43.493 I-0.006 J0.011
G1 X147.247 Y43.485
X147.255 Y43.482
G0 Z5
Z-5.168
G1 Z-6.85 F100
X147.258 Y43.49
X147.25 Y43.493
G3 X147.261 Y43.471 I0.006 J-0.011
X147.25 Y43.493 I-0.006 J0.011
G1 X147.247 Y43.485
X147.255 Y43.482
G0 Z5
X167.846
Z0.683
G1 Z-1 F100
X167.839 Y43.488
X167.833 Y43.482
G3 X167.858 Y43.482 I0.013 J0
X167.833 Y43.482 I-0.013 J0
G1 X167.839 Y43.476
X167.846 Y43.482
G0 Z5
Z-0.317
G1 Z-2 F100
X167.839 Y43.488
X167.833 Y43.482
G3 X167.858 Y43.482 I0.013 J0
X167.833 Y43.482 I-0.013 J0
G1 X167.839 Y43.476
X167.846 Y43.482
G0 Z5
Z-1.317
G1 Z-3 F100
X167.839 Y43.488
X167.833 Y43.482
G3 X167.858 Y43.482 I0.013 J0
X167.833 Y43.482 I-0.013 J0
G1 X167.839 Y43.476
X167.846 Y43.482
G0 Z5
Z-2.318
G1 Z-4 F100
X167.839 Y43.488
X167.833 Y43.482
G3 X167.858 Y43.482 I0.013 J0
X167.833 Y43.482 I-0.013 J0
G1 X167.839 Y43.476
X167.846 Y43.482
G0 Z5
Z-3.318
G1 Z-5 F100
X167.839 Y43.488
X167.833 Y43.482
G3 X167.858 Y43.482 I0.013 J0
X167.833 Y43.482 I-0.013 J0
G1 X167.839 Y43.476
X167.846 Y43.482
G0 Z5
Z-4.242
G1 Z-5.925 F100
X167.839 Y43.488
X167.833 Y43.482
G3 X167.858 Y43.482 I0.013 J0
X167.833 Y43.482 I-0.013 J0
G1 X167.839 Y43.476
X167.846 Y43.482
G0 Z5
Z-5.168
G1 Z-6.85 F100
X167.839 Y43.488
X167.833 Y43.482
G3 X167.858 Y43.482 I0.013 J0
X167.833 Y43.482 I-0.013 J0
G1 X167.839 Y43.476
X167.846 Y43.482
G0 Z5
X188.436
Z0.683
G1 Z-1 F100
X188.429 Y43.488
X188.423 Y43.482
G3 X188.448 Y43.482 I0.012 J0
X188.423 Y43.482 I-0.012 J0
G1 X188.429 Y43.476
X188.436 Y43.482
G0 Z5
Z-0.317
G1 Z-2 F100
X188.429 Y43.488
X188.423 Y43.482
G3 X188.448 Y43.482 I0.012 J0
X188.423 Y43.482 I-0.012 J0
G1 X188.429 Y43.476
X188.436 Y43.482
G0 Z5
Z-1.317
G1 Z-3 F100
X188.429 Y43.488
X188.423 Y43.482
G3 X188.448 Y43.482 I0.012 J0
X188.423 Y43.482 I-0.012 J0
G1 X188.429 Y43.476
X188.436 Y43.482
G0 Z5
Z-2.318
G1 Z-4 F100
X188.429 Y43.488
X188.423 Y43.482
G3 X188.448 Y43.482 I0.012 J0
X188.423 Y43.482 I-0.012 J0
G1 X188.429 Y43.476
X188.436 Y43.482
G0 Z5
Z-3.318
G1 Z-5 F100
X188.429 Y43.488
X188.423 Y43.482
G3 X188.448 Y43.482 I0.012 J0
X188.423 Y43.482 I-0.012 J0
G1 X188.429 Y43.476
X188.436 Y43.482
G0 Z5
Z-4.242
G1 Z-5.925 F100
X188.429 Y43.488
X188.423 Y43.482
G3 X188.448 Y43.482 I0.012 J0
X188.423 Y43.482 I-0.012 J0
G1 X188.429 Y43.476
X188.436 Y43.482
G0 Z5
Z-5.168
G1 Z-6.85 F100
X188.429 Y43.488
X188.423 Y43.482
G3 X188.448 Y43.482 I0.012 J0
X188.423 Y43.482 I-0.012 J0
G1 X188.429 Y43.476
X188.436 Y43.482
G0 Z5
X195.262 Y58.744
Z0.683
G1 Z-1 F100
X195.254 Y58.741
X195.257 Y58.733
G3 X195.268 Y58.756 I0.005 J0.011
X195.257 Y58.733 I-0.005 J-0.011
G1 X195.266 Y58.736
X195.262 Y58.744
G0 Z5
Z-0.317
G1 Z-2 F100
X195.254 Y58.741
X195.257 Y58.733
G3 X195.268 Y58.756 I0.005 J0.011
X195.257 Y58.733 I-0.005 J-0.011
G1 X195.266 Y58.736
X195.262 Y58.744
G0 Z5
Z-1.317
G1 Z-3 F100
X195.254 Y58.741
X195.257 Y58.733
G3 X195.268 Y58.756 I0.005 J0.011
X195.257 Y58.733 I-0.005 J-0.011
G1 X195.266 Y58.736
X195.262 Y58.744
G0 Z5
Z-2.318
G1 Z-4 F100
X195.254 Y58.741
X195.257 Y58.733
G3 X195.268 Y58.756 I0.005 J0.011
X195.257 Y58.733 I-0.005 J-0.011
G1 X195.266 Y58.736
X195.262 Y58.744
G0 Z5
Z-3.318
G1 Z-5 F100
X195.254 Y58.741
X195.257 Y58.733
G3 X195.268 Y58.756 I0.005 J0.011
X195.257 Y58.733 I-0.005 J-0.011
G1 X195.266 Y58.736
X195.262 Y58.744
G0 Z5
Z-4.242
G1 Z-5.925 F100
X195.254 Y58.741
X195.257 Y58.733
G3 X195.268 Y58.756 I0.005 J0.011
X195.257 Y58.733 I-0.005 J-0.011
G1 X195.266 Y58.736
X195.262 Y58.744
G0 Z5
Z-5.168
G1 Z-6.85 F100
X195.254 Y58.741
X195.257 Y58.733
G3 X195.268 Y58.756 I0.005 J0.011
X195.257 Y58.733 I-0.005 J-0.011
G1 X195.266 Y58.736
X195.262 Y58.744
G0 Z5
Y68.744
Z0.683
G1 Z-1 F100
X195.256 Y68.738
X195.262 Y68.732
G3 X195.262 Y68.757 I0 J0.012
X195.262 Y68.732 I0 J-0.012
G1 X195.269 Y68.738
X195.262 Y68.744
G0 Z5
Z-0.317
G1 Z-2 F100
X195.256 Y68.738
X195.262 Y68.732
G3 X195.262 Y68.757 I0 J0.012
X195.262 Y68.732 I0 J-0.012
G1 X195.269 Y68.738
X195.262 Y68.744
G0 Z5
Z-1.317
G1 Z-3 F100
X195.256 Y68.738
X195.262 Y68.732
G3 X195.262 Y68.757 I0 J0.012
X195.262 Y68.732 I0 J-0.012
G1 X195.269 Y68.738
X195.262 Y68.744
G0 Z5
Z-2.318
G1 Z-4 F100
X195.256 Y68.738
X195.262 Y68.732
G3 X195.262 Y68.757 I0 J0.012
X195.262 Y68.732 I0 J-0.012
G1 X195.269 Y68.738
X195.262 Y68.744
G0 Z5
Z-3.318
G1 Z-5 F100
X195.256 Y68.738
X195.262 Y68.732
G3 X195.262 Y68.757 I0 J0.012
X195.262 Y68.732 I0 J-0.012
G1 X195.269 Y68.738
X195.262 Y68.744
G0 Z5
Z-4.242
G1 Z-5.925 F100
X195.256 Y68.738
X195.262 Y68.732
G3 X195.262 Y68.757 I0 J0.012
X195.262 Y68.732 I0 J-0.012
G1 X195.269 Y68.738
X195.262 Y68.744
G0 Z5
Z-5.168
G1 Z-6.85 F100
X195.256 Y68.738
X195.262 Y68.732
G3 X195.262 Y68.757 I0 J0.012
X195.262 Y68.732 I0 J-0.012
G1 X195.269 Y68.738
X195.262 Y68.744
G0 Z5
Y78.744
Z0.683
G1 Z-1 F100
X195.256 Y78.738
X195.262 Y78.732
G3 X195.262 Y78.757 I0 J0.012
X195.262 Y78.732 I0 J-0.012
G1 X195.269 Y78.738
X195.262 Y78.744
G0 Z5
Z-0.317
G1 Z-2 F100
X195.256 Y78.738
X195.262 Y78.732
G3 X195.262 Y78.757 I0 J0.012
X195.262 Y78.732 I0 J-0.012
G1 X195.269 Y78.738
X195.262 Y78.744
G0 Z5
Z-1.317
G1 Z-3 F100
X195.256 Y78.738
X195.262 Y78.732
G3 X195.262 Y78.757 I0 J0.012
X195.262 Y78.732 I0 J-0.012
G1 X195.269 Y78.738
X195.262 Y78.744
G0 Z5
Z-2.318
G1 Z-4 F100
X195.256 Y78.738
X195.262 Y78.732
G3 X195.262 Y78.757 I0 J0.012
X195.262 Y78.732 I0 J-0.012
G1 X195.269 Y78.738
X195.262 Y78.744
G0 Z5
Z-3.318
G1 Z-5 F100
X195.256 Y78.738
X195.262 Y78.732
G3 X195.262 Y78.757 I0 J0.012
X195.262 Y78.732 I0 J-0.012
G1 X195.269 Y78.738
X195.262 Y78.744
G0 Z5
Z-4.242
G1 Z-5.925 F100
X195.256 Y78.738
X195.262 Y78.732
G3 X195.262 Y78.757 I0 J0.012
X195.262 Y78.732 I0 J-0.012
G1 X195.269 Y78.738
X195.262 Y78.744
G0 Z5
Z-5.168
G1 Z-6.85 F100
X195.256 Y78.738
X195.262 Y78.732
G3 X195.262 Y78.757 I0 J0.012
X195.262 Y78.732 I0 J-0.012
G1 X195.269 Y78.738
X195.262 Y78.744
G0 Z15

(Big Holes)
X57.191 Y72.217
Z15
Z0.504
G3 X56.729 Y75.198 Z0.339 I-0.231 J1.49 F100
X57.191 Y72.217 Z0.174 I0.231 J-1.49
X56.729 Y75.198 Z0.008 I-0.231 J1.49
X57.191 Y72.217 Z-0.157 I0.231 J-1.49
X56.729 Y75.198 Z-0.323 I-0.231 J1.49
X57.191 Y72.217 Z-0.488 I0.231 J-1.49
X56.729 Y75.198 Z-0.654 I-0.231 J1.49
X57.191 Y72.217 Z-0.819 I0.231 J-1.49
X56.729 Y75.198 Z-0.985 I-0.231 J1.49
X57.191 Y72.217 Z-1.15 I0.231 J-1.49
X56.729 Y75.198 Z-1.315 I-0.231 J1.49
X57.191 Y72.217 Z-1.481 I0.231 J-1.49
X56.729 Y75.198 Z-1.646 I-0.231 J1.49
X57.191 Y72.217 Z-1.812 I0.231 J-1.49
X56.729 Y75.198 Z-1.977 I-0.231 J1.49
X57.191 Y72.217 Z-2.143 I0.231 J-1.49
X56.729 Y75.198 Z-2.308 I-0.231 J1.49
X57.191 Y72.217 Z-2.474 I0.231 J-1.49
X56.729 Y75.198 Z-2.639 I-0.231 J1.49
X57.191 Y72.217 Z-2.805 I0.231 J-1.49
X56.729 Y75.198 Z-2.97 I-0.231 J1.49
X57.191 Y72.217 Z-3.135 I0.231 J-1.49
X56.729 Y75.198 Z-3.301 I-0.231 J1.49
X57.191 Y72.217 Z-3.466 I0.231 J-1.49
X56.729 Y75.198 Z-3.632 I-0.231 J1.49
X57.191 Y72.217 Z-3.797 I0.231 J-1.49
X56.729 Y75.198 Z-3.963 I-0.231 J1.49
X57.191 Y72.217 Z-4.128 I0.231 J-1.49
X56.729 Y75.198 Z-4.294 I-0.231 J1.49
X57.191 Y72.217 Z-4.459 I0.231 J-1.49
X56.729 Y75.198 Z-4.625 I-0.231 J1.49
X57.191 Y72.217 Z-4.79 I0.231 J-1.49
X56.729 Y75.198 Z-4.955 I-0.231 J1.49
X57.191 Y72.217 Z-5.121 I0.231 J-1.49
X56.729 Y75.198 Z-5.286 I-0.231 J1.49
X57.191 Y72.217 Z-5.452 I0.231 J-1.49
X56.729 Y75.198 Z-5.617 I-0.231 J1.49
X57.191 Y72.217 Z-5.783 I0.231 J-1.49
X56.729 Y75.198 Z-5.948 I-0.231 J1.49
X57.191 Y72.217 Z-6.114 I0.231 J-1.49
X56.729 Y75.198 Z-6.279 I-0.231 J1.49
X57.191 Y72.217 Z-6.444 I0.231 J-1.49
X56.729 Y75.198 Z-6.61 I-0.231 J1.49
X57.191 Y72.217 Z-6.775 I0.231 J-1.49
X58.468 Y73.708 Z-6.85 I-0.231 J1.49
X55.452 Y73.708 I-1.508 J0
X58.468 Y73.708 I1.508 J0
G1 X58.469 Y73.914 F600
X58.507 Y74.116
G3 X58.51 Y74.477 I-0.771 J0.188
X58.308 Y74.94 I-1.178 J-0.24
X57.84 Y75.373 I-1.249 J-0.878
X56.877 Y75.626 I-0.91 J-1.507
X55.499 Y74.975 I0.048 J-1.887
X56.165 Y71.941 I1.457 J-1.27
X58.714 Y72.884 I0.796 J1.765
G1 X58.797 Y73.072
X58.866 Y73.252
X58.914 Y73.402
X58.951 Y73.537
G3 X59.014 Y74.002 I-2.206 J0.537
X58.411 Y75.479 I-1.961 J0.061
X57.567 Y75.978 I-1.465 J-1.512
X56.411 Y76.028 I-0.671 J-2.147
X55.169 Y75.306 I0.5 J-2.288
X54.629 Y73.11 I1.775 J-1.601
X58.697 Y72.041 I2.331 J0.596
G1 X58.792 Y72.143
X58.888 Y72.26
X58.981 Y72.385
X59.068 Y72.516
X59.147 Y72.651
X59.219 Y72.789
X59.283 Y72.928
X59.339 Y73.068
X59.386 Y73.208
G3 X59.498 Y73.764 I-2.619 J0.814
X59.449 Y74.56 I-2.566 J0.243
X58.666 Y75.896 I-2.466 J-0.547
X57.86 Y76.389 I-1.741 J-1.942
X56.899 Y76.57 I-0.973 J-2.523
X55.91 Y76.394 I-0.015 J-2.78
X55.032 Y75.869 I0.99 J-2.654
X54.39 Y75.057 I1.89 J-2.155
X54.053 Y73.765 I2.551 J-1.355
X54.478 Y72.19 I2.901 J-0.063
X56.549 Y70.826 I2.482 J1.516
X58.305 Y71.126 I0.411 J2.881
G1 X58.44 Y71.201
X58.573 Y71.284
X58.704 Y71.375
X58.832 Y71.475
X58.956 Y71.583
X59.077 Y71.699
X59.193 Y71.823
X59.304 Y71.953
X59.408 Y72.09
X59.505 Y72.233
X59.595 Y72.381
X59.677 Y72.533
X59.751 Y72.688
X59.816 Y72.845
X59.872 Y73.005
X59.92 Y73.167
X59.959 Y73.329
X59.989 Y73.492
X60.011 Y73.655
X60.024 Y73.817
X60.028 Y73.98
X60.024 Y74.141
X60.012 Y74.301
X59.992 Y74.46
X59.964 Y74.618
X59.927 Y74.773
X59.883 Y74.925
X59.831 Y75.076
X59.771 Y75.223
X59.703 Y75.367
X59.629 Y75.507
X59.546 Y75.643
X59.457 Y75.775
X59.361 Y75.903
X59.259 Y76.026
X59.149 Y76.143
X59.034 Y76.255
X58.912 Y76.361
X58.785 Y76.461
X58.653 Y76.555
X58.515 Y76.642
X58.372 Y76.722
X58.225 Y76.794
X58.074 Y76.86
X57.919 Y76.917
X57.761 Y76.967
X57.599 Y77.008
X57.436 Y77.041
X57.27 Y77.066
X57.102 Y77.082
X56.934 Y77.09
X56.764 Y77.089
X56.595 Y77.079
X56.425 Y77.06
X56.257 Y77.032
X56.089 Y76.996
X55.924 Y76.95
X55.76 Y76.896
X55.599 Y76.834
X55.441 Y76.763
X55.287 Y76.684
X55.136 Y76.597
X54.991 Y76.502
X54.85 Y76.399
X54.714 Y76.289
X54.584 Y76.172
X54.46 Y76.048
X54.342 Y75.918
X54.232 Y75.782
X54.128 Y75.64
X54.032 Y75.493
X53.943 Y75.34
X53.862 Y75.183
X53.79 Y75.023
X53.726 Y74.858
X53.67 Y74.69
X53.623 Y74.52
X53.585 Y74.347
X53.556 Y74.172
X53.537 Y73.996
X53.526 Y73.819
X53.524 Y73.642
X53.532 Y73.464
X53.549 Y73.288
X53.575 Y73.112
X53.61 Y72.938
X53.654 Y72.766
X53.707 Y72.596
X53.768 Y72.429
X53.838 Y72.266
X53.917 Y72.106
X54.004 Y71.951
X54.098 Y71.8
X54.201 Y71.655
X54.311 Y71.515
X54.427 Y71.381
X54.551 Y71.253
X54.681 Y71.131
X54.818 Y71.017
X54.96 Y70.909
X55.107 Y70.809
X55.26 Y70.717
X55.417 Y70.633
X55.578 Y70.557
X55.743 Y70.49
X55.911 Y70.431
X56.082 Y70.381
X56.256 Y70.34
X56.431 Y70.308
X56.608 Y70.286
X56.785 Y70.272
X56.964 Y70.267
X57.142 Y70.272
X57.319 Y70.286
X57.496 Y70.309
X57.671 Y70.342
X57.845 Y70.383
X58.018 Y70.434
X58.188 Y70.494
X58.357 Y70.563
X58.524 Y70.642
X58.687 Y70.73
X58.848 Y70.827
X59.005 Y70.934
X59.157 Y71.049
X59.304 Y71.173
X59.446 Y71.306
X59.582 Y71.447
X59.71 Y71.595
X59.831 Y71.75
X59.944 Y71.911
X60.048 Y72.077
X60.143 Y72.249
X60.23 Y72.425
X60.307 Y72.604
X60.374 Y72.787
X60.431 Y72.973
X60.479 Y73.16
X60.516 Y73.349
X60.544 Y73.539
X60.562 Y73.729
X60.57 Y73.92
X60.568 Y74.11
X60.556 Y74.299
X60.534 Y74.487
X60.503 Y74.673
X60.462 Y74.857
X60.412 Y75.038
X60.353 Y75.217
X60.284 Y75.392
X60.206 Y75.563
X60.12 Y75.73
X60.025 Y75.892
X59.922 Y76.05
X59.811 Y76.202
X59.691 Y76.348
X59.564 Y76.488
X59.43 Y76.622
X59.288 Y76.749
X59.14 Y76.868
X58.986 Y76.98
X58.825 Y77.084
X58.659 Y77.18
X58.488 Y77.268
X58.312 Y77.346
X58.131 Y77.416
X57.947 Y77.476
X57.759 Y77.527
X57.568 Y77.568
X57.375 Y77.6
X57.18 Y77.621
X56.984 Y77.633
X56.786 Y77.634
X56.589 Y77.624
X56.391 Y77.605
X56.195 Y77.575
X55.999 Y77.535
X55.806 Y77.485
X55.615 Y77.425
X55.427 Y77.355
X55.243 Y77.275
X55.062 Y77.185
X54.887 Y77.086
X54.716 Y76.978
X54.551 Y76.861
X54.392 Y76.736
X54.239 Y76.602
X54.093 Y76.46
X53.955 Y76.311
X53.825 Y76.154
X53.702 Y75.991
X53.588 Y75.822
X53.483 Y75.646
X53.387 Y75.466
X53.301 Y75.28
X53.224 Y75.09
X53.157 Y74.896
X53.1 Y74.699
X53.053 Y74.499
X53.017 Y74.297
X52.991 Y74.093
X52.976 Y73.887
X52.972 Y73.682
X52.978 Y73.476
X52.995 Y73.271
X53.022 Y73.067
X53.06 Y72.864
X53.109 Y72.664
X53.168 Y72.467
X53.236 Y72.273
X53.315 Y72.082
X53.404 Y71.896
X53.502 Y71.715
X53.609 Y71.539
X53.725 Y71.369
X53.85 Y71.206
X53.983 Y71.048
X54.124 Y70.898
X54.273 Y70.756
X54.428 Y70.621
X54.591 Y70.494
X54.76 Y70.377
X54.934 Y70.267
X55.114 Y70.167
X55.299 Y70.077
X55.489 Y69.996
X55.682 Y69.925
X55.879 Y69.864
X56.078 Y69.814
X56.28 Y69.773
X56.484 Y69.743
X56.689 Y69.724
X56.895 Y69.715
X57.101 Y69.717
X57.306 Y69.73
X57.511 Y69.753
X57.714 Y69.787
X57.915 Y69.831
X58.114 Y69.885
X58.31 Y69.949
X58.502 Y70.023
X58.69 Y70.106
X58.874 Y70.199
X59.053 Y70.301
X59.227 Y70.411
X59.395 Y70.53
X59.557 Y70.657
X59.713 Y70.791
X59.863 Y70.933
X60.005 Y71.081
X60.141 Y71.237
X60.268 Y71.398
X60.388 Y71.566
X60.499 Y71.739
X60.602 Y71.917
X60.697 Y72.1
X60.782 Y72.288
X60.859 Y72.479
X60.926 Y72.673
X60.984 Y72.871
X61.033 Y73.071
X61.072 Y73.273
X61.101 Y73.477
X61.12 Y73.682
X61.129 Y73.888
X61.128 Y74.094
X61.117 Y74.3
X61.096 Y74.505
X61.065 Y74.708
X61.024 Y74.91
X60.973 Y75.109
X60.912 Y75.306
X60.842 Y75.5
X60.762 Y75.69
X60.674 Y75.876
X60.576 Y76.057
X60.469 Y76.233
X60.354 Y76.404
X60.231 Y76.569
X60.1 Y76.728
X59.962 Y76.88
X59.816 Y77.025
X59.663 Y77.163
X59.503 Y77.294
X59.338 Y77.416
X59.166 Y77.53
X58.99 Y77.636
X58.808 Y77.733
X58.622 Y77.822
X58.432 Y77.901
X58.238 Y77.971
X58.042 Y78.032
X57.842 Y78.083
X57.641 Y78.125
X57.437 Y78.158
X57.233 Y78.18
X57.027 Y78.193
X56.821 Y78.196
X56.615 Y78.189
X56.41 Y78.173
X56.206 Y78.147
X56.003 Y78.111
X55.802 Y78.066
X55.603 Y78.012
X55.407 Y77.949
X55.214 Y77.877
X55.025 Y77.795
X54.84 Y77.705
X54.659 Y77.607
X54.483 Y77.5
X54.312 Y77.385
X54.147 Y77.263
X53.987 Y77.133
X53.833 Y76.996
X53.686 Y76.852
X53.546 Y76.701
X53.413 Y76.544
X53.287 Y76.381
X53.168 Y76.212
X53.058 Y76.039
X52.955 Y75.86
X52.861 Y75.677
X52.775 Y75.49
X52.698 Y75.299
X52.63 Y75.105
X52.57 Y74.907
X52.52 Y74.708
X52.478 Y74.506
X52.446 Y74.303
X52.423 Y74.098
X52.41 Y73.892
X52.406 Y73.687
X52.411 Y73.481
X52.425 Y73.275
X52.449 Y73.071
X52.482 Y72.868
X52.524 Y72.666
X52.576 Y72.466
X52.636 Y72.27
X52.705 Y72.076
X52.783 Y71.885
X52.869 Y71.698
X52.964 Y71.515
X53.067 Y71.337
X53.178 Y71.163
X53.297 Y70.995
X53.423 Y70.832
X53.556 Y70.675
X53.697 Y70.525
X53.844 Y70.381
X53.997 Y70.243
X54.157 Y70.113
X54.322 Y69.99
X54.492 Y69.874
X54.668 Y69.767
X54.848 Y69.667
X55.033 Y69.576
X55.221 Y69.493
X55.413 Y69.419
X55.608 Y69.353
X55.806 Y69.297
X56.007 Y69.249
X56.209 Y69.21
X56.413 Y69.181
X56.618 Y69.161
X56.823 Y69.15
X57.029 Y69.149
X57.235 Y69.156
X57.44 Y69.173
X57.645 Y69.199
X57.848 Y69.235
X58.049 Y69.279
X58.248 Y69.332
X58.444 Y69.394
X58.637 Y69.465
X58.828 Y69.544
X59.014 Y69.631
X59.197 Y69.726
X59.375 Y69.829
X59.549 Y69.94
X59.718 Y70.058
X59.881 Y70.183
X60.039 Y70.315
X60.191 Y70.454
X60.338 Y70.599
X60.477 Y70.75
X60.554 Y70.841
X60.603 Y70.903
X60.735 Y71.079
X60.919 Y71.364
X60.984 Y71.483
X61.079 Y71.661
G3 X61.27 Y72.102 I-4.981 J2.409
G1 X61.311 Y72.221
X61.373 Y72.412
X61.423 Y72.602
X61.46 Y72.753
X61.518 Y73.078
X61.537 Y73.269
X61.546 Y73.364
X61.553 Y73.459
X61.558 Y73.65
G3 X61.539 Y74.126 I-4.187 J0.076
X61.429 Y74.793 I-4.5 J-0.402
G1 X61.405 Y74.888
X61.379 Y74.983
X61.319 Y75.173
X61.288 Y75.269
X61.212 Y75.459
X61.172 Y75.554
X61.129 Y75.65
X61.079 Y75.751
X60.984 Y75.937
X60.889 Y76.097
G3 X60.603 Y76.517 I-4.38 J-2.675
G1 X60.508 Y76.633
X60.413 Y76.747
X60.373 Y76.792
X60.222 Y76.948
X60.091 Y77.078
X59.873 Y77.269
G3 X59.556 Y77.505 I-3.809 J-4.785
G1 X59.46 Y77.566
X59.27 Y77.686
X59.163 Y77.745
X58.98 Y77.84
X58.889 Y77.884
X58.603 Y78.005
X58.508 Y78.039
X58.246 Y78.126
X57.937 Y78.203
G3 X56.889 Y78.306 I-0.988 J-4.653
X56.413 Y78.275 I0.101 J-5.251
G1 X56.127 Y78.231
X56.065 Y78.221
X55.746 Y78.145
X55.651 Y78.117
X55.461 Y78.055
X55.387 Y78.03
X55.151 Y77.935
X55.08 Y77.906
X54.944 Y77.84
X54.755 Y77.745
X54.699 Y77.713
X54.508 Y77.597
X54.413 Y77.538
G3 X54.05 Y77.268 I3.854 J-5.569
X53.64 Y76.888 I2.911 J-3.546
G1 X53.556 Y76.801
X53.386 Y76.602
X53.27 Y76.451
X53.173 Y76.316
X53.109 Y76.221
X53.05 Y76.126
X52.935 Y75.935
X52.791 Y75.65
X52.748 Y75.554
X52.671 Y75.364
X52.633 Y75.269
X52.541 Y74.983
X52.515 Y74.888
X52.448 Y74.602
X52.413 Y74.386
X52.403 Y74.316
X52.39 Y74.221
G3 X52.359 Y73.745 I6.451 J-0.658
G1 X52.369 Y73.459
G3 X52.604 Y72.234 I4.626 J0.253
G1 X52.715 Y71.936
X52.803 Y71.745
X52.849 Y71.65
X52.889 Y71.568
X53.005 Y71.364
X53.06 Y71.269
X53.189 Y71.079
G3 X53.66 Y70.507 I3.774 J2.631
G1 X53.752 Y70.412
X53.937 Y70.243
G3 X54.699 Y69.705 I3.08 J3.547
G1 X54.889 Y69.601
X54.987 Y69.555
X55.198 Y69.46
X55.27 Y69.431
X55.556 Y69.328
X55.746 Y69.274
X55.842 Y69.248
X55.937 Y69.225
X56.127 Y69.187
G3 X56.603 Y69.124 I0.785 J4.14
X57.27 Y69.121 I0.358 J4.469
G1 X57.365 Y69.127
X57.461 Y69.137
X57.746 Y69.175
X58.032 Y69.236
X58.127 Y69.26
X58.413 Y69.344
X58.603 Y69.414
X58.721 Y69.46
X58.794 Y69.491
X58.932 Y69.555
X59.079 Y69.626
X59.27 Y69.733
X59.365 Y69.788
X59.45 Y69.841
X59.588 Y69.936
X59.746 Y70.048
X59.959 Y70.221
X60.032 Y70.286
X60.166 Y70.412
X60.264 Y70.507
G3 X60.555 Y70.841 I-4.293 J4.029
G1 X60.571 Y70.876 Z-6.844
X60.586 Y70.907 Z-6.826
X60.597 Y70.932 Z-6.798
X60.605 Y70.948 Z-6.764
X60.607 Y70.953 Z-6.725
G0 Z5
X79.543 Y72.218
Z0.504
G3 X79.081 Y75.198 Z0.339 I-0.231 J1.49 F100
X79.543 Y72.218 Z0.174 I0.231 J-1.49
X79.081 Y75.198 Z0.008 I-0.231 J1.49
X79.543 Y72.218 Z-0.157 I0.231 J-1.49
X79.081 Y75.198 Z-0.323 I-0.231 J1.49
X79.543 Y72.218 Z-0.488 I0.231 J-1.49
X79.081 Y75.198 Z-0.654 I-0.231 J1.49
X79.543 Y72.218 Z-0.819 I0.231 J-1.49
X79.081 Y75.198 Z-0.985 I-0.231 J1.49
X79.543 Y72.218 Z-1.15 I0.231 J-1.49
X79.081 Y75.198 Z-1.315 I-0.231 J1.49
X79.543 Y72.218 Z-1.481 I0.231 J-1.49
X79.081 Y75.198 Z-1.646 I-0.231 J1.49
X79.543 Y72.218 Z-1.812 I0.231 J-1.49
X79.081 Y75.198 Z-1.977 I-0.231 J1.49
X79.543 Y72.218 Z-2.143 I0.231 J-1.49
X79.081 Y75.198 Z-2.308 I-0.231 J1.49
X79.543 Y72.218 Z-2.474 I0.231 J-1.49
X79.081 Y75.198 Z-2.639 I-0.231 J1.49
X79.543 Y72.218 Z-2.805 I0.231 J-1.49
X79.081 Y75.198 Z-2.97 I-0.231 J1.49
X79.543 Y72.218 Z-3.135 I0.231 J-1.49
X79.081 Y75.198 Z-3.301 I-0.231 J1.49
X79.543 Y72.218 Z-3.466 I0.231 J-1.49
X79.081 Y75.198 Z-3.632 I-0.231 J1.49
X79.543 Y72.218 Z-3.797 I0.231 J-1.49
X79.081 Y75.198 Z-3.963 I-0.231 J1.49
X79.543 Y72.218 Z-4.128 I0.231 J-1.49
X79.081 Y75.198 Z-4.294 I-0.231 J1.49
X79.543 Y72.218 Z-4.459 I0.231 J-1.49
X79.081 Y75.198 Z-4.625 I-0.231 J1.49
X79.543 Y72.218 Z-4.79 I0.231 J-1.49
X79.081 Y75.198 Z-4.955 I-0.231 J1.49
X79.543 Y72.218 Z-5.121 I0.231 J-1.49
X79.081 Y75.198 Z-5.286 I-0.231 J1.49
X79.543 Y72.218 Z-5.452 I0.231 J-1.49
X79.081 Y75.198 Z-5.617 I-0.231 J1.49
X79.543 Y72.218 Z-5.783 I0.231 J-1.49
X79.081 Y75.198 Z-5.948 I-0.231 J1.49
X79.543 Y72.218 Z-6.114 I0.231 J-1.49
X79.081 Y75.198 Z-6.279 I-0.231 J1.49
X79.543 Y72.218 Z-6.444 I0.231 J-1.49
X79.081 Y75.198 Z-6.61 I-0.231 J1.49
X79.543 Y72.218 Z-6.775 I0.231 J-1.49
X80.82 Y73.708 Z-6.85 I-0.231 J1.49
X77.804 Y73.708 I-1.508 J0
X80.82 Y73.708 I1.508 J0
G1 X80.821 Y73.914 F600
X80.838 Y74.111
X80.817 Y74.308
X80.757 Y74.496
X80.661 Y74.669
G3 X80.411 Y74.949 I-1.172 J-0.793
G1 X80.371 Y74.983
X80.316 Y75.026
X80.221 Y75.093
G3 X79.935 Y75.245 I-0.892 J-1.33
G1 X79.84 Y75.279
X79.745 Y75.309
X79.649 Y75.33
X79.554 Y75.348
X79.393 Y75.364
X79.364
X79.268 Y75.363
X79.173 Y75.359
X79.078 Y75.347
X78.983 Y75.332
X78.887 Y75.311
X78.792 Y75.282
X78.697 Y75.245
X78.602 Y75.206
X78.507 Y75.155
X78.411 Y75.101
X78.255 Y74.983
X78.221 Y74.956
X78.15 Y74.888
X78.059 Y74.793
X78.03 Y74.761
G3 X77.84 Y74.471 I2.094 J-1.588
X77.709 Y74.126 I1.835 J-0.894
X77.654 Y73.745 I1.711 J-0.439
X77.691 Y73.364 I1.977 J-0.002
G1 X77.715 Y73.269
X77.742 Y73.174
X77.78 Y73.078
X77.821 Y72.983
X77.84 Y72.947
X77.874 Y72.888
X77.931 Y72.793
X78.03 Y72.658
X78.078 Y72.602
X78.221 Y72.459
X78.28 Y72.412
X78.412 Y72.317
X78.507 Y72.262
X78.58 Y72.221
G3 X78.818 Y72.126 I1.316 J2.938
G1 X78.983 Y72.083
X79.078 Y72.069
X79.173 Y72.056
X79.268 Y72.051
X79.364 Y72.05
X79.459 Y72.058
X79.554 Y72.068
X79.649 Y72.086
X79.745 Y72.108
X79.805 Y72.126
X79.935 Y72.173
X80.047 Y72.221
X80.125 Y72.264
X80.209 Y72.317
X80.347 Y72.412
X80.411 Y72.468
X80.455 Y72.507
X80.547 Y72.602
X80.622 Y72.697
X80.697 Y72.796
X80.753 Y72.888
X80.804 Y72.983
X80.844 Y73.078
X80.887 Y73.189
X80.91 Y73.269
X80.935 Y73.364
X80.949 Y73.459
X80.962 Y73.555
X80.967 Y73.65
X80.969 Y73.745
X80.963 Y73.84
G3 X80.887 Y74.221 I-1.435 J-0.087
X80.66 Y74.669 I-1.434 J-0.444
G1 X80.632 Y74.695 Z-6.844
X80.606 Y74.718 Z-6.826
X80.586 Y74.736 Z-6.798
X80.573 Y74.748 Z-6.764
X80.568 Y74.752 Z-6.725
G0 Z5
X78.28 Y36.491
Z0.504
G3 X77.818 Y39.472 Z0.339 I-0.231 J1.49 F100
X78.28 Y36.491 Z0.174 I0.231 J-1.49
X77.818 Y39.472 Z0.008 I-0.231 J1.49
X78.28 Y36.491 Z-0.157 I0.231 J-1.49
X77.818 Y39.472 Z-0.323 I-0.231 J1.49
X78.28 Y36.491 Z-0.488 I0.231 J-1.49
X77.818 Y39.472 Z-0.654 I-0.231 J1.49
X78.28 Y36.491 Z-0.819 I0.231 J-1.49
X77.818 Y39.472 Z-0.985 I-0.231 J1.49
X78.28 Y36.491 Z-1.15 I0.231 J-1.49
X77.818 Y39.472 Z-1.315 I-0.231 J1.49
X78.28 Y36.491 Z-1.481 I0.231 J-1.49
X77.818 Y39.472 Z-1.646 I-0.231 J1.49
X78.28 Y36.491 Z-1.812 I0.231 J-1.49
X77.818 Y39.472 Z-1.977 I-0.231 J1.49
X78.28 Y36.491 Z-2.143 I0.231 J-1.49
X77.818 Y39.472 Z-2.308 I-0.231 J1.49
X78.28 Y36.491 Z-2.474 I0.231 J-1.49
X77.818 Y39.472 Z-2.639 I-0.231 J1.49
X78.28 Y36.491 Z-2.805 I0.231 J-1.49
X77.818 Y39.472 Z-2.97 I-0.231 J1.49
X78.28 Y36.491 Z-3.135 I0.231 J-1.49
X77.818 Y39.472 Z-3.301 I-0.231 J1.49
X78.28 Y36.491 Z-3.466 I0.231 J-1.49
X77.818 Y39.472 Z-3.632 I-0.231 J1.49
X78.28 Y36.491 Z-3.797 I0.231 J-1.49
X77.818 Y39.472 Z-3.963 I-0.231 J1.49
X78.28 Y36.491 Z-4.128 I0.231 J-1.49
X77.818 Y39.472 Z-4.294 I-0.231 J1.49
X78.28 Y36.491 Z-4.459 I0.231 J-1.49
X77.818 Y39.472 Z-4.625 I-0.231 J1.49
X78.28 Y36.491 Z-4.79 I0.231 J-1.49
X77.818 Y39.472 Z-4.955 I-0.231 J1.49
X78.28 Y36.491 Z-5.121 I0.231 J-1.49
X77.818 Y39.472 Z-5.286 I-0.231 J1.49
X78.28 Y36.491 Z-5.452 I0.231 J-1.49
X77.818 Y39.472 Z-5.617 I-0.231 J1.49
X78.28 Y36.491 Z-5.783 I0.231 J-1.49
X77.818 Y39.472 Z-5.948 I-0.231 J1.49
X78.28 Y36.491 Z-6.114 I0.231 J-1.49
X77.818 Y39.472 Z-6.279 I-0.231 J1.49
X78.28 Y36.491 Z-6.444 I0.231 J-1.49
X77.818 Y39.472 Z-6.61 I-0.231 J1.49
X78.28 Y36.491 Z-6.775 I0.231 J-1.49
X79.557 Y37.982 Z-6.85 I-0.231 J1.49
X76.541 Y37.982 I-1.508 J0
X79.557 Y37.982 I1.508 J0
G1 X79.558 Y38.188 F600
X79.596 Y38.39
G3 X79.6 Y38.751 I-0.771 J0.188
X79.397 Y39.214 I-1.178 J-0.24
X78.93 Y39.647 I-1.249 J-0.878
X77.967 Y39.9 I-0.91 J-1.507
X76.588 Y39.249 I0.048 J-1.887
X77.254 Y36.215 I1.457 J-1.27
X79.803 Y37.158 I0.796 J1.765
G1 X79.886 Y37.346
X79.955 Y37.526
X80.004 Y37.676
X80.04 Y37.811
G3 X80.103 Y38.276 I-2.206 J0.537
X79.501 Y39.753 I-1.961 J0.061
X78.657 Y40.252 I-1.465 J-1.512
X77.5 Y40.302 I-0.671 J-2.147
X76.258 Y39.58 I0.5 J-2.288
X75.718 Y37.384 I1.775 J-1.601
X79.787 Y36.315 I2.331 J0.596
G1 X79.881 Y36.418
X79.977 Y36.534
X80.07 Y36.659
X80.157 Y36.79
X80.237 Y36.925
X80.309 Y37.063
X80.372 Y37.202
X80.428 Y37.342
X80.475 Y37.482
G3 X80.587 Y38.038 I-2.619 J0.814
X80.538 Y38.834 I-2.566 J0.243
X79.755 Y40.17 I-2.466 J-0.547
X78.949 Y40.663 I-1.741 J-1.942
X77.989 Y40.844 I-0.973 J-2.523
X77.137 Y40.716 I-0.016 J-2.775
X76.235 Y40.238 I0.85 J-2.697
X75.552 Y39.461 I1.773 J-2.247
X75.149 Y38.189 I2.476 J-1.484
X75.492 Y36.594 I2.892 J-0.213
X77.49 Y35.125 I2.557 J1.385
X79.395 Y35.4 I0.56 J2.855
G1 X79.529 Y35.475
X79.662 Y35.558
X79.793 Y35.649
X79.921 Y35.749
X80.046 Y35.857
X80.166 Y35.973
X80.282 Y36.097
X80.393 Y36.227
X80.497 Y36.365
X80.595 Y36.507
X80.685 Y36.655
X80.766 Y36.807
X80.84 Y36.962
X80.905 Y37.12
X80.961 Y37.279
X81.009 Y37.441
X81.048 Y37.603
X81.078 Y37.766
X81.1 Y37.929
X81.113 Y38.092
X81.118 Y38.254
X81.114 Y38.415
X81.102 Y38.576
X81.081 Y38.734
X81.053 Y38.892
X81.016 Y39.047
X80.972 Y39.2
X80.92 Y39.35
X80.86 Y39.497
X80.793 Y39.641
X80.718 Y39.781
X80.636 Y39.917
X80.547 Y40.05
X80.451 Y40.177
X80.348 Y40.3
X80.239 Y40.417
X80.123 Y40.529
X80.002 Y40.635
X79.874 Y40.735
X79.742 Y40.829
X79.604 Y40.916
X79.461 Y40.996
X79.314 Y41.069
X79.163 Y41.134
X79.008 Y41.191
X78.85 Y41.241
X78.689 Y41.282
X78.525 Y41.316
X78.359 Y41.34
X78.192 Y41.356
X78.023 Y41.364
X77.854 Y41.363
X77.684 Y41.353
X77.515 Y41.334
X77.346 Y41.306
X77.179 Y41.27
X77.013 Y41.224
X76.849 Y41.17
X76.688 Y41.108
X76.53 Y41.037
X76.376 Y40.958
X76.226 Y40.871
X76.08 Y40.776
X75.939 Y40.673
X75.803 Y40.563
X75.673 Y40.446
X75.549 Y40.322
X75.432 Y40.192
X75.321 Y40.056
X75.217 Y39.914
X75.121 Y39.767
X75.032 Y39.614
X74.952 Y39.458
X74.879 Y39.297
X74.815 Y39.132
X74.759 Y38.964
X74.713 Y38.794
X74.675 Y38.621
X74.646 Y38.446
X74.626 Y38.27
X74.615 Y38.093
X74.614 Y37.916
X74.621 Y37.738
X74.638 Y37.562
X74.664 Y37.386
X74.699 Y37.212
X74.743 Y37.04
X74.796 Y36.87
X74.857 Y36.703
X74.928 Y36.54
X75.006 Y36.38
X75.093 Y36.225
X75.188 Y36.074
X75.29 Y35.929
X75.4 Y35.789
X75.517 Y35.655
X75.641 Y35.527
X75.771 Y35.405
X75.907 Y35.291
X76.049 Y35.183
X76.197 Y35.083
X76.349 Y34.991
X76.506 Y34.907
X76.667 Y34.832
X76.832 Y34.764
X77.001 Y34.705
X77.172 Y34.656
X77.345 Y34.615
X77.52 Y34.583
X77.697 Y34.56
X77.875 Y34.546
X78.053 Y34.542
X78.231 Y34.546
X78.409 Y34.56
X78.585 Y34.584
X78.761 Y34.616
X78.935 Y34.657
X79.107 Y34.708
X79.278 Y34.768
X79.446 Y34.837
X79.613 Y34.916
X79.777 Y35.004
X79.937 Y35.101
X80.094 Y35.208
X80.246 Y35.323
X80.394 Y35.448
X80.535 Y35.58
X80.671 Y35.721
X80.799 Y35.869
X80.92 Y36.024
X81.033 Y36.185
X81.137 Y36.351
X81.233 Y36.523
X81.319 Y36.699
X81.396 Y36.879
X81.463 Y37.061
X81.52 Y37.247
X81.568 Y37.434
X81.606 Y37.623
X81.633 Y37.813
X81.651 Y38.003
X81.659 Y38.194
X81.657 Y38.384
X81.645 Y38.573
X81.623 Y38.761
X81.592 Y38.947
X81.551 Y39.131
X81.501 Y39.312
X81.442 Y39.491
X81.373 Y39.666
X81.296 Y39.837
X81.209 Y40.004
X81.115 Y40.166
X81.011 Y40.324
X80.9 Y40.476
X80.78 Y40.622
X80.653 Y40.762
X80.519 Y40.896
X80.378 Y41.023
X80.23 Y41.142
X80.075 Y41.254
X79.915 Y41.358
X79.749 Y41.454
X79.577 Y41.542
X79.401 Y41.62
X79.221 Y41.69
X79.036 Y41.75
X78.848 Y41.801
X78.658 Y41.843
X78.464 Y41.874
X78.269 Y41.895
X78.073 Y41.907
X77.876 Y41.908
X77.678 Y41.899
X77.481 Y41.879
X77.284 Y41.849
X77.089 Y41.809
X76.895 Y41.759
X76.704 Y41.699
X76.517 Y41.629
X76.332 Y41.549
X76.152 Y41.459
X75.976 Y41.361
X75.805 Y41.252
X75.64 Y41.135
X75.481 Y41.01
X75.328 Y40.876
X75.183 Y40.734
X75.044 Y40.585
X74.914 Y40.428
X74.791 Y40.265
X74.678 Y40.096
X74.572 Y39.92
X74.477 Y39.74
X74.39 Y39.554
X74.313 Y39.364
X74.246 Y39.17
X74.189 Y38.973
X74.143 Y38.773
X74.106 Y38.571
X74.081 Y38.367
X74.066 Y38.162
X74.061 Y37.956
X74.067 Y37.75
X74.084 Y37.545
X74.112 Y37.341
X74.15 Y37.138
X74.198 Y36.938
X74.257 Y36.741
X74.326 Y36.547
X74.404 Y36.356
X74.493 Y36.17
X74.591 Y35.989
X74.698 Y35.813
X74.814 Y35.643
X74.939 Y35.48
X75.072 Y35.322
X75.213 Y35.172
X75.362 Y35.03
X75.518 Y34.895
X75.68 Y34.769
X75.849 Y34.651
X76.024 Y34.542
X76.204 Y34.442
X76.389 Y34.351
X76.578 Y34.27
X76.771 Y34.199
X76.968 Y34.138
X77.168 Y34.088
X77.37 Y34.047
X77.573 Y34.018
X77.778 Y33.998
X77.984 Y33.99
X78.19 Y33.992
X78.396 Y34.004
X78.6 Y34.027
X78.803 Y34.061
X79.005 Y34.105
X79.203 Y34.159
X79.399 Y34.223
X79.591 Y34.297
X79.779 Y34.381
X79.963 Y34.473
X80.142 Y34.575
X80.316 Y34.685
X80.484 Y34.804
X80.647 Y34.931
X80.803 Y35.065
X80.952 Y35.207
X81.095 Y35.355
X81.23 Y35.511
X81.357 Y35.673
X81.477 Y35.84
X81.589 Y36.013
X81.692 Y36.192
X81.786 Y36.375
X81.872 Y36.562
X81.948 Y36.753
X82.016 Y36.948
X82.074 Y37.145
X82.122 Y37.345
X82.161 Y37.548
X82.19 Y37.751
X82.209 Y37.956
X82.218 Y38.162
X82.217 Y38.368
X82.206 Y38.574
X82.185 Y38.779
X82.154 Y38.982
X82.113 Y39.184
X82.062 Y39.384
X82.001 Y39.58
X81.931 Y39.774
X81.852 Y39.964
X81.763 Y40.15
X81.665 Y40.331
X81.559 Y40.507
X81.444 Y40.678
X81.321 Y40.843
X81.19 Y41.002
X81.051 Y41.154
X80.905 Y41.299
X80.752 Y41.437
X80.593 Y41.568
X80.427 Y41.69
X80.256 Y41.804
X80.079 Y41.91
X79.897 Y42.007
X79.711 Y42.096
X79.521 Y42.175
X79.328 Y42.245
X79.131 Y42.306
X78.932 Y42.357
X78.73 Y42.399
X78.527 Y42.432
X78.322 Y42.454
X78.116 Y42.467
X77.91 Y42.47
X77.705 Y42.463
X77.499 Y42.447
X77.295 Y42.421
X77.092 Y42.385
X76.891 Y42.341
X76.693 Y42.286
X76.497 Y42.223
X76.304 Y42.151
X76.115 Y42.069
X75.929 Y41.979
X75.749 Y41.881
X75.573 Y41.774
X75.402 Y41.659
X75.236 Y41.537
X75.076 Y41.407
X74.923 Y41.27
X74.775 Y41.126
X74.635 Y40.975
X74.502 Y40.818
X74.376 Y40.655
X74.258 Y40.486
X74.147 Y40.313
X74.045 Y40.134
X73.95 Y39.951
X73.864 Y39.764
X73.787 Y39.573
X73.719 Y39.379
X73.659 Y39.182
X73.609 Y38.982
X73.568 Y38.78
X73.536 Y38.577
X73.513 Y38.372
X73.499 Y38.167
X73.495 Y37.961
X73.5 Y37.755
X73.515 Y37.549
X73.539 Y37.345
X73.572 Y37.142
X73.614 Y36.94
X73.665 Y36.741
X73.725 Y36.544
X73.794 Y36.35
X73.872 Y36.159
X73.959 Y35.972
X74.054 Y35.789
X74.157 Y35.611
X74.267 Y35.437
X74.386 Y35.269
X74.512 Y35.106
X74.645 Y34.949
X74.786 Y34.799
X74.933 Y34.655
X75.086 Y34.517
X75.246 Y34.387
X75.411 Y34.264
X75.581 Y34.148
X75.757 Y34.041
X75.937 Y33.941
X76.122 Y33.85
X76.31 Y33.767
X76.503 Y33.693
X76.698 Y33.627
X76.896 Y33.571
X77.096 Y33.523
X77.298 Y33.484
X77.502 Y33.455
X77.707 Y33.435
X77.913 Y33.424
X78.119 Y33.423
X78.324 Y33.431
X78.53 Y33.447
X78.734 Y33.473
X78.937 Y33.509
X79.138 Y33.553
X79.337 Y33.606
X79.533 Y33.668
X79.727 Y33.739
X79.917 Y33.818
X80.103 Y33.905
X80.286 Y34
X80.464 Y34.103
X80.638 Y34.214
X80.807 Y34.332
X80.97 Y34.457
X81.128 Y34.589
X81.281 Y34.728
X81.427 Y34.873
X81.567 Y35.024
X81.644 Y35.115
X81.694 Y35.177
G3 X81.959 Y35.557 I-5.833 J4.335
G1 X82.03 Y35.682
X82.125 Y35.851
X82.214 Y36.034
X82.257 Y36.129
X82.299 Y36.224
X82.372 Y36.415
X82.411 Y36.522
X82.465 Y36.7
X82.506 Y36.845
X82.518 Y36.891
X82.578 Y37.176
X82.593 Y37.272
X82.618 Y37.462
X82.629 Y37.557
X82.641 Y37.748
G3 X82.536 Y38.986 I-4.554 J0.239
G1 X82.515 Y39.081
X82.436 Y39.367
X82.403 Y39.462
X82.316 Y39.703
X82.296 Y39.748
X82.166 Y40.033
X82.116 Y40.129
X82.01 Y40.319
X81.952 Y40.414
X81.827 Y40.605
X81.744 Y40.719
G3 X81.263 Y41.271 I-3.91 J-2.923
X80.792 Y41.674 I-3.717 J-3.874
G1 X80.688 Y41.747
X80.506 Y41.87
X80.411 Y41.928
X80.221 Y42.036
X80.125 Y42.087
X79.83 Y42.224
X79.745 Y42.256
X79.554 Y42.327
X79.459 Y42.361
X79.173 Y42.442
X79.078 Y42.464
X78.792 Y42.521
X78.602 Y42.546
X78.507 Y42.557
X78.411 Y42.567
G3 X77.935 Y42.581 I-0.444 J-6.661
G1 X77.745 Y42.569
X77.649 Y42.562
X77.459 Y42.542
X77.269 Y42.513
X77.173 Y42.496
X77.078 Y42.476
X76.983 Y42.454
X76.792 Y42.406
X76.602 Y42.346
X76.507 Y42.314
X76.411 Y42.279
X76.221 Y42.2
X76.126 Y42.16
X75.935 Y42.065
G3 X75.554 Y41.843 I1.78 J-3.495
G1 X75.459 Y41.782
X75.279 Y41.652
X75.157 Y41.557
X74.983 Y41.409
X74.935 Y41.367
X74.793 Y41.227
X74.652 Y41.081
X74.602 Y41.025
X74.487 Y40.89
X74.411 Y40.795
X74.272 Y40.605
X74.221 Y40.531
X74.126 Y40.378
X74.031 Y40.221
X73.935 Y40.033
X73.888 Y39.938
X73.84 Y39.834
X73.745 Y39.601
X73.727 Y39.557
X73.65 Y39.318
X73.635 Y39.271
X73.608 Y39.176
X73.54 Y38.891
X73.508 Y38.7
X73.494 Y38.605
G3 X73.46 Y37.701 I4.601 J-0.625
G1 X73.471 Y37.557
X73.491 Y37.367
X73.523 Y37.176
X73.539 Y37.081
X73.555 Y37.007
X73.631 Y36.7
X73.726 Y36.415
X73.745 Y36.358
X73.882 Y36.034
X73.98 Y35.843
X74.031 Y35.745
X74.084 Y35.653
X74.143 Y35.557
X74.266 Y35.367
X74.412 Y35.169
G3 X74.697 Y34.833 I4 J3.119
G1 X74.793 Y34.736
X74.926 Y34.605
G3 X75.269 Y34.318 I4.08 J4.52
G1 X75.459 Y34.183
G3 X76.257 Y33.748 I2.623 J3.858
X77.649 Y33.401 I1.802 J4.267
G1 X77.935 Y33.384
X78.03 Y33.383
X78.221 Y33.386
X78.316 Y33.389
X78.602 Y33.416
G3 X79.304 Y33.558 I-0.614 J4.853
X80.126 Y33.878 I-1.288 J4.517
G1 X80.316 Y33.98
X80.411 Y34.035
X80.602 Y34.157
X80.699 Y34.224
X80.829 Y34.319
X80.983 Y34.438
X81.173 Y34.608
X81.273 Y34.7
X81.459 Y34.895
X81.554 Y35.005
X81.644 Y35.115
X81.661 Y35.15 Z-6.844
X81.676 Y35.181 Z-6.826
X81.688 Y35.206 Z-6.798
X81.696 Y35.221 Z-6.764
X81.699 Y35.227 Z-6.725
G0 Z5
X78.28 Y14.14
Z0.504
G3 X77.819 Y17.121 Z0.339 I-0.231 J1.49 F100
X78.28 Y14.14 Z0.174 I0.231 J-1.49
X77.819 Y17.121 Z0.008 I-0.231 J1.49
X78.28 Y14.14 Z-0.157 I0.231 J-1.49
X77.819 Y17.121 Z-0.323 I-0.231 J1.49
X78.28 Y14.14 Z-0.488 I0.231 J-1.49
X77.819 Y17.121 Z-0.654 I-0.231 J1.49
X78.28 Y14.14 Z-0.819 I0.231 J-1.49
X77.819 Y17.121 Z-0.985 I-0.231 J1.49
X78.28 Y14.14 Z-1.15 I0.231 J-1.49
X77.819 Y17.121 Z-1.315 I-0.231 J1.49
X78.28 Y14.14 Z-1.481 I0.231 J-1.49
X77.819 Y17.121 Z-1.646 I-0.231 J1.49
X78.28 Y14.14 Z-1.812 I0.231 J-1.49
X77.819 Y17.121 Z-1.977 I-0.231 J1.49
X78.28 Y14.14 Z-2.143 I0.231 J-1.49
X77.819 Y17.121 Z-2.308 I-0.231 J1.49
X78.28 Y14.14 Z-2.474 I0.231 J-1.49
X77.819 Y17.121 Z-2.639 I-0.231 J1.49
X78.28 Y14.14 Z-2.805 I0.231 J-1.49
X77.819 Y17.121 Z-2.97 I-0.231 J1.49
X78.28 Y14.14 Z-3.135 I0.231 J-1.49
X77.819 Y17.121 Z-3.301 I-0.231 J1.49
X78.28 Y14.14 Z-3.466 I0.231 J-1.49
X77.819 Y17.121 Z-3.632 I-0.231 J1.49
X78.28 Y14.14 Z-3.797 I0.231 J-1.49
X77.819 Y17.121 Z-3.963 I-0.231 J1.49
X78.28 Y14.14 Z-4.128 I0.231 J-1.49
X77.819 Y17.121 Z-4.294 I-0.231 J1.49
X78.28 Y14.14 Z-4.459 I0.231 J-1.49
X77.819 Y17.121 Z-4.625 I-0.231 J1.49
X78.28 Y14.14 Z-4.79 I0.231 J-1.49
X77.819 Y17.121 Z-4.955 I-0.231 J1.49
X78.28 Y14.14 Z-5.121 I0.231 J-1.49
X77.819 Y17.121 Z-5.286 I-0.231 J1.49
X78.28 Y14.14 Z-5.452 I0.231 J-1.49
X77.819 Y17.121 Z-5.617 I-0.231 J1.49
X78.28 Y14.14 Z-5.783 I0.231 J-1.49
X77.819 Y17.121 Z-5.948 I-0.231 J1.49
X78.28 Y14.14 Z-6.114 I0.231 J-1.49
X77.819 Y17.121 Z-6.279 I-0.231 J1.49
X78.28 Y14.14 Z-6.444 I0.231 J-1.49
X77.819 Y17.121 Z-6.61 I-0.231 J1.49
X78.28 Y14.14 Z-6.775 I0.231 J-1.49
X79.558 Y15.63 Z-6.85 I-0.231 J1.49
X76.541 Y15.63 I-1.508 J0
X79.558 Y15.63 I1.508 J0
G1 Y15.836 F600
X79.576 Y16.006
X79.564 Y16.177
X79.523 Y16.343
X79.455 Y16.5
X79.361 Y16.642
G3 X79.078 Y16.929 I-1.234 J-0.939
G1 X78.983 Y16.997
X78.887 Y17.06
X78.792 Y17.111
X78.697 Y17.156
X78.602 Y17.191
X78.507 Y17.223
X78.411 Y17.245
X78.316 Y17.265
X78.221 Y17.276
X78.126 Y17.285
X78.03
X77.935 Y17.284
X77.84 Y17.272
X77.745 Y17.259
X77.649 Y17.236
X77.554 Y17.212
X77.459 Y17.176
X77.364 Y17.139
X77.269 Y17.093
X77.173 Y17.038
X77.078 Y16.973
X76.983 Y16.9
X76.888 Y16.813
X76.792 Y16.71
X76.697 Y16.586
X76.644 Y16.511
X76.602 Y16.437
X76.542 Y16.321
X76.505 Y16.226
X76.469 Y16.13
X76.445 Y16.035
X76.421 Y15.94
G3 X76.394 Y15.654 I1.23 J-0.259
G1 X76.393 Y15.559
X76.401 Y15.464
X76.412 Y15.368
X76.454 Y15.178
X76.507 Y15.023
X76.52 Y14.988
X76.565 Y14.892
X76.602 Y14.819
X76.615 Y14.797
X76.697 Y14.676
X76.746 Y14.607
X76.792 Y14.548
X76.919 Y14.416
X76.983 Y14.361
X77.078 Y14.291
X77.173 Y14.222
X77.269 Y14.17
X77.364 Y14.119
X77.459 Y14.081
G3 X77.84 Y13.987 I0.54 J1.367
G1 X77.935 Y13.976
X78.03 Y13.974
X78.126
X78.221 Y13.983
G3 X78.602 Y14.069 I-0.107 J1.358
G1 X78.697 Y14.105
X78.754 Y14.13
X78.887 Y14.199
X78.932 Y14.226
X78.983 Y14.26
X79.078 Y14.331
X79.173 Y14.411
X79.272 Y14.511
X79.354 Y14.607
X79.459 Y14.76
X79.482 Y14.797
X79.532 Y14.892
X79.578 Y14.988
X79.612 Y15.083
X79.645 Y15.178
X79.667 Y15.273
X79.688 Y15.368
X79.699 Y15.464
X79.707 Y15.559
X79.706 Y15.654
X79.704 Y15.749
X79.693 Y15.845
X79.678 Y15.94
X79.649 Y16.055
X79.63 Y16.13
X79.593 Y16.226
X79.554 Y16.325
X79.508 Y16.416
X79.453 Y16.511
X79.388 Y16.606
X79.361 Y16.642
X79.331 Y16.666 Z-6.844
X79.304 Y16.688 Z-6.826
X79.283 Y16.705 Z-6.798
X79.269 Y16.716 Z-6.764
X79.264 Y16.72 Z-6.725
G0 Z15

(Big Hole Finishing)
X78.392 Y41.83
Z15
Z5
G1 Z-6.533 F100
Y41.838 Z-6.603
Y41.861 Z-6.67
Y41.899 Z-6.73
Y41.949 Z-6.781
X78.393 Y42.009 Z-6.819
Y42.076 Z-6.842
X78.394 Y42.147 Z-6.85
X78.396 Y42.465 F300
G3 X78.08 Y42.784 I-0.317 J0.002
G1 X78.049
G3 X74.171 Y35.15 I0 J-4.803
G1 X74.207 Y35.1
G3 X81.891 Y40.863 I3.842 J2.882
X78.111 Y42.784 I-3.842 J-2.881
G1 X78.049
G3 X74.171 Y35.15 I0 J-4.803
G1 X74.207 Y35.1
G3 X81.891 Y40.863 I3.842 J2.882
X78.111 Y42.784 I-3.842 J-2.881
G1 X78.08
G3 X77.761 Y42.469 I-0.002 J-0.317
G1 X77.759 Y42.151
X77.758 Y42.081 Z-6.842
Y42.013 Z-6.819
X77.757 Y41.953 Z-6.781
Y41.903 Z-6.73
Y41.865 Z-6.67
Y41.842 Z-6.603
Y41.834 Z-6.533
G0 Z5
X78.376 Y16.536
G1 Z-6.533 F100
Y16.544 Z-6.603
X78.377 Y16.568 Z-6.67
Y16.606 Z-6.73
X78.378 Y16.656 Z-6.781
Y16.716 Z-6.819
X78.379 Y16.783 Z-6.842
X78.38 Y16.854 Z-6.85
X78.383 Y17.171 F300
G3 X78.069 Y17.492 I-0.317 J0.003
G1 X78.049
G3 X78.049 Y13.767 I0 J-1.863
X79.516 Y14.482 I0 J1.863
G1 X79.539 Y14.512
G3 X78.088 Y17.492 I-1.49 J1.118
G1 X78.049
G3 X78.049 Y13.767 I0 J-1.863
X79.516 Y14.482 I0 J1.863
G1 X79.539 Y14.512
G3 X78.088 Y17.492 I-1.49 J1.118
G1 X78.069
G3 X77.748 Y17.178 I-0.003 J-0.317
G1 X77.745 Y16.86
X77.744 Y16.79 Z-6.842
X77.743 Y16.723 Z-6.819
Y16.662 Z-6.781
X77.742 Y16.612 Z-6.73
Y16.574 Z-6.67
X77.741 Y16.551 Z-6.603
Y16.543 Z-6.533
G0 Z5
X79.595 Y72.787
G1 Z-6.533 F100
X79.6 Y72.78 Z-6.603
X79.614 Y72.762 Z-6.67
X79.636 Y72.731 Z-6.73
X79.666 Y72.691 Z-6.781
X79.701 Y72.642 Z-6.819
X79.741 Y72.588 Z-6.842
X79.783 Y72.531 Z-6.85
X79.971 Y72.275 F300
G3 X80.414 Y72.207 I0.256 J0.188
G1 X80.43 Y72.218
G3 X80.46 Y75.175 I-1.118 J1.49
G1 X80.43 Y75.198
G3 X78.195 Y72.218 I-1.118 J-1.49
X80.399 Y72.195 I1.117 J1.49
G1 X80.414 Y72.207
X80.43 Y72.218
G3 X80.46 Y75.175 I-1.118 J1.49
G1 X80.43 Y75.198
G3 X78.195 Y72.218 I-1.118 J-1.49
X80.399 Y72.195 I1.117 J1.49
G1 X80.414 Y72.207
G3 X80.483 Y72.651 I-0.188 J0.256
G1 X80.295 Y72.907
X80.253 Y72.964 Z-6.842
X80.213 Y73.018 Z-6.819
X80.178 Y73.066 Z-6.781
X80.148 Y73.107 Z-6.73
X80.125 Y73.137 Z-6.67
X80.112 Y73.156 Z-6.603
X80.107 Y73.163 Z-6.533
G0 Z5
X58.995 Y70.425
G1 Z-6.533 F100
X59 Y70.418 Z-6.603
X59.014 Y70.399 Z-6.67
X59.037 Y70.369 Z-6.73
X59.066 Y70.329 Z-6.781
X59.102 Y70.28 Z-6.819
X59.142 Y70.226 Z-6.842
X59.184 Y70.169 Z-6.85
X59.373 Y69.914 F300
G3 X59.817 Y69.848 I0.255 J0.189
G1 X59.842 Y69.866
G3 X54.079 Y77.55 I-2.882 J3.842
X52.158 Y73.77 I2.882 J-3.842
G1 Y73.708
G3 X59.792 Y69.83 I4.802 J0
G1 X59.817 Y69.848
X59.842 Y69.866
G3 X54.079 Y77.55 I-2.882 J3.842
X52.158 Y73.77 I2.882 J-3.842
G1 Y73.708
G3 X59.792 Y69.83 I4.802 J0
G1 X59.817 Y69.848
G3 X59.884 Y70.292 I-0.189 J0.255
G1 X59.695 Y70.547
X59.653 Y70.604 Z-6.842
X59.613 Y70.658 Z-6.819
X59.577 Y70.706 Z-6.781
X59.547 Y70.747 Z-6.73
X59.524 Y70.777 Z-6.67
X59.511 Y70.796 Z-6.603
X59.506 Y70.802 Z-6.533
G0 Z15

(Pockets)
X26.505 Y76.552
Z15
Z0.504
G3 X23.89 Y75.05 Z0.339 I-1.308 J-0.751 F100
X26.505 Y76.552 Z0.174 I1.308 J0.751
X23.89 Y75.05 Z0.008 I-1.308 J-0.751
X26.505 Y76.552 Z-0.157 I1.308 J0.751
X23.89 Y75.05 Z-0.323 I-1.308 J-0.751
X26.505 Y76.552 Z-0.488 I1.308 J0.751
X23.89 Y75.05 Z-0.654 I-1.308 J-0.751
X26.505 Y76.552 Z-0.819 I1.308 J0.751
X23.89 Y75.05 Z-0.985 I-1.308 J-0.751
X26.505 Y76.552 Z-1.15 I1.308 J0.751
X23.89 Y75.05 Z-1.315 I-1.308 J-0.751
X26.505 Y76.552 Z-1.481 I1.308 J0.751
X23.89 Y75.05 Z-1.646 I-1.308 J-0.751
X26.505 Y76.552 Z-1.812 I1.308 J0.751
X23.89 Y75.05 Z-1.977 I-1.308 J-0.751
X26.505 Y76.552 Z-2.143 I1.308 J0.751
X23.89 Y75.05 Z-2.308 I-1.308 J-0.751
X26.505 Y76.552 Z-2.474 I1.308 J0.751
X23.89 Y75.05 Z-2.639 I-1.308 J-0.751
X26.505 Y76.552 Z-2.805 I1.308 J0.751
X23.89 Y75.05 Z-2.97 I-1.308 J-0.751
X26.505 Y76.552 Z-3.135 I1.308 J0.751
X23.89 Y75.05 Z-3.301 I-1.308 J-0.751
X26.505 Y76.552 Z-3.466 I1.308 J0.751
X23.89 Y75.05 Z-3.632 I-1.308 J-0.751
X26.505 Y76.552 Z-3.797 I1.308 J0.751
X23.89 Y75.05 Z-3.963 I-1.308 J-0.751
X26.505 Y76.552 Z-4.128 I1.308 J0.751
X23.89 Y75.05 Z-4.294 I-1.308 J-0.751
X26.505 Y76.552 Z-4.459 I1.308 J0.751
X23.89 Y75.05 Z-4.625 I-1.308 J-0.751
X26.706 Y75.801 Z-4.762 I1.308 J0.751
X23.689 Y75.801 I-1.508 J0
X26.706 Y75.801 I1.508 J0
G1 Y76.007 F1000
X26.723 Y76.108
G3 X26.728 Y76.455 I-0.719 J0.184
X26.489 Y76.969 I-1.187 J-0.24
X25.804 Y77.476 I-1.234 J-0.952
X24.249 Y77.326 I-0.628 J-1.629
X24.78 Y74.051 I0.946 J-1.527
X26.871 Y75.141 I0.419 J1.747
G1 X26.933 Y75.308
X26.976 Y75.44
G3 X27.07 Y75.919 I-2.237 J0.689
X26.857 Y76.932 I-1.77 J0.155
X25.854 Y77.776 I-1.63 J-0.919
X24.273 Y77.692 I-0.692 J-1.905
X23.363 Y74.757 I0.914 J-1.892
X26.887 Y74.534 I1.835 J1.042
X27.382 Y75.696 I-2.033 J1.553
X27.347 Y76.533 I-2.23 J0.325
X26.258 Y77.943 I-2.116 J-0.509
X24.646 Y78.165 I-1.101 J-2.034
X22.867 Y76.525 I0.522 J-2.352
X26.676 Y73.856 I2.33 J-0.727
X27.29 Y74.512 I-1.593 J2.106
X27.747 Y75.903 I-2.26 J1.513
X27.432 Y77.238 I-2.548 J0.103
X25.85 Y78.469 I-2.247 J-1.255
X23.972 Y78.294 I-0.705 J-2.592
X22.416 Y75.997 I1.199 J-2.489
X26.543 Y73.356 I2.781 J-0.2
X27.404 Y74.069 I-1.409 J2.578
X28.105 Y75.938 I-2.331 J1.939
X27.825 Y77.244 I-2.926 J0.055
X26.118 Y78.758 I-2.645 J-1.261
X24.235 Y78.782 I-0.978 J-2.864
X22.331 Y77.104 I0.923 J-2.966
X23.84 Y72.954 I2.861 J-1.308
X26.544 Y72.948 I1.359 J2.846
X27.554 Y73.681 I-1.393 J2.981
X28.471 Y75.855 I-2.459 J2.319
X28.186 Y77.336 I-3.299 J0.133
X26.432 Y79.034 I-3.011 J-1.355
X24.472 Y79.225 I-1.295 J-3.129
X22.409 Y77.949 I0.675 J-3.397
X21.883 Y74.595 I2.772 J-2.153
X26.07 Y72.381 I3.315 J1.203
X27.181 Y72.873 I-0.881 J3.488
X28.848 Y75.757 I-2.067 J3.119
X28.357 Y77.832 I-3.672 J0.228
X26.502 Y79.417 I-3.193 J-1.861
X24.631 Y79.64 I-1.368 J-3.509
X22.605 Y78.717 I0.508 J-3.801
X21.321 Y76.322 I2.563 J-2.916
X23.221 Y72.421 I3.872 J-0.527
X25.761 Y71.925 I1.978 J3.379
X27.034 Y72.335 I-0.567 J3.942
X28.24 Y73.289 I-1.884 J3.624
X29.232 Y75.644 I-3.117 J2.699
X29.017 Y77.33 I-4.066 J0.338
X27.481 Y79.338 I-3.844 J-1.35
X25.889 Y79.997 I-2.339 J-3.397
X24.143 Y79.948 I-0.76 J-4.112
X22.55 Y79.183 I0.995 J-4.112
X21.318 Y77.664 I2.609 J-3.377
X20.93 Y75.205 I3.863 J-1.869
X22.942 Y72.126 I4.265 J0.591
X25 Y71.494 I2.256 J3.674
X26.091 Y71.581 I0.201 J4.338
X26.969 Y71.863 I-0.899 J4.303
X27.625 Y72.222 I-1.797 J4.067
X28.216 Y72.688 I-2.473 J3.741
G1 X28.351 Y72.82
G3 X28.835 Y73.404 I-3.221 J3.164
X29.293 Y74.234 I-3.709 J2.584
X29.527 Y74.955 I-4.159 J1.75
X29.645 Y75.89 I-4.378 J1.027
X29.526 Y77.01 I-4.478 J0.09
X28.611 Y78.843 I-4.35 J-1.028
X27.935 Y79.499 I-3.448 J-2.87
G1 X27.784 Y79.613
X27.628 Y79.721
X27.468 Y79.822
X27.303 Y79.916
X27.134 Y80.003
X26.962 Y80.083
X26.786 Y80.156
X26.607 Y80.222
X26.425 Y80.28
X26.241 Y80.33
X26.054 Y80.373
X25.865 Y80.408
X25.675 Y80.435
X25.484 Y80.454
X25.292 Y80.465
X25.1 Y80.468
X24.907 Y80.463
X24.714 Y80.449
X24.522 Y80.428
X24.331 Y80.398
X24.141 Y80.361
X23.952 Y80.315
X23.766 Y80.262
X23.582 Y80.2
X23.4 Y80.131
X23.221 Y80.054
X23.045 Y79.97
X22.873 Y79.878
X22.705 Y79.78
X22.541 Y79.674
X22.381 Y79.561
X22.226 Y79.441
X22.076 Y79.315
X21.932 Y79.183
X21.793 Y79.044
X21.66 Y78.9
X21.533 Y78.75
X21.412 Y78.595
X21.298 Y78.435
X21.191 Y78.271
X21.091 Y78.101
X20.998 Y77.928
X20.912 Y77.751
X20.834 Y77.57
X20.763 Y77.386
X20.7 Y77.199
X20.645 Y77.01
X20.598 Y76.819
X20.559 Y76.625
X20.528 Y76.43
X20.505 Y76.234
X20.491 Y76.037
X20.485 Y75.84
X20.487 Y75.642
X20.498 Y75.445
X20.517 Y75.248
X20.544 Y75.052
X20.579 Y74.858
X20.622 Y74.665
X20.674 Y74.474
X20.733 Y74.285
X20.801 Y74.099
X20.876 Y73.916
X20.959 Y73.736
X21.049 Y73.56
X21.147 Y73.388
X21.251 Y73.22
X21.363 Y73.057
X21.482 Y72.898
X21.607 Y72.744
X21.738 Y72.596
X21.876 Y72.454
X22.019 Y72.317
X22.168 Y72.187
X22.322 Y72.063
X22.482 Y71.945
X22.646 Y71.835
X22.815 Y71.731
X22.988 Y71.634
X23.165 Y71.545
X23.345 Y71.464
X23.529 Y71.39
X23.716 Y71.323
X23.906 Y71.265
X24.098 Y71.215
X24.292 Y71.172
X24.487 Y71.138
X24.685 Y71.112
X24.883 Y71.095
X25.082 Y71.085
X25.282 Y71.084
X25.481 Y71.092
X25.681 Y71.108
X25.88 Y71.132
X26.078 Y71.165
X26.275 Y71.206
X26.47 Y71.255
X26.664 Y71.313
X26.855 Y71.379
X27.044 Y71.453
X27.23 Y71.535
X27.413 Y71.625
X27.592 Y71.723
X27.767 Y71.828
X27.938 Y71.941
X28.104 Y72.061
X28.265 Y72.189
X28.421 Y72.323
X28.572 Y72.463
X28.716 Y72.61
X28.854 Y72.763
X28.986 Y72.921
X29.111 Y73.085
X29.228 Y73.254
X29.339 Y73.428
X29.442 Y73.606
X29.538 Y73.788
X29.626 Y73.974
X29.706 Y74.164
X29.779 Y74.357
X29.843 Y74.553
X29.898 Y74.751
X29.946 Y74.951
X29.985 Y75.154
X30.015 Y75.357
X30.037 Y75.562
X30.05 Y75.767
X30.055 Y75.973
X30.051 Y76.178
X30.038 Y76.384
X30.017 Y76.588
X29.987 Y76.791
X29.949 Y76.993
X29.902 Y77.192
X29.847 Y77.39
X29.784 Y77.585
X29.712 Y77.777
X29.633 Y77.966
X29.545 Y78.152
X29.45 Y78.334
X29.348 Y78.512
X29.237 Y78.685
X29.12 Y78.854
X28.996 Y79.017
X28.864 Y79.175
X28.727 Y79.328
X28.582 Y79.475
X28.432 Y79.616
X28.276 Y79.75
X28.114 Y79.878
X27.948 Y79.999
X27.776 Y80.112
X27.6 Y80.219
X27.419 Y80.318
X27.234 Y80.409
X27.046 Y80.493
X26.855 Y80.568
X26.66 Y80.636
X26.463 Y80.695
X26.264 Y80.746
X26.062 Y80.789
X25.859 Y80.824
X25.655 Y80.85
X25.45 Y80.868
X25.244 Y80.877
X25.038
X24.832 Y80.869
X24.627 Y80.853
X24.423 Y80.828
X24.219 Y80.795
X24.018 Y80.754
X23.818 Y80.704
X23.62 Y80.646
X23.425 Y80.58
X23.233 Y80.506
X23.044 Y80.425
X22.858 Y80.335
X22.676 Y80.239
X22.499 Y80.134
X22.325 Y80.023
X22.157 Y79.905
X21.993 Y79.78
X21.834 Y79.649
X21.681 Y79.511
X21.534 Y79.367
X21.393 Y79.217
X21.257 Y79.062
X21.129 Y78.901
X21.006 Y78.736
X20.891 Y78.565
X20.783 Y78.39
X20.681 Y78.211
X20.587 Y78.027
X20.501 Y77.84
X20.422 Y77.65
X20.351 Y77.457
X20.288 Y77.261
X20.233 Y77.062
X20.186 Y76.862
X20.147 Y76.66
X20.116 Y76.456
X20.094 Y76.251
X20.08 Y76.046
X20.074 Y75.84
X20.076 Y75.634
X20.087 Y75.429
X20.106 Y75.223
X20.133 Y75.019
X20.168 Y74.816
X20.211 Y74.615
X20.263 Y74.416
X20.322 Y74.219
X20.389 Y74.024
X20.464 Y73.832
X20.547 Y73.643
X20.637 Y73.458
X20.735 Y73.277
X20.84 Y73.1
X20.951 Y72.927
X21.07 Y72.759
X21.196 Y72.595
X21.328 Y72.437
X21.466 Y72.285
X21.61 Y72.138
X21.76 Y71.996
X21.916 Y71.861
X22.076 Y71.733
X22.242 Y71.611
X22.413 Y71.496
X22.588 Y71.387
X22.767 Y71.286
X22.95 Y71.192
X23.137 Y71.105
X23.328 Y71.026
X23.521 Y70.955
X23.717 Y70.891
X23.915 Y70.836
X24.115 Y70.788
X24.317 Y70.748
X24.521 Y70.717
X24.725 Y70.694
X24.931 Y70.679
X25.137 Y70.672
X25.342 Y70.673
X25.548 Y70.683
X25.753 Y70.701
X25.958 Y70.727
X26.161 Y70.761
X26.362 Y70.803
X26.562 Y70.853
X26.76 Y70.911
X26.955 Y70.976
X27.148 Y71.049
X27.337 Y71.13
X27.523 Y71.218
X27.706 Y71.313
X27.885 Y71.415
X28.059 Y71.524
X28.229 Y71.64
X28.395 Y71.763
X28.556 Y71.892
G3 X29.278 Y72.624 I-3.422 J4.099
G1 X29.404 Y72.786
X29.525 Y72.953
X29.639 Y73.125
X29.746 Y73.3
X29.846 Y73.48
G3 X30.175 Y74.235 I-4.705 J2.499
X30.442 Y75.438 I-5.054 J1.753
G1 X30.459 Y75.644
X30.468 Y75.849
X30.469 Y76.055
X30.462 Y76.261
X30.447 Y76.466
G3 X30.307 Y77.278 I-5.293 J-0.492
X30.045 Y78.057 I-5.162 J-1.304
G1 X29.96 Y78.245
X29.869 Y78.43
X29.77 Y78.61
X29.664 Y78.787
X29.552 Y78.96
G3 X29.037 Y79.602 I-4.399 J-2.995
X28.43 Y80.158 I-3.905 J-3.656
G1 X28.266 Y80.281
X28.096 Y80.399
X27.923 Y80.509
G3 X27.189 Y80.882 I-2.781 J-4.564
X25.8 Y81.251 I-2.068 J-4.985
X24.978 Y81.291 I-0.673 J-5.326
X23.559 Y81.062 I0.152 J-5.446
X22.426 Y80.575 I1.56 J-5.193
X21.001 Y79.404 I2.737 J-4.782
X20.303 Y78.387 I4.132 J-3.584
X19.721 Y76.637 I4.879 J-2.596
X19.715 Y74.995 I5.475 J-0.841
X20.027 Y73.802 I5.474 J0.795
X20.968 Y72.216 I5.17 J1.996
X22.032 Y71.249 I4.205 J3.557
X23.9 Y70.409 I3.181 J4.577
X25.535 Y70.264 I1.304 J5.417
X27.523 Y70.755 I-0.329 J5.61
X29.866 Y72.71 I-2.355 J5.205
X30.761 Y74.775 I-4.722 J3.272
X30.751 Y77.227 I-5.611 J1.203
X29.587 Y79.611 I-5.593 J-1.253
X26.501 Y81.548 I-4.448 J-3.661
X23.648 Y81.524 I-1.379 J-5.654
X20.994 Y80.012 I1.486 J-5.692
X19.45 Y77.378 I4.155 J-4.206
X19.372 Y74.524 I5.725 J-1.584
X20.766 Y71.806 I5.807 J1.263
X22.937 Y70.279 I4.426 J3.985
X25.556 Y69.842 I2.266 J5.522
X28.463 Y70.783 I-0.352 J6.046
X30.649 Y73.197 I-3.295 J5.18
X31.282 Y76.592 I-5.485 J2.779
X30.451 Y79.115 I-6.096 J-0.608
X28.635 Y81.053 I-5.282 J-3.131
X25.765 Y82.105 I-3.501 J-5.107
X22.738 Y81.667 I-0.645 J-6.22
X20.274 Y79.856 I2.393 J-5.838
X18.905 Y76.899 I4.874 J-4.051
X19.112 Y73.847 I6.266 J-1.108
X20.716 Y71.242 I6.063 J1.936
X23.346 Y69.681 I4.477 J4.546
X25.994 Y69.453 I1.86 J6.125
X29.027 Y70.65 I-0.789 J6.442
X31.107 Y73.16 I-3.852 J5.31
X31.693 Y76.771 I-5.938 J2.815
X30.738 Y79.467 I-6.503 J-0.785
X28.73 Y81.503 I-5.566 J-3.479
X25.641 Y82.547 I-3.597 J-5.555
X22.425 Y82.001 I-0.524 J-6.658
X19.843 Y80.007 I2.701 J-6.166
X18.493 Y77.037 I5.297 J-4.199
X18.747 Y73.584 I6.673 J-1.246
X20.365 Y70.984 I6.421 J2.194
X23.154 Y69.29 I4.823 J4.798
X26.207 Y69.047 I2.054 J6.516
X29.235 Y70.267 I-0.997 J6.84
X31.556 Y73.102 I-4.056 J5.69
X32.152 Y76.514 I-6.375 J2.871
X31.15 Y79.621 I-6.959 J-0.528
X29.024 Y81.828 I-5.973 J-3.629
X25.958 Y82.95 I-3.886 J-5.866
X22.521 Y82.509 I-0.842 J-7.051
X19.561 Y80.347 I2.602 J-6.671
X18.128 Y77.412 I5.568 J-4.534
X18.239 Y73.747 I7.03 J-1.621
X19.844 Y70.902 I6.921 J2.028
X22.727 Y68.977 I5.34 J4.874
X25.969 Y68.58 I2.48 J6.819
X29.237 Y69.742 I-0.755 J7.295
X31.717 Y72.445 I-4.047 J6.205
X32.604 Y76.209 I-6.537 J3.527
X31.691 Y79.555 I-7.41 J-0.224
X29.53 Y82.007 I-6.51 J-3.56
X26.327 Y83.338 I-4.388 J-6.037
X22.671 Y83.029 I-1.212 J-7.428
X19.586 Y81.04 I2.445 J-7.178
X17.787 Y77.841 I5.542 J-5.224
X17.681 Y74.172 I7.364 J-2.049
X19.29 Y70.873 I7.483 J1.607
X22.245 Y68.695 I5.894 J4.905
X25.667 Y68.116 I2.96 J7.099
X29 Y69.087 I-0.449 J7.744
X31.816 Y71.745 I-3.805 J6.853
X33.045 Y75.835 I-6.642 J4.227
X31.963 Y79.966 I-7.874 J0.145
X26.766 Y83.703 I-6.823 J-4.007
X23.094 Y83.615 I-1.65 J-7.787
X19.542 Y81.621 I2.026 J-7.769
X17.307 Y77.748 I5.605 J-5.817
X19.81 Y69.706 I7.881 J-1.957
X25.486 Y67.667 I5.397 J6.104
X30.877 Y69.92 I-0.279 J8.242
X29.374 Y83.16 I-5.717 J6.056
X24.229 Y84.27 I-4.253 J-7.229
X18.318 Y80.899 I0.895 J-8.436
X17.207 Y72.689 I6.851 J-5.108
X23.568 Y67.378 I7.991 J3.106
X29.533 Y68.373 I1.649 J8.491
X33.268 Y72.628 I-4.352 J7.587
X29.775 Y83.437 I-8.108 J3.349
X23.04 Y84.516 I-4.658 J-7.518
X18.644 Y81.976 I2.079 J-8.672
X16.364 Y73.975 I6.52 J-6.183
X22.58 Y67.164 I8.831 J1.818
X28.823 Y67.519 I2.638 J8.688
X34.1 Y73.73 I-3.643 J8.443
X33.485 Y79.935 I-8.926 J2.248
G1 X33.272 Y80.332
X33.227 Y80.411
X33.172 Y80.506
X32.986 Y80.807
X32.891 Y80.954
X32.67 Y81.268
X32.526 Y81.459
X32.298 Y81.744
X32.216 Y81.84
X32.034 Y82.043
X31.872 Y82.221
X31.558 Y82.53
X31.482 Y82.601
G3 X31.044 Y82.983 I-11.768 J-13.068
G1 X30.796 Y83.174
X30.671 Y83.268
X30.605 Y83.316
X30.51 Y83.383
X30.259 Y83.554
X30.11 Y83.649
X29.791 Y83.839
X29.748 Y83.864
X29.62 Y83.935
X29.272 Y84.115
G3 X28.701 Y84.371 I-4.889 J-10.113
G1 X28.602 Y84.411
X28.225 Y84.551
X28.129 Y84.584
X27.749 Y84.701
X27.653 Y84.729
X27.463 Y84.777
X27.177 Y84.845
X27.082 Y84.866
X26.974 Y84.887
X26.606 Y84.952
X26.511 Y84.967
X26.13 Y85.012
X26.034 Y85.022
X25.939 Y85.029
X25.844 Y85.036
X25.463 Y85.057
X25.368 Y85.06
X25.273 Y85.061
X25.082 Y85.058
X24.796 Y85.05
X24.606 Y85.042
X24.13 Y84.999
X24.035 Y84.987
X23.654 Y84.929
X23.463 Y84.896
X22.98 Y84.792
X22.511 Y84.662
X22.32 Y84.6
X22.035 Y84.502
X21.844 Y84.431
X21.559 Y84.313
X21.368 Y84.231
X20.953 Y84.03
X20.892 Y83.999
X20.511 Y83.785
X20.416 Y83.73
X20.225 Y83.609
X20.035 Y83.485
X19.94 Y83.422
X19.844 Y83.354
X19.597 Y83.173
X19.463 Y83.07
X19.273 Y82.913
X19.127 Y82.792
X19.082 Y82.754
X18.987 Y82.667
X18.702 Y82.399
X18.606 Y82.303
X18.321 Y82.001
X18.262 Y81.935
X18.021 Y81.649
X17.94 Y81.548
X17.844 Y81.425
X17.654 Y81.169
X17.589 Y81.078
X17.464 Y80.887
X17.339 Y80.697
X17.273 Y80.591
X17.062 Y80.221
X17.009 Y80.125
X16.797 Y79.695
X16.775 Y79.649
X16.694 Y79.459
X16.574 Y79.173
G3 X16.371 Y78.602 I14.555 J-5.484
G1 X16.321 Y78.428
X16.235 Y78.126
X16.21 Y78.03
X16.105 Y77.554
G3 X16.002 Y76.888 I12.72 J-2.308
G1 X15.966 Y76.507
X15.957 Y76.411
X15.94 Y75.953
X15.939 Y75.84
X15.94 Y75.716
X15.948 Y75.364
X15.953 Y75.269
X15.985 Y74.888
X15.993 Y74.793
G3 X16.074 Y74.221 I12.917 J1.53
G1 X16.091 Y74.126
X16.17 Y73.745
X16.191 Y73.65
G3 X16.347 Y73.078 I14.327 J3.621
G1 X16.378 Y72.983
X16.475 Y72.697
X16.511 Y72.593
X16.544 Y72.507
X16.702 Y72.117
X16.739 Y72.031
X16.921 Y71.65
X16.968 Y71.555
X17.072 Y71.364
X17.178 Y71.173
X17.232 Y71.079
X17.411 Y70.793
X17.533 Y70.602
X17.807 Y70.221
X17.879 Y70.126
X18.191 Y69.745
X18.225 Y69.705
X18.54 Y69.364
X18.606 Y69.296
X18.931 Y68.983
G3 X19.463 Y68.529 I8.803 J9.781
G1 X19.749 Y68.315
X19.878 Y68.222
X19.94 Y68.179
X20.225 Y67.99
X20.416 Y67.872
X20.701 Y67.706
X20.892 Y67.603
X21.178 Y67.46
X21.273 Y67.413
X21.379 Y67.365
X21.654 Y67.247
X21.844 Y67.168
X22.225 Y67.031
X22.32 Y66.997
X22.363 Y66.984
X22.796 Y66.857
X22.892 Y66.832
X22.987 Y66.809
X23.273 Y66.744
X23.463 Y66.704
X23.939 Y66.625
X24.13 Y66.604
X24.415 Y66.574
X24.606 Y66.559
X25.082 Y66.539
X25.558 Y66.547
X25.749 Y66.557
X26.034 Y66.58
X26.225 Y66.596
X26.701 Y66.662
X26.892 Y66.698
X27.177 Y66.755
X27.348 Y66.793
X27.749 Y66.899
X27.844 Y66.925
X28.32 Y67.082
X28.51 Y67.155
X28.799 Y67.269
X28.987 Y67.352
X29.272 Y67.486
X29.367 Y67.531
X29.414 Y67.555
X29.764 Y67.745
X29.939 Y67.846
X30.235 Y68.031
X30.415 Y68.15
X30.701 Y68.354
X30.796 Y68.425
X30.902 Y68.507
X31.177 Y68.729
X31.253 Y68.793
X31.566 Y69.079
X31.653 Y69.159
X32.034 Y69.551
X32.365 Y69.936
X32.415 Y69.997
X32.659 Y70.317
X32.729 Y70.412
X32.796 Y70.508
X32.987 Y70.793
X33.081 Y70.943
X33.328 Y71.364
X33.522 Y71.745
X33.568 Y71.84
X33.612 Y71.936
X33.748 Y72.248
X33.816 Y72.412
X33.955 Y72.793
X33.989 Y72.888
X34.132 Y73.364
G3 X34.287 Y74.031 I-12.008 J3.152
G1 X34.353 Y74.412
X34.368 Y74.507
X34.401 Y74.793
X34.421 Y74.983
X34.429 Y75.078
X34.436 Y75.173
X34.455 Y75.554
X34.458 Y75.65
X34.454 Y76.031
X34.452 Y76.126
X34.448 Y76.221
X34.442 Y76.316
X34.414 Y76.697
X34.405 Y76.792
X34.355 Y77.173
X34.341 Y77.269
X34.319 Y77.389
X34.25 Y77.745
X34.224 Y77.867
X34.183 Y78.03
X34.11 Y78.316
X34.083 Y78.411
X33.939 Y78.858
X33.893 Y78.983
X33.782 Y79.268
G3 X33.567 Y79.759 I-7.001 J-2.781
G1 X33.543 Y79.789 Z-4.756
X33.522 Y79.816 Z-4.738
X33.505 Y79.838 Z-4.711
X33.494 Y79.852 Z-4.676
X33.491 Y79.857 Z-4.638
G0 Z5
X26.506 Y54.326
Z0.504
G3 X23.89 Y52.824 Z0.339 I-1.308 J-0.751 F100
X26.506 Y54.326 Z0.174 I1.308 J0.751
X23.89 Y52.824 Z0.008 I-1.308 J-0.751
X26.506 Y54.326 Z-0.157 I1.308 J0.751
X23.89 Y52.824 Z-0.323 I-1.308 J-0.751
X26.506 Y54.326 Z-0.488 I1.308 J0.751
X23.89 Y52.824 Z-0.654 I-1.308 J-0.751
X26.506 Y54.326 Z-0.819 I1.308 J0.751
X23.89 Y52.824 Z-0.985 I-1.308 J-0.751
X26.506 Y54.326 Z-1.15 I1.308 J0.751
X23.89 Y52.824 Z-1.315 I-1.308 J-0.751
X26.506 Y54.326 Z-1.481 I1.308 J0.751
X23.89 Y52.824 Z-1.646 I-1.308 J-0.751
X26.506 Y54.326 Z-1.812 I1.308 J0.751
X23.89 Y52.824 Z-1.977 I-1.308 J-0.751
X26.506 Y54.326 Z-2.143 I1.308 J0.751
X23.89 Y52.824 Z-2.308 I-1.308 J-0.751
X26.506 Y54.326 Z-2.474 I1.308 J0.751
X23.89 Y52.824 Z-2.639 I-1.308 J-0.751
X26.506 Y54.326 Z-2.805 I1.308 J0.751
X23.89 Y52.824 Z-2.97 I-1.308 J-0.751
X26.506 Y54.326 Z-3.135 I1.308 J0.751
X23.89 Y52.824 Z-3.301 I-1.308 J-0.751
X26.506 Y54.326 Z-3.466 I1.308 J0.751
X23.89 Y52.824 Z-3.632 I-1.308 J-0.751
X26.506 Y54.326 Z-3.797 I1.308 J0.751
X23.89 Y52.824 Z-3.963 I-1.308 J-0.751
X26.506 Y54.326 Z-4.128 I1.308 J0.751
X23.89 Y52.824 Z-4.294 I-1.308 J-0.751
X26.506 Y54.326 Z-4.459 I1.308 J0.751
X23.89 Y52.824 Z-4.624 I-1.308 J-0.751
X26.706 Y53.575 Z-4.762 I1.308 J0.751
X23.69 Y53.575 I-1.508 J0
X26.706 Y53.575 I1.508 J0
G1 X26.707 Y53.781 F1000
X26.714 Y53.87
X26.683 Y54.046
X26.654 Y54.127
X26.615 Y54.223
X26.606 Y54.243
X26.51 Y54.413
G3 X26.225 Y54.746 I-1.245 J-0.778
G1 X26.13 Y54.823
X26.034 Y54.889
X25.86 Y54.985
X25.844 Y54.992
X25.749 Y55.033
X25.653 Y55.065
X25.558 Y55.089
X25.463 Y55.111
X25.368 Y55.123
X25.273 Y55.133
G3 X24.892 Y55.103 I-0.032 J-1.973
X24.511 Y54.972 I0.308 J-1.513
G1 X24.415 Y54.919
X24.32 Y54.86
X24.225 Y54.791
X24.121 Y54.699
X24.029 Y54.604
X23.951 Y54.508
X23.884 Y54.413
X23.832 Y54.318
X23.782 Y54.223
X23.745 Y54.127
X23.709 Y54.032
X23.683 Y53.937
X23.663 Y53.842
X23.641 Y53.651
Y53.556
X23.643 Y53.461
X23.656 Y53.366
X23.67 Y53.27
X23.692 Y53.175
X23.722 Y53.08
X23.749 Y53.01
X23.8 Y52.889
X23.852 Y52.794
X23.909 Y52.699
X23.939 Y52.656
X24.064 Y52.509
X24.13 Y52.444
X24.225 Y52.361
X24.275 Y52.318
X24.32 Y52.288
X24.428 Y52.223
X24.511 Y52.179
X24.627 Y52.128
X24.701 Y52.098
X24.796 Y52.07
X24.892 Y52.048
X24.991 Y52.032
X25.082 Y52.021
X25.177 Y52.018
X25.273
X25.403 Y52.032
X25.463 Y52.04
X25.558 Y52.062
X25.653 Y52.086
X25.766 Y52.128
X25.844 Y52.157
X25.967 Y52.223
X26.034 Y52.259
X26.115 Y52.318
X26.235 Y52.413
X26.32 Y52.493
X26.416 Y52.604
X26.484 Y52.699
X26.543 Y52.794
X26.597 Y52.889
X26.639 Y52.985
X26.676 Y53.08
X26.702 Y53.175
X26.726 Y53.27
X26.739 Y53.366
X26.751 Y53.461
X26.754 Y53.651
X26.733 Y53.842
X26.701 Y53.979
X26.688 Y54.032
X26.683 Y54.046
X26.662 Y54.078 Z-4.756
X26.643 Y54.107 Z-4.738
X26.628 Y54.13 Z-4.711
X26.619 Y54.144 Z-4.676
X26.615 Y54.149 Z-4.638
G0 Z5
X26.37 Y24.564
Z0.504
G3 X23.754 Y23.062 Z0.339 I-1.308 J-0.751 F100
X26.37 Y24.564 Z0.174 I1.308 J0.751
X23.754 Y23.062 Z0.008 I-1.308 J-0.751
X26.37 Y24.564 Z-0.157 I1.308 J0.751
X23.754 Y23.062 Z-0.323 I-1.308 J-0.751
X26.37 Y24.564 Z-0.488 I1.308 J0.751
X23.754 Y23.062 Z-0.654 I-1.308 J-0.751
X26.37 Y24.564 Z-0.819 I1.308 J0.751
X23.754 Y23.062 Z-0.985 I-1.308 J-0.751
X26.37 Y24.564 Z-1.15 I1.308 J0.751
X23.754 Y23.062 Z-1.315 I-1.308 J-0.751
X26.37 Y24.564 Z-1.481 I1.308 J0.751
X23.754 Y23.062 Z-1.646 I-1.308 J-0.751
X26.37 Y24.564 Z-1.812 I1.308 J0.751
X23.754 Y23.062 Z-1.977 I-1.308 J-0.751
X26.37 Y24.564 Z-2.143 I1.308 J0.751
X23.754 Y23.062 Z-2.308 I-1.308 J-0.751
X26.37 Y24.564 Z-2.474 I1.308 J0.751
X23.754 Y23.062 Z-2.639 I-1.308 J-0.751
X26.37 Y24.564 Z-2.805 I1.308 J0.751
X23.754 Y23.062 Z-2.97 I-1.308 J-0.751
X26.37 Y24.564 Z-3.135 I1.308 J0.751
X23.754 Y23.062 Z-3.301 I-1.308 J-0.751
X26.37 Y24.564 Z-3.466 I1.308 J0.751
X23.754 Y23.062 Z-3.632 I-1.308 J-0.751
X26.37 Y24.564 Z-3.797 I1.308 J0.751
X23.754 Y23.062 Z-3.963 I-1.308 J-0.751
X26.37 Y24.564 Z-4.128 I1.308 J0.751
X23.754 Y23.062 Z-4.294 I-1.308 J-0.751
X26.37 Y24.564 Z-4.459 I1.308 J0.751
X23.754 Y23.062 Z-4.624 I-1.308 J-0.751
X26.57 Y23.813 Z-4.762 I1.308 J0.751
X23.554 Y23.813 I-1.508 J0
X26.57 Y23.813 I1.508 J0
G1 X26.571 Y24.018 F1000
X26.577 Y24.085
X26.576 Y24.152
X26.565 Y24.217
G3 X26.454 Y24.511 I-1.834 J-0.528
G1 X26.402 Y24.606
X26.34 Y24.701
X26.272 Y24.796
X26.225 Y24.848
X26.085 Y24.987
X26.034 Y25.031
G3 X25.749 Y25.211 I-1.091 J-1.408
G1 X25.653 Y25.252
X25.558 Y25.286
X25.463 Y25.317
X25.368 Y25.338
X25.273 Y25.356
X25.14 Y25.368
X25.082 Y25.371
X24.98 Y25.368
X24.892 Y25.362
X24.796 Y25.346
X24.701 Y25.328
X24.52 Y25.273
X24.415 Y25.23
X24.311 Y25.177
X24.225 Y25.126
X24.13 Y25.062
X24.035 Y24.98
X23.939 Y24.891
X23.854 Y24.796
X23.783 Y24.701
X23.749 Y24.65
X23.722 Y24.606
X23.654 Y24.475
X23.626 Y24.415
X23.591 Y24.32
X23.558 Y24.222
X23.537 Y24.13
X23.519 Y24.035
X23.509 Y23.939
X23.501 Y23.844
X23.511 Y23.654
X23.525 Y23.558
X23.543 Y23.463
X23.558 Y23.409
X23.601 Y23.273
X23.654 Y23.154
X23.687 Y23.082
G3 X24.079 Y22.606 I1.321 J0.69
G1 X24.13 Y22.565
X24.225 Y22.5
X24.32 Y22.442
X24.415 Y22.395
X24.511 Y22.354
X24.622 Y22.32
X24.701 Y22.297
X24.796 Y22.278
X24.892 Y22.264
X24.987 Y22.259
X25.082 Y22.255
X25.177 Y22.261
X25.273 Y22.269
G3 X25.558 Y22.336 I-0.163 J1.339
G1 X25.653 Y22.372
X25.749 Y22.416
X25.844 Y22.466
X25.914 Y22.511
X26.046 Y22.606
X26.13 Y22.678
X26.24 Y22.796
X26.32 Y22.895
X26.382 Y22.987
X26.415 Y23.042
G3 X26.523 Y23.273 I-1.396 J0.788
G1 X26.552 Y23.368
X26.58 Y23.463
X26.606 Y23.613
X26.612 Y23.654
X26.621 Y23.844
X26.614 Y23.939
X26.604 Y24.035
X26.585 Y24.13
X26.565 Y24.217
X26.549 Y24.252 Z-4.756
X26.534 Y24.283 Z-4.738
X26.522 Y24.308 Z-4.711
X26.514 Y24.323 Z-4.676
X26.511 Y24.329 Z-4.638
G0 Z5
X48.595 Y24.564
Z0.504
G3 X45.979 Y23.062 Z0.339 I-1.308 J-0.751 F100
X48.595 Y24.564 Z0.174 I1.308 J0.751
X45.979 Y23.062 Z0.008 I-1.308 J-0.751
X48.595 Y24.564 Z-0.157 I1.308 J0.751
X45.979 Y23.062 Z-0.323 I-1.308 J-0.751
X48.595 Y24.564 Z-0.488 I1.308 J0.751
X45.979 Y23.062 Z-0.654 I-1.308 J-0.751
X48.595 Y24.564 Z-0.819 I1.308 J0.751
X45.979 Y23.062 Z-0.985 I-1.308 J-0.751
X48.595 Y24.564 Z-1.15 I1.308 J0.751
X45.979 Y23.062 Z-1.315 I-1.308 J-0.751
X48.595 Y24.564 Z-1.481 I1.308 J0.751
X45.979 Y23.062 Z-1.646 I-1.308 J-0.751
X48.595 Y24.564 Z-1.812 I1.308 J0.751
X45.979 Y23.062 Z-1.977 I-1.308 J-0.751
X48.595 Y24.564 Z-2.143 I1.308 J0.751
X45.979 Y23.062 Z-2.308 I-1.308 J-0.751
X48.595 Y24.564 Z-2.474 I1.308 J0.751
X45.979 Y23.062 Z-2.639 I-1.308 J-0.751
X48.595 Y24.564 Z-2.805 I1.308 J0.751
X45.979 Y23.062 Z-2.97 I-1.308 J-0.751
X48.595 Y24.564 Z-3.135 I1.308 J0.751
X45.979 Y23.062 Z-3.301 I-1.308 J-0.751
X48.595 Y24.564 Z-3.466 I1.308 J0.751
X45.979 Y23.062 Z-3.632 I-1.308 J-0.751
X48.595 Y24.564 Z-3.797 I1.308 J0.751
X45.979 Y23.062 Z-3.963 I-1.308 J-0.751
X48.595 Y24.564 Z-4.128 I1.308 J0.751
X45.979 Y23.062 Z-4.294 I-1.308 J-0.751
X48.595 Y24.564 Z-4.459 I1.308 J0.751
X45.979 Y23.062 Z-4.624 I-1.308 J-0.751
X48.795 Y23.813 Z-4.762 I1.308 J0.751
X45.779 Y23.813 I-1.508 J0
X48.795 Y23.813 I1.508 J0
G1 X48.796 Y24.019 F1000
X48.813 Y24.12
G3 X48.818 Y24.467 I-0.719 J0.184
X48.578 Y24.982 I-1.187 J-0.24
X47.893 Y25.488 I-1.234 J-0.952
X46.338 Y25.338 I-0.628 J-1.629
X46.943 Y22.048 I0.946 J-1.527
X48.961 Y23.154 I0.345 J1.763
G1 X49.023 Y23.32
X49.066 Y23.452
G3 X49.16 Y23.932 I-2.238 J0.689
X48.946 Y24.944 I-1.77 J0.155
X47.943 Y25.788 I-1.63 J-0.919
X46.362 Y25.705 I-0.692 J-1.905
X45.452 Y22.769 I0.914 J-1.892
X48.977 Y22.547 I1.835 J1.042
X49.472 Y23.709 I-2.033 J1.553
X49.437 Y24.545 I-2.23 J0.325
X48.347 Y25.956 I-2.116 J-0.509
X46.736 Y26.178 I-1.101 J-2.034
X44.956 Y24.537 I0.522 J-2.352
X48.765 Y21.868 I2.33 J-0.727
X49.379 Y22.524 I-1.593 J2.106
X49.836 Y23.915 I-2.26 J1.513
X49.521 Y25.25 I-2.548 J0.103
X47.94 Y26.482 I-2.247 J-1.255
X46.062 Y26.306 I-0.705 J-2.592
X44.505 Y24.01 I1.199 J-2.489
X48.632 Y21.368 I2.781 J-0.2
X49.494 Y22.081 I-1.409 J2.578
X50.194 Y23.951 I-2.331 J1.939
X49.914 Y25.256 I-2.926 J0.055
X48.208 Y26.771 I-2.645 J-1.261
X46.324 Y26.795 I-0.978 J-2.864
X44.42 Y25.116 I0.923 J-2.966
X45.93 Y20.967 I2.861 J-1.308
X48.633 Y20.961 I1.359 J2.846
X49.643 Y21.693 I-1.393 J2.981
X50.561 Y23.867 I-2.459 J2.319
X50.276 Y25.349 I-3.299 J0.133
X48.521 Y27.047 I-3.011 J-1.355
X46.561 Y27.238 I-1.295 J-3.129
X44.498 Y25.961 I0.675 J-3.397
X43.972 Y22.608 I2.772 J-2.153
X48.159 Y20.394 I3.315 J1.203
X49.27 Y20.886 I-0.881 J3.488
X50.937 Y23.769 I-2.067 J3.119
X50.447 Y25.844 I-3.672 J0.228
X48.591 Y27.429 I-3.193 J-1.861
X46.72 Y27.653 I-1.368 J-3.509
X44.694 Y26.729 I0.508 J-3.801
X43.41 Y24.334 I2.563 J-2.916
X45.31 Y20.434 I3.872 J-0.527
X47.85 Y19.938 I1.978 J3.379
X49.123 Y20.348 I-0.567 J3.942
X50.329 Y21.302 I-1.884 J3.624
X51.332 Y23.828 I-3.116 J2.699
X51.159 Y25.181 I-4.081 J0.166
X49.57 Y27.35 I-3.896 J-1.186
X47.978 Y28.009 I-2.338 J-3.396
X46.232 Y27.961 I-0.76 J-4.112
X44.64 Y27.196 I0.995 J-4.112
X43.407 Y25.677 I2.609 J-3.377
X43.019 Y23.218 I3.863 J-1.869
X45.032 Y20.139 I4.265 J0.591
X47.09 Y19.506 I2.256 J3.674
X48.18 Y19.593 I0.201 J4.338
X49.059 Y19.876 I-0.899 J4.303
X49.714 Y20.234 I-1.796 J4.067
X50.305 Y20.701 I-2.473 J3.742
X50.813 Y21.263 I-3.082 J3.293
X51.452 Y22.423 I-3.597 J2.737
X51.687 Y23.339 I-4.224 J1.573
X51.726 Y24.28 I-4.442 J0.654
X51.452 Y25.562 I-4.464 J-0.285
X50.576 Y26.998 I-4.188 J-1.568
X50.025 Y27.512 I-3.325 J-3.014
X49.392 Y27.928 I-2.786 J-3.544
G1 X49.224 Y28.016
X49.051 Y28.096
X48.875 Y28.169
X48.696 Y28.234
X48.514 Y28.292
X48.33 Y28.343
X48.143 Y28.386
X47.955 Y28.42
X47.765 Y28.447
X47.574 Y28.466
X47.382 Y28.477
X47.189 Y28.48
X46.996 Y28.475
X46.804 Y28.462
X46.611 Y28.44
X46.42 Y28.411
X46.23 Y28.373
X46.042 Y28.328
X45.855 Y28.274
X45.671 Y28.213
X45.489 Y28.144
X45.31 Y28.067
X45.134 Y27.983
X44.962 Y27.891
X44.794 Y27.792
X44.63 Y27.686
X44.47 Y27.573
X44.316 Y27.454
X44.166 Y27.328
X44.021 Y27.195
X43.882 Y27.057
X43.749 Y26.913
X43.622 Y26.763
X43.502 Y26.608
X43.388 Y26.448
X43.281 Y26.283
X43.18 Y26.114
X43.087 Y25.941
X43.001 Y25.763
X42.923 Y25.583
X42.852 Y25.399
X42.789 Y25.212
X42.734 Y25.023
X42.687 Y24.831
X42.648 Y24.638
X42.617 Y24.443
X42.595 Y24.247
X42.58 Y24.05
X42.574 Y23.852
X42.577 Y23.655
X42.587 Y23.457
X42.606 Y23.261
X42.633 Y23.065
X42.668 Y22.87
X42.712 Y22.677
X42.763 Y22.486
X42.823 Y22.298
X42.89 Y22.112
X42.965 Y21.929
X43.048 Y21.749
X43.138 Y21.573
X43.236 Y21.4
X43.341 Y21.232
X43.452 Y21.069
X43.571 Y20.91
X43.696 Y20.757
X43.827 Y20.609
X43.965 Y20.466
X44.108 Y20.33
X44.257 Y20.199
X44.412 Y20.075
X44.571 Y19.958
X44.735 Y19.847
X44.904 Y19.743
X45.077 Y19.647
X45.254 Y19.558
X45.435 Y19.476
X45.619 Y19.402
X45.806 Y19.336
X45.995 Y19.277
X46.187 Y19.227
X46.381 Y19.185
X46.577 Y19.151
X46.774 Y19.125
X46.972 Y19.107
X47.171 Y19.098
X47.371 Y19.097
X47.571 Y19.104
X47.77 Y19.12
X47.969 Y19.145
X48.167 Y19.177
X48.364 Y19.218
X48.56 Y19.268
X48.753 Y19.325
X48.944 Y19.391
X49.133 Y19.465
X49.319 Y19.547
X49.502 Y19.638
X49.681 Y19.735
X49.856 Y19.841
X50.027 Y19.954
X50.193 Y20.074
X50.355 Y20.201
X50.511 Y20.335
X50.661 Y20.476
X50.805 Y20.623
X50.944 Y20.775
X51.075 Y20.934
X51.2 Y21.098
X51.318 Y21.267
X51.428 Y21.44
X51.532 Y21.618
X51.627 Y21.801
X51.715 Y21.987
X51.796 Y22.177
X51.868 Y22.369
X51.932 Y22.565
X51.988 Y22.763
X52.035 Y22.964
X52.074 Y23.166
X52.105 Y23.37
X52.126 Y23.574
X52.14 Y23.78
X52.144 Y23.985
X52.14 Y24.191
X52.128 Y24.396
X52.106 Y24.6
X52.076 Y24.803
X52.038 Y25.005
X51.991 Y25.205
X51.936 Y25.402
X51.873 Y25.598
X51.801 Y25.79
X51.722 Y25.979
X51.635 Y26.165
X51.54 Y26.346
X51.437 Y26.524
X51.327 Y26.697
X51.209 Y26.866
X51.085 Y27.03
X50.954 Y27.188
X50.816 Y27.341
X50.672 Y27.488
X50.521 Y27.628
X50.365 Y27.763
X50.204 Y27.89
X50.037 Y28.011
X49.865 Y28.125
X49.689 Y28.231
X49.508 Y28.33
X49.324 Y28.421
X49.136 Y28.505
X48.944 Y28.581
X48.75 Y28.648
X48.552 Y28.708
X48.353 Y28.759
X48.151 Y28.802
X47.948 Y28.836
X47.744 Y28.862
X47.539 Y28.88
X47.333 Y28.889
X47.127 Y28.89
X46.922 Y28.882
X46.716 Y28.865
X46.512 Y28.841
X46.309 Y28.807
X46.107 Y28.766
X45.907 Y28.716
X45.709 Y28.658
X45.514 Y28.592
X45.322 Y28.519
X45.133 Y28.437
X44.947 Y28.348
X44.766 Y28.251
X44.588 Y28.147
X44.415 Y28.036
X44.246 Y27.918
X44.082 Y27.793
X43.924 Y27.661
X43.771 Y27.523
X43.623 Y27.379
X43.482 Y27.23
X43.347 Y27.074
X43.218 Y26.914
X43.096 Y26.748
X42.98 Y26.578
X42.872 Y26.402
X42.771 Y26.223
X42.677 Y26.04
X42.59 Y25.853
X42.512 Y25.663
X42.441 Y25.469
X42.378 Y25.273
X42.322 Y25.075
X42.275 Y24.874
X42.236 Y24.672
X42.206 Y24.469
X42.183 Y24.264
X42.169 Y24.058
X42.163 Y23.853
X42.165 Y23.647
X42.176 Y23.441
X42.195 Y23.236
X42.222 Y23.032
X42.257 Y22.829
X42.301 Y22.628
X42.352 Y22.428
X42.411 Y22.231
X42.479 Y22.036
X42.554 Y21.845
X42.636 Y21.656
X42.726 Y21.471
X42.824 Y21.289
X42.929 Y21.112
X43.041 Y20.939
X43.16 Y20.771
X43.285 Y20.608
X43.417 Y20.45
X43.555 Y20.297
X43.699 Y20.15
X43.849 Y20.009
X44.005 Y19.874
X44.166 Y19.745
X44.332 Y19.623
X44.502 Y19.508
X44.677 Y19.4
X44.857 Y19.298
X45.04 Y19.204
X45.227 Y19.118
X45.417 Y19.039
X45.61 Y18.967
X45.806 Y18.904
X46.004 Y18.848
X46.204 Y18.8
X46.407 Y18.761
X46.61 Y18.729
X46.815 Y18.706
X47.02 Y18.691
X47.226 Y18.684
X47.432 Y18.686
X47.638 Y18.695
X47.843 Y18.713
X48.047 Y18.739
X48.25 Y18.773
X48.452 Y18.815
X48.651 Y18.865
X48.849 Y18.923
X49.044 Y18.989
X49.237 Y19.062
X49.426 Y19.142
X49.613 Y19.23
X49.795 Y19.325
X49.974 Y19.428
X50.149 Y19.537
X50.319 Y19.653
X50.484 Y19.775
G3 X51.095 Y20.327 I-3.251 J4.216
X51.614 Y20.965 I-3.882 J3.684
G1 X51.728 Y21.137
X51.835 Y21.313
X51.935 Y21.493
G3 X52.264 Y22.247 I-4.706 J2.5
X52.531 Y23.451 I-5.054 J1.753
G1 X52.548 Y23.656
X52.557 Y23.862
X52.558 Y24.068
X52.551 Y24.274
X52.536 Y24.479
G3 X52.397 Y25.29 I-5.293 J-0.492
X52.134 Y26.07 I-5.163 J-1.305
G1 X52.05 Y26.258
X51.958 Y26.442
X51.859 Y26.623
X51.754 Y26.8
X51.641 Y26.972
G3 X51.127 Y27.614 I-4.4 J-2.996
X50.52 Y28.17 I-3.905 J-3.656
G1 X50.355 Y28.294
X50.186 Y28.411
X50.012 Y28.522
G3 X49.278 Y28.895 I-2.781 J-4.564
X47.889 Y29.264 I-2.068 J-4.985
X47.067 Y29.304 I-0.672 J-5.324
X45.648 Y29.074 I0.152 J-5.446
X44.515 Y28.588 I1.56 J-5.192
X43.09 Y27.416 I2.737 J-4.782
X42.393 Y26.4 I4.132 J-3.584
X41.81 Y24.649 I4.879 J-2.596
X41.804 Y23.008 I5.475 J-0.841
X42.116 Y21.815 I5.474 J0.795
X43.058 Y20.228 I5.17 J1.996
X44.121 Y19.261 I4.205 J3.557
X45.989 Y18.421 I3.181 J4.577
X47.624 Y18.277 I1.304 J5.418
X49.612 Y18.767 I-0.329 J5.61
X51.956 Y20.722 I-2.355 J5.205
X52.85 Y22.787 I-4.722 J3.272
X52.84 Y25.239 I-5.611 J1.203
X51.677 Y27.624 I-5.593 J-1.254
X48.591 Y29.56 I-4.448 J-3.661
X45.737 Y29.536 I-1.379 J-5.654
X43.084 Y28.025 I1.486 J-5.692
X41.539 Y25.39 I4.155 J-4.206
X41.461 Y22.536 I5.725 J-1.584
X42.856 Y19.818 I5.807 J1.263
X45.027 Y18.291 I4.426 J3.985
X47.646 Y17.855 I2.266 J5.522
X50.553 Y18.796 I-0.352 J6.046
X52.738 Y21.209 I-3.295 J5.18
X53.347 Y24.809 I-5.486 J2.78
X52.643 Y26.949 I-6.066 J-0.811
X50.724 Y29.065 I-5.386 J-2.955
X47.854 Y30.118 I-3.501 J-5.108
X44.828 Y29.68 I-0.645 J-6.22
X42.363 Y27.868 I2.393 J-5.838
X40.995 Y24.912 I4.874 J-4.051
X41.202 Y21.86 I6.266 J-1.108
X42.805 Y19.255 I6.063 J1.936
X45.436 Y17.694 I4.477 J4.546
X48.084 Y17.466 I1.86 J6.125
X51.116 Y18.662 I-0.789 J6.442
X53.282 Y21.36 I-3.854 J5.312
X53.803 Y24.578 I-6.017 J2.627
X52.828 Y27.479 I-6.526 J-0.581
X50.82 Y29.516 I-5.566 J-3.479
X47.73 Y30.559 I-3.597 J-5.555
X44.515 Y30.013 I-0.524 J-6.658
X41.933 Y28.019 I2.701 J-6.166
X40.583 Y25.049 I5.297 J-4.199
X40.836 Y21.596 I6.673 J-1.246
X42.455 Y18.997 I6.421 J2.194
X45.243 Y17.302 I4.823 J4.798
X48.297 Y17.06 I2.054 J6.516
X51.324 Y18.28 I-0.997 J6.84
X53.645 Y21.114 I-4.056 J5.69
X54.241 Y24.527 I-6.375 J2.871
X53.24 Y27.634 I-6.959 J-0.528
X51.113 Y29.84 I-5.973 J-3.629
X48.048 Y30.963 I-3.886 J-5.866
X44.61 Y30.522 I-0.842 J-7.051
X41.65 Y28.36 I2.602 J-6.671
X40.218 Y25.424 I5.568 J-4.533
X40.329 Y21.76 I7.03 J-1.621
X41.933 Y18.915 I6.921 J2.028
X44.816 Y16.989 I5.34 J4.874
X48.059 Y16.592 I2.48 J6.819
X51.326 Y17.755 I-0.755 J7.295
X53.807 Y20.457 I-4.047 J6.205
X54.694 Y24.222 I-6.537 J3.527
X53.781 Y27.568 I-7.41 J-0.224
X51.62 Y30.019 I-6.51 J-3.56
X48.416 Y31.351 I-4.388 J-6.037
X44.76 Y31.041 I-1.212 J-7.428
X41.676 Y29.052 I2.445 J-7.178
X39.876 Y25.853 I5.542 J-5.224
X39.77 Y22.184 I7.364 J-2.049
X41.379 Y18.885 I7.482 J1.607
X44.334 Y16.707 I5.894 J4.904
X47.756 Y16.129 I2.96 J7.099
X51.089 Y17.1 I-0.449 J7.744
X53.905 Y19.758 I-3.805 J6.853
X55.135 Y23.847 I-6.642 J4.227
X54.053 Y27.978 I-7.874 J0.145
X48.856 Y31.716 I-6.823 J-4.007
X45.183 Y31.627 I-1.65 J-7.787
X41.631 Y29.633 I2.026 J-7.769
X39.396 Y25.76 I5.605 J-5.817
X41.9 Y17.718 I7.881 J-1.957
X47.576 Y15.679 I5.397 J6.104
X52.966 Y17.932 I-0.279 J8.242
X51.464 Y31.172 I-5.717 J6.056
X46.318 Y32.283 I-4.253 J-7.229
X40.408 Y28.911 I0.895 J-8.436
X39.296 Y20.701 I6.851 J-5.108
X45.657 Y15.39 I7.991 J3.106
X51.622 Y16.385 I1.649 J8.491
X55.358 Y20.64 I-4.352 J7.587
X51.864 Y31.45 I-8.108 J3.349
X45.13 Y32.528 I-4.658 J-7.518
X40.733 Y29.988 I2.079 J-8.672
X38.454 Y21.987 I6.52 J-6.183
X44.67 Y15.177 I8.831 J1.818
X50.913 Y15.532 I2.638 J8.688
X56.19 Y21.742 I-3.643 J8.443
X55.667 Y27.748 I-8.926 J2.248
G1 X55.621 Y27.844
X55.529 Y28.034
X55.322 Y28.415
X55.267 Y28.51
X55.149 Y28.701
X55.03 Y28.891
X54.985 Y28.962
X54.696 Y29.367
X54.623 Y29.463
X54.393 Y29.748
X54.314 Y29.844
G3 X53.874 Y30.32 I-9.821 J-8.623
G1 X53.556 Y30.629
X53.461 Y30.713
X53.175 Y30.958
G3 X52.699 Y31.325 I-7.075 J-8.689
X52.214 Y31.653 I-8.548 J-12.14
G1 X52.032 Y31.761
X51.842 Y31.873
X51.747 Y31.928
X51.543 Y32.034
X51.271 Y32.172
X51.08 Y32.258
X50.794 Y32.382
X50.699 Y32.421
G3 X50.128 Y32.626 I-5.585 J-14.67
G1 X49.747 Y32.739
X49.652 Y32.767
X49.175 Y32.878
X49.118 Y32.891
X48.699 Y32.963
X48.549 Y32.986
X48.509 Y32.991
X48.128 Y33.033
X48.033 Y33.043
X47.842 Y33.054
X47.557 Y33.068
X47.461 Y33.07
X47.366 Y33.071
X46.985 Y33.067
X46.89 Y33.065
X46.509 Y33.038
X46.414 Y33.031
X46.319 Y33.021
X46.223 Y33.01
X45.842 Y32.959
X45.747 Y32.944
X45.366 Y32.87
X45.271 Y32.85
X45.081 Y32.804
X44.795 Y32.73
X44.69 Y32.701
X44.604 Y32.674
X44.223 Y32.551
X44.11 Y32.51
X43.747 Y32.369
X43.652 Y32.33
X43.366 Y32.199
X43.215 Y32.129
X43.176 Y32.11
X43.081 Y32.062
X42.795 Y31.908
X42.7 Y31.856
X42.509 Y31.743
X42.224 Y31.566
X42.033 Y31.435
X41.747 Y31.234
X41.435 Y30.986
X41.318 Y30.891
X41.271 Y30.853
X40.986 Y30.596
X40.89 Y30.508
X40.795 Y30.414
X40.605 Y30.221
X40.509 Y30.123
X40.414 Y30.017
X40.129 Y29.689
X39.807 Y29.272
X39.74 Y29.177
X39.481 Y28.796
G3 X39.146 Y28.225 I12.989 J-8.012
G1 X38.986 Y27.914
X38.951 Y27.844
G3 X38.698 Y27.272 I9.865 J-4.709
G1 X38.661 Y27.177
X38.519 Y26.796
X38.489 Y26.701
X38.373 Y26.32
X38.346 Y26.225
X38.254 Y25.844
X38.232 Y25.749
G3 X38.114 Y25.082 I12.106 J-2.487
G1 X38.07 Y24.701
X38.061 Y24.606
X38.054 Y24.511
X38.033 Y24.13
X38.028 Y24.035
X38.025 Y23.844
X38.039 Y23.368
X38.049 Y23.177
X38.084 Y22.796
X38.093 Y22.701
X38.164 Y22.225
G3 X38.305 Y21.559 I11.914 J2.166
G1 X38.414 Y21.164
X38.438 Y21.082
X38.51 Y20.869
X38.605 Y20.594
X38.674 Y20.416
X38.832 Y20.035
G3 X39.112 Y19.463 I14.566 J6.785
G1 X39.326 Y19.082
X39.383 Y18.987
X39.652 Y18.57
X39.974 Y18.13
X40.13 Y17.94
X40.319 Y17.712
X40.509 Y17.506
X40.7 Y17.303
X40.829 Y17.178
X41.081 Y16.94
X41.132 Y16.892
X41.473 Y16.606
X41.591 Y16.511
X41.938 Y16.254
X42.033 Y16.188
X42.128 Y16.124
X42.414 Y15.938
X42.571 Y15.845
X42.89 Y15.663
X42.985 Y15.612
X43.366 Y15.424
X43.488 Y15.368
X43.557 Y15.338
X43.843 Y15.218
X43.943 Y15.178
X44.033 Y15.143
X44.478 Y14.988
X44.509 Y14.978
X44.985 Y14.843
X45.18 Y14.797
X45.461 Y14.735
X45.631 Y14.702
X46.033 Y14.638
X46.128 Y14.624
X46.604 Y14.578
X46.699 Y14.572
X46.795 Y14.567
X47.176 Y14.553
X47.271 Y14.552
X47.652 Y14.561
X47.747 Y14.564
X47.842 Y14.57
X47.937 Y14.577
X48.28 Y14.607
X48.318 Y14.61
X48.414 Y14.622
X48.795 Y14.677
X48.89 Y14.692
X49.08 Y14.73
X49.404 Y14.797
X49.556 Y14.836
X49.937 Y14.94
X50.033 Y14.969
X50.413 Y15.097
X50.509 Y15.13
X50.794 Y15.245
X50.89 Y15.284
X50.985 Y15.324
G3 X51.556 Y15.596 I-5.444 J12.171
G1 X51.747 Y15.7
X51.937 Y15.806
X52.032 Y15.862
X52.159 Y15.94
X52.413 Y16.102
X52.593 Y16.226
X52.889 Y16.439
X53.099 Y16.606
X53.331 Y16.797
X53.366 Y16.826
X53.556 Y17.001
X53.747 Y17.178
X53.842 Y17.273
X54.116 Y17.559
X54.202 Y17.654
X54.508 Y18.014
X54.525 Y18.035
X54.812 Y18.416
X54.889 Y18.526
X55.132 Y18.892
X55.19 Y18.987
X55.365 Y19.29
X55.461 Y19.463
X55.558 Y19.654
X55.652 Y19.844
X55.698 Y19.94
X55.746 Y20.05
X55.862 Y20.32
X55.902 Y20.416
X55.938 Y20.511
X56.074 Y20.892
G3 X56.243 Y21.463 I-11.813 J3.804
G1 X56.267 Y21.559
X56.333 Y21.844
X56.375 Y22.035
X56.392 Y22.13
X56.455 Y22.511
G3 X56.525 Y23.177 I-12.642 J1.666
G1 X56.534 Y23.368
X56.546 Y23.654
Y23.749
X56.54 Y24.13
X56.537 Y24.225
X56.532 Y24.32
X56.495 Y24.796
X56.47 Y24.987
X56.43 Y25.273
X56.398 Y25.463
X56.34 Y25.749
X56.3 Y25.939
X56.174 Y26.415
X56.114 Y26.606
X56.019 Y26.891
X55.985 Y26.987
X55.937 Y27.113
X55.798 Y27.463
X55.746 Y27.577
X55.666 Y27.748
X55.642 Y27.778 Z-4.756
X55.621 Y27.805 Z-4.738
X55.604 Y27.827 Z-4.711
X55.593 Y27.84 Z-4.676
X55.589 Y27.845 Z-4.638
G0 Z5
X104.115 Y12.857
Z0.504
G3 X101.499 Y11.355 Z0.339 I-1.308 J-0.751 F100
X104.115 Y12.857 Z0.174 I1.308 J0.751
X101.499 Y11.355 Z0.008 I-1.308 J-0.751
X104.115 Y12.857 Z-0.157 I1.308 J0.751
X101.499 Y11.355 Z-0.323 I-1.308 J-0.751
X104.115 Y12.857 Z-0.488 I1.308 J0.751
X101.499 Y11.355 Z-0.654 I-1.308 J-0.751
X104.115 Y12.857 Z-0.819 I1.308 J0.751
X101.499 Y11.355 Z-0.985 I-1.308 J-0.751
X104.115 Y12.857 Z-1.15 I1.308 J0.751
X101.499 Y11.355 Z-1.315 I-1.308 J-0.751
X104.115 Y12.857 Z-1.481 I1.308 J0.751
X101.499 Y11.355 Z-1.646 I-1.308 J-0.751
X104.115 Y12.857 Z-1.812 I1.308 J0.751
X101.499 Y11.355 Z-1.977 I-1.308 J-0.751
X104.115 Y12.857 Z-2.143 I1.308 J0.751
X101.499 Y11.355 Z-2.308 I-1.308 J-0.751
X104.115 Y12.857 Z-2.474 I1.308 J0.751
X101.499 Y11.355 Z-2.639 I-1.308 J-0.751
X104.115 Y12.857 Z-2.805 I1.308 J0.751
X101.499 Y11.355 Z-2.97 I-1.308 J-0.751
X104.115 Y12.857 Z-3.135 I1.308 J0.751
X101.499 Y11.355 Z-3.301 I-1.308 J-0.751
X104.115 Y12.857 Z-3.466 I1.308 J0.751
X101.499 Y11.355 Z-3.632 I-1.308 J-0.751
X104.115 Y12.857 Z-3.797 I1.308 J0.751
X101.499 Y11.355 Z-3.963 I-1.308 J-0.751
X104.115 Y12.857 Z-4.128 I1.308 J0.751
X101.499 Y11.355 Z-4.294 I-1.308 J-0.751
X104.115 Y12.857 Z-4.459 I1.308 J0.751
X101.499 Y11.355 Z-4.624 I-1.308 J-0.751
X104.315 Y12.106 Z-4.762 I1.308 J0.751
X101.299 Y12.106 I-1.508 J0
X104.315 Y12.106 I1.508 J0
G1 X104.316 Y12.312 F1000
X104.33 Y12.508
X104.308 Y12.704
X104.249 Y12.891
X104.157 Y13.065
X104.124 Y13.114
G3 X103.933 Y13.323 I-1.505 J-1.181
G1 X103.878 Y13.369
X103.743 Y13.475
X103.647 Y13.535
X103.552 Y13.588
X103.457 Y13.629
G3 X103.076 Y13.739 I-0.589 J-1.325
X102.41 Y13.714 I-0.271 J-1.624
G1 X102.314 Y13.689
X102.217 Y13.654
X102.124 Y13.615
X102.008 Y13.559
X101.933 Y13.514
X101.838 Y13.449
X101.736 Y13.369
X101.648 Y13.29
X101.631 Y13.273
X101.545 Y13.178
X101.47 Y13.083
X101.404 Y12.988
X101.362 Y12.92
X101.303 Y12.797
X101.267 Y12.717
X101.227 Y12.607
X101.201 Y12.512
X101.171 Y12.368
X101.165 Y12.321
X101.156 Y12.226
X101.151 Y12.131
X101.154 Y12.035
X101.159 Y11.94
X101.173 Y11.845
X101.189 Y11.75
X101.213 Y11.654
X101.242 Y11.559
X101.279 Y11.464
X101.321 Y11.369
X101.375 Y11.274
X101.433 Y11.178
X101.552 Y11.026
X101.583 Y10.988
G3 X101.789 Y10.798 I1.44 J1.351
G1 X101.838 Y10.764
X101.933 Y10.7
X102.029 Y10.643
X102.099 Y10.607
X102.124 Y10.596
X102.219 Y10.557
X102.35 Y10.512
G3 X103.267 Y10.515 I0.453 J1.597
G1 X103.362 Y10.544
X103.515 Y10.607
X103.552 Y10.626
X103.688 Y10.702
X103.743 Y10.737
X103.838 Y10.808
X103.937 Y10.893
X104.032 Y10.988
X104.113 Y11.083
X104.181 Y11.178
X104.219 Y11.241
X104.292 Y11.369
X104.314 Y11.415
X104.374 Y11.559
X104.409 Y11.68
X104.428 Y11.75
X104.444 Y11.845
X104.457 Y11.94
X104.463 Y12.035
X104.467 Y12.131
X104.461 Y12.226
X104.452 Y12.321
X104.435 Y12.416
X104.409 Y12.536
X104.354 Y12.702
X104.314 Y12.798
X104.266 Y12.892
X104.219 Y12.971
X104.157 Y13.065
X104.129 Y13.091 Z-4.756
X104.104 Y13.115 Z-4.738
X104.084 Y13.133 Z-4.711
X104.071 Y13.145 Z-4.676
X104.067 Y13.149 Z-4.638
G0 Z5
X144.952 Y13.443
Z0.504
G3 X142.337 Y11.941 Z0.339 I-1.308 J-0.751 F100
X144.952 Y13.443 Z0.174 I1.308 J0.751
X142.337 Y11.941 Z0.008 I-1.308 J-0.751
X144.952 Y13.443 Z-0.157 I1.308 J0.751
X142.337 Y11.941 Z-0.323 I-1.308 J-0.751
X144.952 Y13.443 Z-0.488 I1.308 J0.751
X142.337 Y11.941 Z-0.654 I-1.308 J-0.751
X144.952 Y13.443 Z-0.819 I1.308 J0.751
X142.337 Y11.941 Z-0.985 I-1.308 J-0.751
X144.952 Y13.443 Z-1.15 I1.308 J0.751
X142.337 Y11.941 Z-1.315 I-1.308 J-0.751
X144.952 Y13.443 Z-1.481 I1.308 J0.751
X142.337 Y11.941 Z-1.646 I-1.308 J-0.751
X144.952 Y13.443 Z-1.812 I1.308 J0.751
X142.337 Y11.941 Z-1.977 I-1.308 J-0.751
X144.952 Y13.443 Z-2.143 I1.308 J0.751
X142.337 Y11.941 Z-2.308 I-1.308 J-0.751
X144.952 Y13.443 Z-2.474 I1.308 J0.751
X142.337 Y11.941 Z-2.639 I-1.308 J-0.751
X144.952 Y13.443 Z-2.805 I1.308 J0.751
X142.337 Y11.941 Z-2.97 I-1.308 J-0.751
X144.952 Y13.443 Z-3.135 I1.308 J0.751
X142.337 Y11.941 Z-3.301 I-1.308 J-0.751
X144.952 Y13.443 Z-3.466 I1.308 J0.751
X142.337 Y11.941 Z-3.632 I-1.308 J-0.751
X144.952 Y13.443 Z-3.797 I1.308 J0.751
X142.337 Y11.941 Z-3.963 I-1.308 J-0.751
X144.952 Y13.443 Z-4.128 I1.308 J0.751
X142.337 Y11.941 Z-4.294 I-1.308 J-0.751
X144.952 Y13.443 Z-4.459 I1.308 J0.751
X142.337 Y11.941 Z-4.625 I-1.308 J-0.751
X145.153 Y12.692 Z-4.762 I1.308 J0.751
X142.136 Y12.692 I-1.508 J0
X145.153 Y12.692 I1.508 J0
G1 Y12.898 F1000
X145.17 Y12.999
G3 X145.175 Y13.346 I-0.719 J0.184
X144.936 Y13.86 I-1.187 J-0.24
X144.251 Y14.367 I-1.234 J-0.952
X142.695 Y14.217 I-0.628 J-1.629
X143.227 Y10.942 I0.946 J-1.527
X145.318 Y12.032 I0.419 J1.747
G1 X145.38 Y12.199
X145.423 Y12.331
G3 X145.517 Y12.811 I-2.237 J0.689
X145.304 Y13.823 I-1.77 J0.155
X144.301 Y14.667 I-1.63 J-0.919
X142.72 Y14.583 I-0.692 J-1.905
X141.809 Y11.648 I0.914 J-1.892
X145.334 Y11.425 I1.835 J1.042
X145.829 Y12.588 I-2.033 J1.553
X145.794 Y13.424 I-2.23 J0.325
X144.704 Y14.835 I-2.116 J-0.509
X143.093 Y15.057 I-1.101 J-2.034
X141.313 Y13.416 I0.522 J-2.352
X145.122 Y10.747 I2.33 J-0.727
X145.736 Y11.403 I-1.593 J2.106
X146.194 Y12.794 I-2.26 J1.513
X145.928 Y14.035 I-2.551 J0.103
X144.404 Y15.329 I-2.292 J-1.156
X142.524 Y15.233 I-0.811 J-2.555
X140.873 Y13.005 I1.093 J-2.535
X144.99 Y10.247 I2.77 J-0.316
X145.851 Y10.96 I-1.408 J2.577
X146.552 Y12.83 I-2.331 J1.939
X146.272 Y14.135 I-2.926 J0.055
X144.565 Y15.65 I-2.645 J-1.261
X142.682 Y15.674 I-0.978 J-2.864
X140.778 Y13.995 I0.923 J-2.966
X142.408 Y9.791 I2.862 J-1.308
X144.991 Y9.839 I1.238 J2.9
X146 Y10.572 I-1.394 J2.982
X146.918 Y12.746 I-2.459 J2.319
X146.633 Y14.227 I-3.299 J0.133
X144.879 Y15.926 I-3.011 J-1.355
X142.919 Y16.117 I-1.295 J-3.129
X140.856 Y14.84 I0.675 J-3.397
X140.329 Y11.487 I2.772 J-2.153
X144.517 Y9.273 I3.315 J1.203
X145.627 Y9.765 I-0.881 J3.488
X147.282 Y12.493 I-2.068 J3.119
X146.724 Y14.855 I-3.658 J0.383
X144.801 Y16.362 I-3.116 J-1.996
X142.92 Y16.507 I-1.221 J-3.569
X140.932 Y15.498 I0.668 J-3.78
X139.737 Y12.887 I2.686 J-2.808
X142.108 Y9.091 I3.904 J-0.2
X144.372 Y8.844 I1.538 J3.604
X145.63 Y9.308 I-0.735 J3.926
X146.798 Y10.314 I-2.039 J3.549
X147.69 Y12.707 I-3.226 J2.565
X147.464 Y14.222 I-4.077 J0.166
X145.928 Y16.229 I-3.844 J-1.35
X144.336 Y16.888 I-2.339 J-3.397
X142.59 Y16.84 I-0.76 J-4.112
X140.997 Y16.075 I0.995 J-4.112
X139.765 Y14.556 I2.609 J-3.377
X139.377 Y12.097 I3.863 J-1.869
X141.237 Y9.116 I4.264 J0.591
X143.447 Y8.385 I2.408 J3.576
X144.538 Y8.472 I0.201 J4.338
X145.416 Y8.755 I-0.899 J4.303
X146.072 Y9.113 I-1.796 J4.066
X146.663 Y9.58 I-2.473 J3.741
G1 X146.798 Y9.712
G3 X147.388 Y10.453 I-3.221 J3.165
G1 X147.486 Y10.616
X147.578 Y10.782
G3 X147.927 Y11.663 I-3.999 J2.095
X148.084 Y12.593 I-4.335 J1.211
X148.044 Y13.533 I-4.475 J0.279
X147.057 Y15.734 I-4.421 J-0.659
X146.528 Y16.271 I-3.446 J-2.869
X145.915 Y16.713 I-2.93 J-3.42
G1 X145.75 Y16.807
X145.581 Y16.894
X145.409 Y16.975
X145.233 Y17.048
X145.054 Y17.113
X144.872 Y17.171
X144.687 Y17.222
X144.501 Y17.265
X144.312 Y17.299
X144.122 Y17.326
X143.931 Y17.345
X143.739 Y17.356
X143.546 Y17.359
X143.354 Y17.354
X143.161 Y17.341
X142.969 Y17.319
X142.778 Y17.29
X142.588 Y17.252
X142.399 Y17.207
X142.213 Y17.153
X142.028 Y17.092
X141.847 Y17.023
X141.668 Y16.946
X141.492 Y16.862
X141.32 Y16.77
X141.152 Y16.671
X140.988 Y16.565
X140.828 Y16.452
X140.673 Y16.333
X140.523 Y16.206
X140.379 Y16.074
X140.24 Y15.936
X140.107 Y15.792
X139.98 Y15.642
X139.859 Y15.487
X139.745 Y15.327
X139.638 Y15.162
X139.538 Y14.993
X139.445 Y14.82
X139.359 Y14.642
X139.28 Y14.462
X139.21 Y14.278
X139.147 Y14.091
X139.092 Y13.902
X139.045 Y13.71
X139.006 Y13.517
X138.975 Y13.322
X138.952 Y13.125
X138.938 Y12.929
X138.932 Y12.731
X138.934 Y12.534
X138.945 Y12.336
X138.964 Y12.139
X138.991 Y11.944
X139.026 Y11.749
X139.069 Y11.556
X139.121 Y11.365
X139.18 Y11.177
X139.248 Y10.991
X139.323 Y10.807
X139.406 Y10.628
X139.496 Y10.452
X139.593 Y10.279
X139.698 Y10.111
X139.81 Y9.948
X139.928 Y9.789
X140.053 Y9.636
X140.185 Y9.488
X140.322 Y9.345
X140.466 Y9.209
X140.615 Y9.078
X140.769 Y8.954
X140.929 Y8.837
X141.093 Y8.726
X141.262 Y8.622
X141.435 Y8.526
X141.612 Y8.437
X141.792 Y8.355
X141.976 Y8.281
X142.163 Y8.215
X142.353 Y8.156
X142.545 Y8.106
X142.739 Y8.064
X142.934 Y8.029
X143.132 Y8.004
X143.33 Y7.986
X143.529 Y7.977
X143.728 Y7.976
X143.928 Y7.983
X144.128 Y7.999
X144.327 Y8.023
X144.525 Y8.056
X144.722 Y8.097
X144.917 Y8.147
X145.111 Y8.204
X145.302 Y8.27
X145.491 Y8.344
X145.677 Y8.426
X145.859 Y8.516
X146.039 Y8.614
X146.214 Y8.72
X146.385 Y8.833
X146.551 Y8.953
X146.712 Y9.08
X146.868 Y9.214
X147.019 Y9.355
X147.163 Y9.502
X147.301 Y9.654
X147.433 Y9.813
X147.557 Y9.977
X147.675 Y10.146
X147.786 Y10.319
X147.889 Y10.497
X147.985 Y10.68
X148.073 Y10.866
X148.153 Y11.055
X148.225 Y11.248
X148.289 Y11.444
X148.345 Y11.642
X148.393 Y11.843
X148.432 Y12.045
X148.462 Y12.249
X148.484 Y12.453
X148.497 Y12.659
X148.502 Y12.864
X148.498 Y13.07
X148.485 Y13.275
X148.464 Y13.479
X148.434 Y13.682
X148.396 Y13.884
X148.349 Y14.084
X148.294 Y14.281
X148.231 Y14.477
X148.159 Y14.669
X148.08 Y14.858
X147.992 Y15.043
X147.897 Y15.225
X147.794 Y15.403
X147.684 Y15.576
X147.567 Y15.745
X147.443 Y15.908
X147.311 Y16.067
X147.174 Y16.22
X147.029 Y16.366
X146.879 Y16.507
X146.723 Y16.642
X146.561 Y16.769
X146.395 Y16.89
X146.223 Y17.004
X146.047 Y17.11
X145.866 Y17.209
X145.681 Y17.3
X145.493 Y17.384
X145.302 Y17.46
X145.107 Y17.527
X144.91 Y17.587
X144.71 Y17.638
X144.509 Y17.681
X144.306 Y17.715
X144.102 Y17.741
X143.897 Y17.759
X143.691 Y17.768
X143.485 Y17.769
X143.279 Y17.761
X143.074 Y17.744
X142.869 Y17.72
X142.666 Y17.686
X142.464 Y17.645
X142.265 Y17.595
X142.067 Y17.537
X141.872 Y17.471
X141.68 Y17.398
X141.491 Y17.316
X141.305 Y17.227
X141.123 Y17.13
X140.946 Y17.026
X140.772 Y16.915
X140.604 Y16.796
X140.44 Y16.672
X140.281 Y16.54
X140.128 Y16.402
X139.981 Y16.258
X139.84 Y16.109
X139.704 Y15.953
X139.576 Y15.793
X139.453 Y15.627
X139.338 Y15.456
X139.229 Y15.281
X139.128 Y15.102
X139.034 Y14.919
X138.948 Y14.732
X138.869 Y14.542
X138.798 Y14.348
X138.735 Y14.152
X138.68 Y13.954
X138.633 Y13.753
X138.594 Y13.551
X138.563 Y13.347
X138.541 Y13.143
X138.527 Y12.937
X138.521 Y12.731
X138.523 Y12.526
X138.534 Y12.32
X138.552 Y12.115
X138.579 Y11.911
X138.615 Y11.708
X138.658 Y11.507
X138.71 Y11.307
X138.769 Y11.11
X138.836 Y10.915
X138.911 Y10.723
X138.994 Y10.535
X139.084 Y10.35
X139.182 Y10.168
X139.286 Y9.991
X139.398 Y9.818
X139.517 Y9.65
X139.643 Y9.487
X139.774 Y9.329
X139.913 Y9.176
X140.057 Y9.029
X140.207 Y8.888
X140.362 Y8.753
X140.523 Y8.624
X140.689 Y8.502
X140.86 Y8.387
X141.035 Y8.279
X141.214 Y8.177
X141.397 Y8.083
X141.584 Y7.997
X141.774 Y7.918
X141.968 Y7.846
X142.163 Y7.783
X142.362 Y7.727
X142.562 Y7.679
X142.764 Y7.64
X142.968 Y7.608
X143.172 Y7.585
X143.378 Y7.57
X143.583 Y7.563
X143.789 Y7.565
X143.995 Y7.574
X144.2 Y7.592
X144.405 Y7.618
X144.608 Y7.652
X144.809 Y7.694
X145.009 Y7.744
X145.207 Y7.802
X145.402 Y7.868
X145.594 Y7.941
X145.784 Y8.021
X145.97 Y8.109
X146.153 Y8.204
X146.332 Y8.306
X146.506 Y8.416
X146.676 Y8.532
X146.842 Y8.654
G3 X147.453 Y9.206 I-3.252 J4.217
X147.972 Y9.844 I-3.883 J3.685
G1 X148.086 Y10.016
X148.193 Y10.192
X148.293 Y10.372
G3 X148.622 Y11.126 I-4.705 J2.499
X148.889 Y12.33 I-5.054 J1.753
G1 X148.906 Y12.535
X148.915 Y12.741
X148.916 Y12.947
X148.909 Y13.152
X148.894 Y13.358
X148.871 Y13.563
G3 X148.492 Y14.949 I-5.279 J-0.698
G1 X148.407 Y15.137
X148.316 Y15.321
X148.217 Y15.502
X148.111 Y15.679
X147.999 Y15.851
X147.879 Y16.019
G3 X147.191 Y16.783 I-4.29 J-3.172
G1 X147.037 Y16.919
X146.877 Y17.049
X146.713 Y17.173
X146.543 Y17.29
X146.37 Y17.401
G3 X145.636 Y17.774 I-2.781 J-4.564
X144.247 Y18.143 I-2.068 J-4.985
X143.425 Y18.183 I-0.672 J-5.324
X142.006 Y17.953 I0.152 J-5.446
X140.873 Y17.467 I1.56 J-5.192
X139.586 Y16.448 I2.736 J-4.78
X138.75 Y15.278 I3.992 J-3.736
X138.168 Y13.528 I4.878 J-2.595
X138.162 Y11.887 I5.475 J-0.841
X138.474 Y10.694 I5.474 J0.794
X139.415 Y9.107 I5.17 J1.996
X140.65 Y8.026 I4.208 J3.56
X142.346 Y7.3 I3.009 J4.69
X143.982 Y7.155 I1.304 J5.417
X145.97 Y7.646 I-0.329 J5.61
X148.313 Y9.601 I-2.355 J5.205
X149.161 Y11.466 I-4.724 J3.273
X149.198 Y14.118 I-5.564 J1.404
X148.034 Y16.503 I-5.593 J-1.254
X144.948 Y18.439 I-4.448 J-3.661
X142.095 Y18.415 I-1.379 J-5.654
X139.441 Y16.904 I1.486 J-5.692
X137.897 Y14.269 I4.155 J-4.206
X137.819 Y11.415 I5.725 J-1.584
X139.213 Y8.697 I5.807 J1.263
X141.384 Y7.17 I4.426 J3.985
X144.003 Y6.734 I2.266 J5.522
X146.91 Y7.675 I-0.352 J6.046
X149.095 Y10.088 I-3.295 J5.18
X149.729 Y13.483 I-5.485 J2.779
X148.898 Y16.006 I-6.096 J-0.608
X147.082 Y17.944 I-5.282 J-3.131
X145.303 Y18.784 I-3.488 J-5.084
G1 X145.187 Y18.811
X145.07 Y18.828
X144.951 Y18.834
X142.692
X142.486 Y18.824
X142.342 Y18.813
X142.185 Y18.794
X142.015 Y18.767
X141.835 Y18.73
X141.646 Y18.683
X141.45 Y18.625
X141.255 Y18.559
X141.063 Y18.485
G3 X140.326 Y18.118 I2.139 J-5.218
X139.184 Y17.245 I3.127 J-5.277
X138.154 Y15.945 I4.36 J-4.513
G1 X138.124 Y15.891
X138.098 Y15.836
X138.074 Y15.78
G3 X138.548 Y15.408 I0.299 J-0.107
G1 X140.705 Y16.832
X142.856 Y18.252
