(PillowBlockAFace)
(Mils the top Face of the pillow block)
(Machine)
(  vendor: Carbide 3D)
(  model: 3)
(  description: Shapeoko)
(T1  D=3.175 CR=0 - ZMIN=-6.45 - flat end mill)
G90 G94
G17
G21
G28 G91 Z0
G90

(PocketRough)
T1 M6
S12000 M3
G54
G0 X10.511 Y14.758
Z15
Z0.504
G2 X13.488 Y15.242 Z0.339 I1.489 J0.242 F300
X10.511 Y14.758 Z0.174 I-1.489 J-0.242
X13.488 Y15.242 Z0.008 I1.489 J0.242
X10.511 Y14.758 Z-0.157 I-1.489 J-0.242
X13.488 Y15.242 Z-0.323 I1.489 J0.242
X10.511 Y14.758 Z-0.488 I-1.489 J-0.242
X13.488 Y15.242 Z-0.654 I1.489 J0.242
X10.511 Y14.758 Z-0.819 I-1.489 J-0.242
X13.488 Y15.242 Z-0.985 I1.489 J0.242
X10.511 Y14.758 Z-1.15 I-1.489 J-0.242
X13.488 Y15.242 Z-1.315 I1.489 J0.242
X10.511 Y14.758 Z-1.481 I-1.489 J-0.242
X13.488 Y15.242 Z-1.646 I1.489 J0.242
X10.511 Y14.758 Z-1.812 I-1.489 J-0.242
X13.488 Y15.242 Z-1.977 I1.489 J0.242
X10.511 Y14.758 Z-2.143 I-1.489 J-0.242
X13.488 Y15.242 Z-2.308 I1.489 J0.242
X10.511 Y14.758 Z-2.474 I-1.489 J-0.242
X13.488 Y15.242 Z-2.639 I1.489 J0.242
X10.511 Y14.758 Z-2.805 I-1.489 J-0.242
X13.488 Y15.242 Z-2.97 I1.489 J0.242
X10.511 Y14.758 Z-3.135 I-1.489 J-0.242
X13.488 Y15.242 Z-3.301 I1.489 J0.242
X10.511 Y14.758 Z-3.466 I-1.489 J-0.242
X13.488 Y15.242 Z-3.632 I1.489 J0.242
X10.511 Y14.758 Z-3.797 I-1.489 J-0.242
X13.488 Y15.242 Z-3.963 I1.489 J0.242
X10.511 Y14.758 Z-4.128 I-1.489 J-0.242
X13.488 Y15.242 Z-4.294 I1.489 J0.242
X10.511 Y14.758 Z-4.459 I-1.489 J-0.242
X13.488 Y15.242 Z-4.625 I1.489 J0.242
X10.511 Y14.758 Z-4.79 I-1.489 J-0.242
X13.488 Y15.242 Z-4.955 I1.489 J0.242
X10.511 Y14.758 Z-5.121 I-1.489 J-0.242
X13.488 Y15.242 Z-5.286 I1.489 J0.242
X10.511 Y14.758 Z-5.452 I-1.489 J-0.242
X13.488 Y15.242 Z-5.617 I1.489 J0.242
X10.511 Y14.758 Z-5.783 I-1.489 J-0.242
X13.488 Y15.242 Z-5.948 I1.489 J0.242
X10.511 Y14.758 Z-6.114 I-1.489 J-0.242
X11.878 Y16.503 Z-6.201 I1.489 J0.242
X13.508 Y15 Z-6.287 I0.121 J-1.503
X10.492 Y15 I-1.508 J0
X13.508 Y15 I1.508 J0
G1 X13.509 Y14.788 F620
G2 X13.505 Y14.496 I-0.736 J-0.137
X13.244 Y13.948 I-1.241 J0.256
X12.308 Y13.387 I-1.221 J0.976
X10.635 Y15.915 I-0.311 J1.612
X13.594 Y15.404 I1.366 J-0.914
G1 X13.62 Y15.299
G2 X13.665 Y14.974 I-1.508 J-0.373
G1 X13.65 Y14.784
X13.613 Y14.593
X13.552 Y14.403
G2 X13.409 Y14.117 I-1.397 J0.521
G1 X13.346 Y14.022
X13.256 Y13.909
X13.161 Y13.809
X13.081 Y13.736
X13.066 Y13.724
X12.959 Y13.641
G2 X12.59 Y13.447 I-0.984 J1.419
G1 X12.495 Y13.411
G2 X12.114 Y13.34 I-0.515 J1.695
G1 X12.019 Y13.338
X11.923
X11.747 Y13.356
X11.733 Y13.358
X11.543 Y13.401
X11.399 Y13.451
X11.352 Y13.468
X11.194 Y13.546
X11.162 Y13.562
G2 X10.876 Y13.773 I0.992 J1.646
X10.656 Y14.022 I1.095 J1.192
G1 X10.591 Y14.12
X10.534 Y14.212
X10.495 Y14.29
X10.446 Y14.403
X10.4 Y14.548
X10.387 Y14.593
X10.367 Y14.689
X10.35 Y14.784
X10.337 Y14.974
X10.34 Y15.069
X10.345 Y15.165
X10.356 Y15.26
X10.375 Y15.355
X10.4 Y15.451
G2 X10.62 Y15.926 I1.493 J-0.404
G1 X10.689 Y16.022
X10.767 Y16.117
X10.781 Y16.132
X10.86 Y16.212
X10.971 Y16.309
X11.067 Y16.377
X11.162 Y16.437
X11.281 Y16.498
X11.352 Y16.532
X11.447 Y16.57
X11.543 Y16.6
X11.733 Y16.643
X11.828 Y16.655
X11.923 Y16.663
X12.019 Y16.662
X12.114 Y16.66
X12.209 Y16.649
X12.304 Y16.635
X12.399 Y16.613
X12.495 Y16.587
X12.59 Y16.554
X12.725 Y16.498
X12.78 Y16.469
X12.896 Y16.402
X12.971 Y16.351
X13.066 Y16.274
X13.139 Y16.212
G2 X13.352 Y15.971 I-1.162 J-1.235
G1 X13.447 Y15.818
G2 X13.601 Y15.45 I-1.335 J-0.778
X13.663 Y14.993 I-1.638 J-0.455
G1 X13.664 Y14.992
X13.656 Y14.955 Z-6.281
X13.65 Y14.921 Z-6.263
X13.644 Y14.895 Z-6.236
X13.641 Y14.878 Z-6.201
X13.64 Y14.872 Z-6.163
G0 Z5
X32.737 Y14.758
Z0.504
G2 X35.714 Y15.242 Z0.339 I1.489 J0.242 F300
X32.737 Y14.758 Z0.174 I-1.489 J-0.242
X35.714 Y15.242 Z0.008 I1.489 J0.242
X32.737 Y14.758 Z-0.157 I-1.489 J-0.242
X35.714 Y15.242 Z-0.323 I1.489 J0.242
X32.737 Y14.758 Z-0.488 I-1.489 J-0.242
X35.714 Y15.242 Z-0.654 I1.489 J0.242
X32.737 Y14.758 Z-0.819 I-1.489 J-0.242
X35.714 Y15.242 Z-0.985 I1.489 J0.242
X32.737 Y14.758 Z-1.15 I-1.489 J-0.242
X35.714 Y15.242 Z-1.315 I1.489 J0.242
X32.737 Y14.758 Z-1.481 I-1.489 J-0.242
X35.714 Y15.242 Z-1.646 I1.489 J0.242
X32.737 Y14.758 Z-1.812 I-1.489 J-0.242
X35.714 Y15.242 Z-1.977 I1.489 J0.242
X32.737 Y14.758 Z-2.143 I-1.489 J-0.242
X35.714 Y15.242 Z-2.308 I1.489 J0.242
X32.737 Y14.758 Z-2.474 I-1.489 J-0.242
X35.714 Y15.242 Z-2.639 I1.489 J0.242
X32.737 Y14.758 Z-2.805 I-1.489 J-0.242
X35.714 Y15.242 Z-2.97 I1.489 J0.242
X32.737 Y14.758 Z-3.135 I-1.489 J-0.242
X35.714 Y15.242 Z-3.301 I1.489 J0.242
X32.737 Y14.758 Z-3.466 I-1.489 J-0.242
X35.714 Y15.242 Z-3.632 I1.489 J0.242
X32.737 Y14.758 Z-3.797 I-1.489 J-0.242
X35.714 Y15.242 Z-3.963 I1.489 J0.242
X32.737 Y14.758 Z-4.128 I-1.489 J-0.242
X35.714 Y15.242 Z-4.294 I1.489 J0.242
X32.737 Y14.758 Z-4.459 I-1.489 J-0.242
X35.714 Y15.242 Z-4.625 I1.489 J0.242
X32.737 Y14.758 Z-4.79 I-1.489 J-0.242
X35.714 Y15.242 Z-4.955 I1.489 J0.242
X32.737 Y14.758 Z-5.121 I-1.489 J-0.242
X35.714 Y15.242 Z-5.286 I1.489 J0.242
X32.737 Y14.758 Z-5.452 I-1.489 J-0.242
X35.714 Y15.242 Z-5.617 I1.489 J0.242
X32.737 Y14.758 Z-5.783 I-1.489 J-0.242
X35.714 Y15.242 Z-5.948 I1.489 J0.242
X32.737 Y14.758 Z-6.114 I-1.489 J-0.242
X34.104 Y16.503 Z-6.201 I1.489 J0.242
X35.734 Y15 Z-6.287 I0.121 J-1.503
X32.717 Y15 I-1.508 J0
X35.734 Y15 I1.508 J0
G1 Y14.789 F620
G2 X35.731 Y14.496 I-0.736 J-0.137
X35.469 Y13.949 I-1.241 J0.256
X34.533 Y13.387 I-1.221 J0.976
X32.86 Y15.916 I-0.311 J1.612
X35.819 Y15.404 I1.366 J-0.914
X35.905 Y14.872 I-2.283 J-0.641
X35.397 Y13.674 I-1.557 J-0.046
X34.039 Y13.226 I-1.171 J1.266
X32.944 Y16.244 I0.183 J1.774
X35.847 Y15.749 I1.282 J-1.243
X36.054 Y14.792 I-1.857 J-0.903
X35.184 Y13.338 I-1.77 J0.072
X33.479 Y13.219 I-0.969 J1.621
X34.825 Y16.837 I0.745 J1.782
X35.859 Y16.035 I-0.596 J-1.836
X36.202 Y14.728 I-1.775 J-1.165
X35.037 Y13.094 I-1.943 J0.154
X32.992 Y13.321 I-0.827 J1.874
X32.565 Y16.262 I1.232 J1.681
X35.513 Y16.639 I1.659 J-1.261
X36.291 Y15.44 I-1.382 J-1.749
X35.772 Y13.422 I-2.051 J-0.548
X33.613 Y12.848 I-1.561 J1.521
X32.14 Y15.822 I0.605 J2.151
X35.683 Y16.704 I2.085 J-0.82
X36.505 Y14.608 I-1.538 J-1.812
X34.802 Y12.682 I-2.27 J0.291
X32.511 Y13.319 I-0.596 J2.292
X35.413 Y17.088 I1.713 J1.683
X36.483 Y15.886 I-1.233 J-2.174
X36.275 Y13.539 I-2.269 J-0.982
X33.895 Y12.461 I-2.063 J1.39
X31.675 Y14.707 I0.315 J2.532
X35.456 Y17.254 I2.55 J0.295
X36.769 Y15.566 I-1.276 J-2.347
X34.902 Y12.366 I-2.541 J-0.663
X32.132 Y13.241 I-0.701 J2.607
X34.061 Y17.732 I2.091 J1.762
X36.082 Y17.018 I0.164 J-2.753
X36.925 Y14.162 I-1.898 J-2.112
X34.441 Y12.113 I-2.707 J0.752
X31.786 Y13.417 I-0.239 J2.867
X34.982 Y17.81 I2.438 J1.586
X36.807 Y16.391 I-0.773 J-2.877
X36.494 Y12.983 I-2.594 J-1.48
X33.316 Y12.059 I-2.292 J1.957
X31.16 Y15.35 I0.894 J2.938
X35.228 Y17.919 I3.065 J-0.348
X37.099 Y16.207 I-1.022 J-2.995
X34.764 Y11.799 I-2.881 J-1.297
X31.665 Y12.977 I-0.566 J3.175
X34.407 Y18.261 I2.557 J2.026
X36.779 Y17.062 I-0.183 J-3.308
X37.01 Y13.075 I-2.573 J-2.149
X33.518 Y11.636 I-2.808 J1.857
X30.803 Y14.583 I0.687 J3.357
X34.843 Y18.393 I3.421 J0.419
X37.332 Y16.564 I-0.626 J-3.46
X34.856 Y11.444 I-3.116 J-1.652
X31.461 Y12.646 I-0.66 J3.528
X33.779 Y18.606 I2.761 J2.357
X36.677 Y17.699 I0.451 J-3.64
X37.337 Y12.898 I-2.471 J-2.786
X33.473 Y11.265 I-3.136 J2.035
X30.415 Y14.722 I0.731 J3.728
X34.664 Y18.798 I3.81 J0.281
X37.48 Y17.055 I-0.44 J-3.858
X34.956 Y11.079 I-3.267 J-2.142
X31.051 Y12.551 I-0.762 J3.894
X32.817 Y18.758 I3.169 J2.453
X36.444 Y18.356 I1.416 J-3.779
X37.405 Y12.342 I-2.236 J-3.441
X32.974 Y10.996 I-3.209 J2.597
X30.036 Y15.372 I1.232 J4.001
X34.554 Y19.195 I4.189 J-0.369
X37.85 Y17.194 I-0.328 J-4.256
X35.303 Y10.761 I-3.637 J-2.28
X31.009 Y12.002 I-1.112 J4.207
X31.973 Y18.783 I3.21 J3.003
X36.185 Y18.95 I2.26 J-3.796
X35.059 Y10.503 I-1.975 J-4.035
X30.582 Y12.198 I-0.867 J4.47
X32.497 Y19.263 I3.638 J2.806
X36.662 Y18.915 I1.738 J-4.285
X35.182 Y10.325 I-2.451 J-4
X30.654 Y11.801 I-0.991 J4.644
X32.093 Y19.3 I3.565 J3.203
X36.449 Y19.264 I2.142 J-4.317
X35.447 Y10.182 I-2.238 J-4.35
X30.867 Y11.302 I-1.257 J4.782
X30.982 Y18.808 I3.349 J3.702
X35.795 Y19.756 I3.251 J-3.815
X39.301 Y15.103 I-1.577 J-4.836
X35.589 Y10.01 I-5.089 J-0.19
X30.801 Y11.088 I-1.4 J4.953
X30.358 Y18.485 I3.413 J3.916
X35.479 Y20.058 I3.874 J-3.489
X39.256 Y16.534 I-1.256 J-5.131
X35.882 Y9.886 I-5.044 J-1.621
X30.98 Y10.679 I-1.694 J5.073
X29.598 Y17.806 I3.232 J4.324
X35.127 Y20.34 I4.632 J-2.807
X39.044 Y17.55 I-0.898 J-5.405
X36.043 Y9.723 I-4.832 J-2.636
X31.069 Y10.362 I-1.855 J5.234
X29.08 Y17.257 I3.141 J4.64
X34.741 Y20.598 I5.149 J-2.256
X38.917 Y18.153 I-0.508 J-5.658
X36.211 Y9.563 I-4.706 J-3.239
X31.18 Y10.044 I-2.024 J5.392
X28.677 Y16.777 I3.029 J4.958
X34.32 Y20.829 I5.551 J-1.776
X38.717 Y18.757 I-0.086 J-5.882
X36.387 Y9.406 I-4.506 J-3.842
X31.313 Y9.724 I-2.199 J5.546
X28.285 Y16.071 I2.893 J5.276
X34.04 Y21.037 I5.942 J-1.068
X38.567 Y19.232 I0.196 J-6.085
X36.569 Y9.253 I-4.356 J-4.317
X31.469 Y9.406 I-2.381 J5.697
X27.996 Y15.468 I2.736 J5.593
X33.564 Y21.216 I6.231 J-0.465
X38.233 Y19.821 I0.674 J-6.257
X36.758 Y9.103 I-4.022 J-4.907
X31.815 Y9.02 I-2.57 J5.842
X27.776 Y14.634 I2.386 J5.977
X32.88 Y21.321 I6.449 J0.37
X37.824 Y20.387 I1.36 J-6.356
X37.288 Y9.123 I-3.612 J-5.473
X32.204 Y8.654 I-3.1 J5.818
X27.708 Y13.566 I1.994 J6.339
X32.167 Y21.352 I6.515 J1.439
X37.341 Y20.92 I2.073 J-6.379
X38.748 Y9.886 I-3.127 J-6.005
X33.398 Y8.18 I-4.556 J5.046
X28.242 Y11.59 I0.794 J6.804
X30.087 Y20.511 I5.977 J3.415
X35.849 Y21.706 I4.149 J-5.523
X40.391 Y18.179 I-1.619 J-6.774
X37.366 Y8.677 I-6.181 J-3.265
X32.131 Y8.224 I-3.179 J6.267
X27.4 Y13.025 I2.066 J6.768
X31.227 Y21.446 I6.822 J1.98
X36.744 Y21.659 I3.013 J-6.467
X41.142 Y16.889 I-2.52 J-6.736
X37.582 Y8.544 I-6.932 J-1.975
X31.998 Y8.038 I-3.395 J6.401
X27.293 Y12.638 I2.199 J6.954
X30.645 Y21.393 I6.928 J2.366
X36.295 Y22.038 I3.594 J-6.41
X40.937 Y18.062 I-2.066 J-7.11
X37.988 Y8.521 I-6.726 J-3.147
X32.48 Y7.679 I-3.8 J6.42
X27.396 Y11.801 I1.715 J7.31
X29.584 Y20.95 I6.824 J3.204
X35.148 Y22.495 I4.65 J-5.954
X40.191 Y19.677 I-0.915 J-7.559
X41.581 Y12.886 I-5.973 J-4.76
X36.912 Y7.761 I-7.372 J2.028
X30.015 Y8.49 I-2.727 J7.194
X26.48 Y15.519 I4.188 J6.509
X30.532 Y21.832 I7.741 J-0.512
X36.481 Y22.44 I3.705 J-6.842
X42.069 Y15.229 I-2.255 J-7.518
X37.848 Y7.941 I-7.857 J-0.317
X33.34 Y7.087 I-3.658 J6.99
X27.342 Y10.963 I0.852 J7.897
X27.559 Y19.396 I6.874 J4.042
X34.165 Y22.99 I6.673 J-4.397
X39.896 Y20.662 I0.071 J-8.044
X42.083 Y13.072 I-5.676 J-5.745
X37.35 Y7.462 I-7.873 J1.84
X30.025 Y7.965 I-3.166 J7.491
X26.021 Y14.998 I4.176 J7.033
X30.009 Y22.041 I8.199 J0.009
X36.537 Y22.884 I4.228 J-7.052
X42.435 Y16.075 I-2.31 J-7.96
X37.728 Y7.388 I-8.226 J-1.162
X30.185 Y7.619 I-3.544 J7.565
X25.801 Y14.877 I4.017 J7.38
X32.93 Y23.331 I8.427 J0.127
X39.495 Y21.606 I1.31 J-8.371
X42.655 Y13.726 I-5.271 J-6.687
X38.023 Y7.284 I-8.443 J1.185
X30.273 Y7.322 I-3.838 J7.664
X25.614 Y14.209 I3.925 J7.674
X29.268 Y22.089 I8.605 J0.797
X36.125 Y23.447 I4.969 J-7.097
X42.544 Y17.585 I-1.894 J-8.52
X37.859 Y6.959 I-8.335 J-2.671
X29.727 Y7.367 I-3.675 J7.997
X25.81 Y17.807 I4.479 J7.636
X31.646 Y23.492 I8.414 J-2.8
X38.789 Y22.629 I2.595 J-8.52
X43.181 Y14.681 I-4.562 J-7.708
X38.57 Y7.07 I-8.969 J0.231
X30.807 Y6.588 I-4.385 J7.875
X25.285 Y13.34 I3.388 J8.405
X29.333 Y22.67 I8.936 J1.666
X36.444 Y23.831 I4.905 J-7.682
X43.053 Y17.443 I-2.213 J-8.903
X43.19 Y16.878 I-14.787 J-3.892
G1 X43.209 Y16.783
X43.276 Y16.402
X43.292 Y16.307
X43.348 Y15.831
X43.361 Y15.641
X43.377 Y15.355
X43.385 Y15.165
X43.386 Y14.974
X43.372 Y14.498
X43.357 Y14.308
X43.331 Y14.022
X43.31 Y13.832
X43.252 Y13.451
X43.236 Y13.356
X43.218 Y13.26
X43.136 Y12.879
X43.113 Y12.784
X43.008 Y12.403
X42.98 Y12.308
X42.918 Y12.118
X42.819 Y11.832
G2 X42.543 Y11.166 I-10.447 J3.938
G1 X42.358 Y10.785
X42.291 Y10.661
X42.147 Y10.404
X42.092 Y10.309
X42.005 Y10.168
X41.815 Y9.872
G2 X41.434 Y9.348 I-12.471 J8.66
G1 X41.149 Y9.004
G2 X40.673 Y8.494 I-8.531 J7.481
G1 X40.377 Y8.214
G2 X39.911 Y7.819 I-9.585 J10.837
G1 X39.806 Y7.738
X39.53 Y7.534
X39.413 Y7.452
X39.34 Y7.403
X39.054 Y7.217
X38.959 Y7.159
X38.674 Y6.995
X38.578 Y6.941
X38.465 Y6.881
X38.08 Y6.691
X38.007 Y6.657
X37.626 Y6.496
X37.531 Y6.457
X37.341 Y6.388
X37.055 Y6.288
X36.865 Y6.23
X36.579 Y6.149
X36.466 Y6.119
X36.389 Y6.1
X36.046 Y6.024
X35.913 Y5.997
X35.818 Y5.981
X35.437 Y5.92
X35.342 Y5.908
X34.866 Y5.862
X34.675 Y5.853
X34.39 Y5.842
X34.199 Y5.841
X33.723 Y5.853
X33.247 Y5.892
G2 X32.581 Y5.989 I1.312 J11.36
G1 X32.391 Y6.028
X32.2 Y6.068
X32.105 Y6.089
X31.985 Y6.119
X31.629 Y6.216
X31.534 Y6.244
X31.056 Y6.405
X30.772 Y6.518
X30.582 Y6.595
X30.391 Y6.683
X30.106 Y6.819
X30.011 Y6.866
X29.63 Y7.077
X29.535 Y7.132
X29.328 Y7.262
X29.154 Y7.373
X29.059 Y7.435
X28.771 Y7.643
X28.678 Y7.712
X28.583 Y7.785
X28.29 Y8.024
X28.202 Y8.099
X28.075 Y8.214
X27.869 Y8.404
X27.821 Y8.45
X27.726 Y8.547
X27.44 Y8.844
X27.408 Y8.881
X27.084 Y9.261
X27.011 Y9.357
X26.774 Y9.672
X26.727 Y9.737
X26.537 Y10.023
X26.474 Y10.118
X26.414 Y10.214
X26.203 Y10.581
X26.142 Y10.69
X25.917 Y11.139
X25.864 Y11.261
X25.702 Y11.642
X25.667 Y11.737
X25.53 Y12.118
X25.499 Y12.213
X25.388 Y12.594
X25.361 Y12.689
X25.316 Y12.879
X25.251 Y13.166
X25.215 Y13.356
X25.168 Y13.641
X25.14 Y13.832
X25.09 Y14.308
X25.081 Y14.498
X25.068 Y14.784
X25.066 Y14.879
G2 X25.077 Y15.45 I12.907 J0.059
G1 X25.082 Y15.545
X25.112 Y15.926
X25.122 Y16.022
X25.174 Y16.402
X25.188 Y16.498
X25.224 Y16.688
X25.281 Y16.974
X25.325 Y17.164
X25.426 Y17.545
X25.453 Y17.64
X25.579 Y18.021
X25.611 Y18.116
X25.632 Y18.173
X25.798 Y18.592
X25.822 Y18.65
X26.018 Y19.068
X26.065 Y19.164
X26.298 Y19.59
X26.326 Y19.64
X26.584 Y20.052
X26.627 Y20.116
X26.897 Y20.497
X26.971 Y20.592
X27.25 Y20.939
X27.278 Y20.973
X27.631 Y21.359
X27.726 Y21.454
X28.012 Y21.73
X28.122 Y21.83
X28.454 Y22.115
X28.488 Y22.141
X28.868 Y22.431
X28.964 Y22.498
X29.249 Y22.689
X29.393 Y22.782
X29.725 Y22.977
X29.915 Y23.082
X30.296 Y23.276
X30.391 Y23.319
X30.689 Y23.448
X30.772 Y23.483
X30.867 Y23.522
X30.963 Y23.558
X31.248 Y23.662
X31.343 Y23.694
X31.439 Y23.725
X31.789 Y23.829
X31.915 Y23.864
X32.391 Y23.976
X32.676 Y24.026
X32.867 Y24.058
X33.057 Y24.084
X33.343 Y24.116
X33.533 Y24.134
X33.723 Y24.144
X34.009 Y24.158
X34.104 Y24.159
X34.485 Y24.155
X34.58 Y24.153
X34.771 Y24.142
X35.151 Y24.114
X35.627 Y24.051
X35.722 Y24.038
X36.198 Y23.945
X36.389 Y23.899
X36.674 Y23.826
X36.77 Y23.799
G2 X37.341 Y23.614 I-3.987 J-13.281
G1 X37.766 Y23.448
X37.912 Y23.384
X38.198 Y23.252
X38.388 Y23.159
X38.769 Y22.955
X38.898 Y22.877
X39.207 Y22.686
X39.35 Y22.591
X39.626 Y22.397
X39.721 Y22.329
G2 X40.197 Y21.946 I-10.712 J-13.806
G1 X40.537 Y21.639
X40.577 Y21.6
X40.863 Y21.31
X40.958 Y21.208
X41.053 Y21.103
X41.249 Y20.877
X41.33 Y20.782
X41.551 Y20.497
X41.625 Y20.397
X41.691 Y20.306
X41.91 Y19.984
X41.947 Y19.925
X42.006 Y19.83
X42.196 Y19.513
X42.232 Y19.449
X42.386 Y19.154
X42.481 Y18.97
X42.577 Y18.757
X42.692 Y18.497
X42.729 Y18.402
X42.862 Y18.047
X42.872 Y18.021
X42.905 Y17.926
X42.961 Y17.747
X42.971 Y17.686
X42.969 Y17.623
X42.96 Y17.553 Z-6.28
X42.951 Y17.487 Z-6.256
X42.943 Y17.427 Z-6.218
X42.937 Y17.377 Z-6.168
X42.932 Y17.34 Z-6.108
X42.929 Y17.316 Z-6.041
X42.928 Y17.309 Z-5.97
G0 Z15

(PocketFinish)
X25.063 Y15.1
Z15
Z5
G1 Z-4.663 F100
Y15.092 Z-4.701
Y15.071 Z-4.733
Y15.038 Z-4.755
Y15 Z-4.762
Y14.9 F400
X25.024 Y14.908
X24.992 Y14.929
X24.97 Y14.962
X24.962 Y15
G2 X43.487 Y15 I9.262 J0 F620
X24.962 Y15 I-9.262 J0
X43.588 Y15 I9.313 J0
X24.862 Y15 I-9.363 J0
X43.688 Y15 I9.413 J0
X24.762 Y15 I-9.463 J0
X43.688 Y15 I9.463 J0
X24.762 Y15 I-9.463 J0
X43.688 Y15 I9.463 J0
G1 X43.687 Y14.95
Y14.9
X43.679 Y14.862 F400
X43.657 Y14.83
X43.624 Y14.808
X43.586 Y14.801
X43.587 Y14.901
Y14.939 Z-4.755
X43.588 Y14.972 Z-4.733
Y14.993 Z-4.701
Y15.001 Z-4.663
G0 Z5
X10.332 Y15.1
G1 Z-4.663 F100
Y15.092 Z-4.701
Y15.071 Z-4.733
Y15.038 Z-4.755
Y15 Z-4.762
Y14.9 F400
X10.293 Y14.908
X10.261 Y14.929
X10.239 Y14.962
X10.231 Y15
G2 X13.769 Y15 I1.769 J0 F620
X10.231 Y15 I-1.769 J0
X13.868 Y15 I1.819 J0
X10.132 Y15 I-1.868 J0
X13.969 Y15 I1.918 J0
X10.031 Y15 I-1.969 J0
X13.969 Y15 I1.969 J0
X10.031 Y15 I-1.969 J0
X13.969 Y15 I1.969 J0
G1 X13.968 Y14.967
X13.967 Y14.933
X13.966 Y14.9
X13.956 Y14.862 F400
X13.933 Y14.831
X13.9 Y14.811
X13.861 Y14.805
X13.866 Y14.905
X13.868 Y14.943 Z-4.755
X13.87 Y14.976 Z-4.733
X13.871 Y14.997 Z-4.701
Y15.005 Z-4.663
G0 Z15

(PeremiterCut)
X43.711 Y-1.54
Z15
Z5
G1 Z0.817 F100
G19 G3 Y-1.222 Z0.5 J0.317 K0
G1 Y-0.905 F350
G17 G2 X44.029 Y-0.587 I0.318 J0
G1 X47.145 Z0.491
G3 X53.813 Y6.08 Z0.461 I0 J6.667
G1 Y34.05 Z0.381
G3 X52.225 Y35.638 Z0.374 I-1.588 J0
G1 X1 Z0.226
G3 X-0.587 Y34.05 Z0.219 I0 J-1.588
G1 Y6.08 Z0.139
G3 X6.08 Y-0.587 Z0.109 I6.667 J0
G1 X47.145 Z-0.009
G3 X53.813 Y6.08 Z-0.039 I0 J6.667
G1 Y34.05 Z-0.119
G3 X52.225 Y35.638 Z-0.126 I-1.588 J0
G1 X1 Z-0.274
G3 X-0.587 Y34.05 Z-0.281 I0 J-1.588
G1 Y6.08 Z-0.361
G3 X6.08 Y-0.587 Z-0.391 I6.667 J0
G1 X47.145 Z-0.509
G3 X53.813 Y6.08 Z-0.539 I0 J6.667
G1 Y34.05 Z-0.619
G3 X52.225 Y35.638 Z-0.626 I-1.588 J0
G1 X1 Z-0.774
G3 X-0.587 Y34.05 Z-0.781 I0 J-1.588
G1 Y6.08 Z-0.861
G3 X6.08 Y-0.587 Z-0.891 I6.667 J0
G1 X47.145 Z-1.009
G3 X53.813 Y6.08 Z-1.039 I0 J6.667
G1 Y34.05 Z-1.119
G3 X52.225 Y35.638 Z-1.126 I-1.588 J0
G1 X1 Z-1.274
G3 X-0.587 Y34.05 Z-1.281 I0 J-1.588
G1 Y6.08 Z-1.361
G3 X6.08 Y-0.587 Z-1.391 I6.667 J0
G1 X47.145 Z-1.509
G3 X53.813 Y6.08 Z-1.539 I0 J6.667
G1 Y34.05 Z-1.619
G3 X52.225 Y35.638 Z-1.626 I-1.588 J0
G1 X1 Z-1.774
G3 X-0.587 Y34.05 Z-1.781 I0 J-1.588
G1 Y6.08 Z-1.861
G3 X6.08 Y-0.587 Z-1.891 I6.667 J0
G1 X47.145 Z-2.009
G3 X53.813 Y6.08 Z-2.039 I0 J6.667
G1 Y34.05 Z-2.119
G3 X52.225 Y35.638 Z-2.126 I-1.588 J0
G1 X1 Z-2.274
G3 X-0.587 Y34.05 Z-2.281 I0 J-1.588
G1 Y6.08 Z-2.361
G3 X6.08 Y-0.587 Z-2.391 I6.667 J0
G1 X47.145 Z-2.509
G3 X53.813 Y6.08 Z-2.539 I0 J6.667
G1 Y34.05 Z-2.619
G3 X52.225 Y35.638 Z-2.626 I-1.588 J0
G1 X1 Z-2.774
G3 X-0.587 Y34.05 Z-2.781 I0 J-1.588
G1 Y6.08 Z-2.861
G3 X6.08 Y-0.587 Z-2.891 I6.667 J0
G1 X47.145 Z-3.009
G3 X53.813 Y6.08 Z-3.039 I0 J6.667
G1 Y34.05 Z-3.119
G3 X52.225 Y35.638 Z-3.126 I-1.588 J0
G1 X1 Z-3.274
G3 X-0.587 Y34.05 Z-3.281 I0 J-1.588
G1 Y6.08 Z-3.361
G3 X6.08 Y-0.587 Z-3.391 I6.667 J0
G1 X47.145 Z-3.509
G3 X53.813 Y6.08 Z-3.539 I0 J6.667
G1 Y34.05 Z-3.619
G3 X52.225 Y35.638 Z-3.626 I-1.588 J0
G1 X1 Z-3.774
G3 X-0.587 Y34.05 Z-3.781 I0 J-1.588
G1 Y6.08 Z-3.861
G3 X6.08 Y-0.587 Z-3.891 I6.667 J0
G1 X47.145 Z-4.009
G3 X53.813 Y6.08 Z-4.039 I0 J6.667
G1 Y34.05 Z-4.119
G3 X52.225 Y35.638 Z-4.126 I-1.588 J0
G1 X1 Z-4.274
G3 X-0.587 Y34.05 Z-4.281 I0 J-1.588
G1 Y6.08 Z-4.361
G3 X6.08 Y-0.587 Z-4.391 I6.667 J0
G1 X47.145 Z-4.509
G3 X53.813 Y6.08 Z-4.539 I0 J6.667
G1 Y34.05 Z-4.619
G3 X52.225 Y35.638 Z-4.626 I-1.588 J0
G1 X1 Z-4.774
G3 X-0.587 Y34.05 Z-4.781 I0 J-1.588
G1 Y6.08 Z-4.861
G3 X6.08 Y-0.587 Z-4.891 I6.667 J0
G1 X47.145 Z-5.009
G3 X53.813 Y6.08 Z-5.039 I0 J6.667
G1 Y34.05 Z-5.119
G3 X52.225 Y35.638 Z-5.126 I-1.588 J0
G1 X1 Z-5.274
G3 X-0.587 Y34.05 Z-5.281 I0 J-1.588
G1 Y6.08 Z-5.361
G3 X6.08 Y-0.587 Z-5.391 I6.667 J0
G1 X47.145 Z-5.509
G3 X53.813 Y6.08 Z-5.539 I0 J6.667
G1 Y34.05 Z-5.619
G3 X52.225 Y35.638 Z-5.626 I-1.588 J0
G1 X1 Z-5.774
G3 X-0.587 Y34.05 Z-5.781 I0 J-1.588
G1 Y6.08 Z-5.861
G3 X6.08 Y-0.587 Z-5.891 I6.667 J0
G1 X47.145 Z-6.009
G3 X53.813 Y6.08 Z-6.039 I0 J6.667
G1 Y34.05 Z-6.119
G3 X52.225 Y35.638 Z-6.126 I-1.588 J0
G1 X1 Z-6.274
G3 X-0.587 Y34.05 Z-6.281 I0 J-1.588
G1 Y6.08 Z-6.361
G3 X6.08 Y-0.587 Z-6.391 I6.667 J0
G1 X26.612 Z-6.45
X47.145
G3 X53.813 Y6.08 I0 J6.667
G1 Y34.05
G3 X52.225 Y35.638 I-1.588 J0
G1 X1
G3 X-0.587 Y34.05 I0 J-1.588
G1 Y6.08
G3 X6.08 Y-0.587 I6.667 J0
G1 X26.612
G2 X26.93 Y-0.905 I0 J-0.317
G1 Y-1.222
G19 G2 Y-1.54 Z-6.133 J0 K0.317
G0 Z15
G17
G28 G91 Z0
G90
G28 G91 X0 Y0
G90
M5
M30
