(PillowA_and_B)
(Cut top face of both pillow blocks)
(Machine)
(  vendor: Carbide 3D)
(  model: 3)
(  description: Shapeoko)
(T1  D=3.175 CR=0 - ZMIN=-6.45 - flat end mill)
G90 G94
G17
G21
G28 G91 Z0
G90

(PocketRough)
T1 M6
S12000 M3
G54
G0 X41.218 Y87.191
Z15
Z1.005
G3 X43.932 Y88.509 Z0.839 I1.357 J0.659 F300
X41.218 Y87.191 Z0.674 I-1.357 J-0.659
X43.932 Y88.509 Z0.508 I1.357 J0.659
X41.218 Y87.191 Z0.343 I-1.357 J-0.659
X43.932 Y88.509 Z0.177 I1.357 J0.659
X41.218 Y87.191 Z0.012 I-1.357 J-0.659
X43.932 Y88.509 Z-0.154 I1.357 J0.659
X41.218 Y87.191 Z-0.319 I-1.357 J-0.659
X43.932 Y88.509 Z-0.485 I1.357 J0.659
X41.218 Y87.191 Z-0.65 I-1.357 J-0.659
X43.932 Y88.509 Z-0.815 I1.357 J0.659
X41.218 Y87.191 Z-0.981 I-1.357 J-0.659
X43.932 Y88.509 Z-1.146 I1.357 J0.659
X41.218 Y87.191 Z-1.312 I-1.357 J-0.659
X43.932 Y88.509 Z-1.477 I1.357 J0.659
X41.218 Y87.191 Z-1.643 I-1.357 J-0.659
X43.932 Y88.509 Z-1.808 I1.357 J0.659
X41.218 Y87.191 Z-1.974 I-1.357 J-0.659
X43.932 Y88.509 Z-2.139 I1.357 J0.659
X41.218 Y87.191 Z-2.305 I-1.357 J-0.659
X43.932 Y88.509 Z-2.47 I1.357 J0.659
X41.218 Y87.191 Z-2.635 I-1.357 J-0.659
X43.932 Y88.509 Z-2.801 I1.357 J0.659
X41.218 Y87.191 Z-2.966 I-1.357 J-0.659
X43.932 Y88.509 Z-3.132 I1.357 J0.659
X41.218 Y87.191 Z-3.297 I-1.357 J-0.659
X43.932 Y88.509 Z-3.463 I1.357 J0.659
X41.218 Y87.191 Z-3.628 I-1.357 J-0.659
X43.932 Y88.509 Z-3.794 I1.357 J0.659
X41.218 Y87.191 Z-3.959 I-1.357 J-0.659
X43.932 Y88.509 Z-4.124 I1.357 J0.659
X41.218 Y87.191 Z-4.29 I-1.357 J-0.659
X43.932 Y88.509 Z-4.455 I1.357 J0.659
X41.218 Y87.191 Z-4.621 I-1.357 J-0.659
X44.083 Y87.85 Z-4.762 I1.357 J0.659
X41.067 Y87.85 I-1.508 J0
X44.083 Y87.85 I1.508 J0
G1 X44.084 Y88.061 F620
G3 X44.08 Y88.354 I-0.736 J0.137
X43.819 Y88.901 I-1.241 J-0.256
X42.883 Y89.463 I-1.221 J-0.976
X41.184 Y86.974 I-0.311 J-1.612
X44.169 Y87.446 I1.391 J0.875
X44.255 Y87.978 I-2.283 J0.641
X43.747 Y89.176 I-1.557 J0.046
X42.389 Y89.624 I-1.171 J-1.266
X41.294 Y86.606 I0.183 J-1.774
X44.197 Y87.101 I1.282 J1.243
X44.404 Y88.058 I-1.857 J0.903
X43.534 Y89.512 I-1.77 J-0.072
X41.828 Y89.631 I-0.969 J-1.621
X43.226 Y86.03 I0.745 J-1.782
X44.209 Y86.815 I-0.648 J1.818
X44.552 Y88.122 I-1.776 J1.165
X43.386 Y89.756 I-1.943 J-0.154
X41.342 Y89.529 I-0.827 J-1.874
X40.915 Y86.588 I1.232 J-1.681
X43.863 Y86.211 I1.659 J1.261
X44.641 Y87.41 I-1.382 J1.749
X44.122 Y89.428 I-2.051 J0.548
X41.963 Y90.002 I-1.561 J-1.521
X40.514 Y86.969 I0.605 J-2.151
X44.033 Y86.147 I2.061 J0.879
X44.855 Y88.242 I-1.538 J1.812
X43.151 Y90.168 I-2.27 J-0.291
X40.861 Y89.531 I-0.596 J-2.292
X43.762 Y85.762 I1.713 J-1.683
X44.86 Y87.031 I-1.235 J2.176
X44.502 Y89.479 I-2.291 J0.916
X42.032 Y90.353 I-1.943 J-1.565
X40.024 Y87.563 I0.53 J-2.5
X43.87 Y85.632 I2.551 J0.285
X45.076 Y87.138 I-1.339 J2.309
X43.105 Y90.519 I-2.5 J0.807
X40.532 Y89.668 I-0.553 J-2.642
X43.409 Y85.243 I2.041 J-1.82
X44.948 Y86.45 I-0.852 J2.671
X45.039 Y89.275 I-2.395 J1.491
X42.386 Y90.743 I-2.479 J-1.349
X39.729 Y88.45 I0.17 J-2.883
X43.57 Y85.115 I2.845 J-0.602
X45.237 Y86.611 I-1.016 J2.809
X44.283 Y90.379 I-2.669 J1.329
X40.883 Y90.425 I-1.734 J-2.487
X40.35 Y85.712 I1.685 J-2.577
X43.826 Y85.027 I2.227 J2.137
X45.683 Y87.419 I-1.279 J2.91
X43.379 Y90.992 I-3.112 J0.522
X40.26 Y90.148 I-0.832 J-3.11
X41.746 Y84.692 I2.311 J-2.302
X44.503 Y85.206 I0.834 J3.177
X45.63 Y89.277 I-1.955 J2.733
X42.345 Y91.277 I-3.073 J-1.35
X39.303 Y88.932 I0.206 J-3.414
X43.095 Y84.441 I3.271 J-1.085
X45.474 Y85.941 I-0.525 J3.468
X44.334 Y90.989 I-2.911 J1.996
X40.248 Y90.635 I-1.789 J-3.103
X40.106 Y85.184 I2.319 J-2.788
X43.864 Y84.449 I2.472 J2.668
X46.257 Y87.541 I-1.308 J3.485
X43.513 Y91.528 I-3.69 J0.398
X39.938 Y90.611 I-0.97 J-3.645
X40.998 Y84.368 I2.631 J-2.764
X44.465 Y84.521 I1.584 J3.495
X45.824 Y90.088 I-1.91 J3.416
X41.746 Y91.763 I-3.276 J-2.171
X38.565 Y87.989 I0.807 J-3.908
X42.848 Y83.845 I4.009 J-0.142
X46.013 Y85.724 I-0.273 J4.064
X43.53 Y91.919 I-3.45 J2.212
X39.371 Y90.569 I-0.988 J-4.039
X40.387 Y84.257 I3.198 J-2.723
X44.409 Y84.057 I2.196 J3.605
X45.46 Y91.105 I-1.85 J3.878
X40.539 Y91.743 I-2.918 J-3.204
X38.272 Y86.924 I2.019 J-3.893
X43.088 Y83.476 I4.304 J0.924
X46.456 Y85.7 I-0.513 J4.438
X43.783 Y92.257 I-3.893 J2.236
X39.272 Y91.044 I-1.242 J-4.374
X39.723 Y84.241 I3.295 J-3.198
X44.303 Y83.58 I2.86 J3.618
X47.243 Y87.669 I-1.739 J4.352
X43.791 Y92.461 I-4.681 J0.268
X39.19 Y91.245 I-1.251 J-4.577
X39.856 Y83.894 I3.377 J-3.4
X44.423 Y83.412 I2.727 J3.966
X47.395 Y88.674 I-1.86 J4.521
X43.387 Y92.757 I-4.837 J-0.739
X38.728 Y91.039 I-0.847 J-4.879
X40.527 Y83.287 I3.841 J-3.194
X44.937 Y83.429 I2.059 J4.582
X44.078 Y92.798 I-2.376 J4.506
X39.263 Y91.857 I-1.539 J-4.91
X38.517 Y84.59 I3.301 J-4.011
X43.684 Y82.759 I4.064 J3.263
X47.505 Y86.032 I-1.109 J5.162
X44.232 Y92.964 I-4.944 J1.904
X39.33 Y92.171 I-1.694 J-5.073
X37.948 Y85.044 I3.232 J-4.324
X43.477 Y82.51 I4.632 J2.807
X47.394 Y85.3 I-0.898 J5.405
X44.393 Y93.127 I-4.832 J2.636
X39.419 Y92.488 I-1.855 J-5.234
X37.43 Y85.593 I3.141 J-4.64
X43.09 Y82.252 I5.149 J2.256
X47.267 Y84.697 I-0.508 J5.658
X44.561 Y93.287 I-4.706 J3.239
X39.529 Y92.806 I-2.024 J-5.392
X37.026 Y86.073 I3.029 J-4.958
X42.67 Y82.021 I5.551 J1.776
X47.067 Y84.093 I-0.086 J5.882
X44.736 Y93.444 I-4.506 J3.842
X39.662 Y93.126 I-2.199 J-5.546
X36.634 Y86.779 I2.893 J-5.276
X42.39 Y81.813 I5.942 J1.068
X46.916 Y83.618 I0.196 J6.085
X44.918 Y93.597 I-4.356 J4.317
X39.818 Y93.444 I-2.381 J-5.697
X36.345 Y87.382 I2.736 J-5.593
X41.914 Y81.634 I6.231 J0.465
X46.583 Y83.029 I0.674 J6.257
X45.107 Y93.747 I-4.022 J4.907
X40.165 Y93.83 I-2.57 J-5.842
X36.126 Y88.216 I2.386 J-5.977
X41.229 Y81.529 I6.449 J-0.37
X46.174 Y82.463 I1.36 J6.356
X45.638 Y93.727 I-3.612 J5.473
X40.734 Y94.25 I-3.099 J-5.817
X36.101 Y89.468 I1.813 J-6.392
X40.337 Y81.56 I6.471 J-1.623
X45.52 Y81.845 I2.252 J6.316
X49.251 Y88.988 I-2.953 J6.088
X44.612 Y94.393 I-6.695 J-1.054
X39.014 Y93.737 I-2.076 J-6.501
X35.722 Y87.129 I3.541 J-5.887
X41.275 Y81.08 I6.853 J0.718
X46.363 Y82.071 I1.315 J6.806
X46.567 Y93.663 I-3.8 J5.864
X41.454 Y94.849 I-4.027 J-5.747
X36.273 Y91.129 I1.088 J-6.985
X38.364 Y82.123 I6.296 J-3.284
X44.121 Y80.904 I4.223 J5.739
X48.769 Y84.276 I-1.54 J7.014
X46.112 Y94.208 I-6.209 J3.66
X40.744 Y94.925 I-3.574 J-6.299
X35.788 Y90.6 I1.801 J-7.065
X38.637 Y81.671 I6.782 J-2.755
X44.24 Y80.707 I3.95 J6.193
X48.995 Y84.229 I-1.659 J7.212
X46.338 Y94.329 I-6.434 J3.707
X40.829 Y95.171 I-3.8 J-6.42
X35.746 Y91.049 I1.714 J-7.31
X37.769 Y82.033 I6.824 J-3.204
X43.498 Y80.355 I4.815 J5.822
X48.541 Y83.173 I-0.915 J7.559
X49.931 Y89.965 I-5.972 J4.76
X45.262 Y95.089 I-7.372 J-2.028
X38.364 Y94.36 I-2.727 J-7.194
X34.829 Y87.331 I4.188 J-6.509
X39.069 Y80.92 I7.741 J0.512
X44.83 Y80.41 I3.518 J6.94
X50.418 Y87.621 I-2.255 J7.518
X46.198 Y94.91 I-7.857 J0.317
X41.689 Y95.763 I-3.658 J-6.99
X35.691 Y91.887 I0.852 J-7.897
X35.909 Y83.454 I6.874 J-4.042
X42.515 Y79.86 I6.673 J4.397
X48.246 Y82.188 I0.071 J8.044
X50.432 Y89.778 I-5.676 J5.745
X45.7 Y95.388 I-7.873 J-1.84
X38.374 Y94.885 I-3.166 J-7.491
X34.371 Y87.852 I4.176 J-7.033
X38.359 Y80.809 I8.199 J-0.009
X44.887 Y79.966 I4.228 J7.052
X50.785 Y86.775 I-2.31 J7.96
X46.078 Y95.462 I-8.226 J1.162
X38.535 Y95.231 I-3.544 J-7.565
X34.15 Y87.973 I4.017 J-7.38
X41.28 Y79.519 I8.427 J-0.127
X47.845 Y81.244 I1.31 J8.371
X51.005 Y89.124 I-5.271 J6.687
X46.372 Y95.566 I-8.443 J-1.185
X38.622 Y95.528 I-3.838 J-7.664
X33.964 Y88.641 I3.925 J-7.674
X37.792 Y80.642 I8.606 J-0.797
X44.474 Y79.403 I4.794 J7.216
X50.893 Y85.265 I-1.894 J8.52
X46.209 Y95.891 I-8.335 J2.671
X38.077 Y95.483 I-3.675 J-7.997
X34.16 Y85.043 I4.479 J-7.636
X39.996 Y79.359 I8.414 J2.8
X47.139 Y80.221 I2.595 J8.52
X51.53 Y88.169 I-4.562 J7.708
X46.92 Y95.78 I-8.969 J-0.231
X39.157 Y96.262 I-4.385 J-7.875
X33.635 Y89.51 I3.388 J-8.405
X37.683 Y80.181 I8.936 J-1.666
X44.793 Y79.019 I4.905 J7.682
X51.311 Y85.104 I-2.214 J8.905
X51.28 Y90.86 I-8.733 J2.83
G1 X51.245 Y90.955
X51.137 Y91.24
X51.099 Y91.336
X51.054 Y91.443
X50.89 Y91.812
X50.844 Y91.907
X50.674 Y92.233
X50.593 Y92.383
X50.388 Y92.724
X50.293 Y92.875
X50.102 Y93.154
X50.042 Y93.24
X49.912 Y93.414
X49.677 Y93.716
X49.341 Y94.1
X49.245 Y94.199
X48.96 Y94.487
X48.865 Y94.577
X48.551 Y94.858
X48.484 Y94.914
X48.316 Y95.049
X48.074 Y95.239
X47.667 Y95.525
X47.627 Y95.551
X47.517 Y95.62
X47.246 Y95.786
X47.151 Y95.842
X47.036 Y95.906
X46.77 Y96.048
X46.674 Y96.096
X46.58 Y96.143
X46.266 Y96.287
X46.199 Y96.316
X46.104 Y96.356
X46.008 Y96.394
X45.723 Y96.505
X45.628 Y96.54
X45.152 Y96.693
X45.056 Y96.719
X44.58 Y96.84
X44.104 Y96.932
G3 X43.438 Y97.019 I-2.01 J-12.798
G1 X43.152 Y97.04
X42.962 Y97.052
X42.867 Y97.055
X42.486 Y97.059
X42.391 Y97.058
X42.163 Y97.048
X41.915 Y97.036
X41.819 Y97.03
X41.439 Y96.988
X41.248 Y96.964
X40.772 Y96.883
X40.659 Y96.858
X40.254 Y96.763
X40.106 Y96.722
X39.82 Y96.637
X39.725 Y96.607
G3 X39.107 Y96.382 I3.763 J-11.294
G1 X38.773 Y96.237
X38.67 Y96.191
X38.583 Y96.149
X38.291 Y96.001
X38.107 Y95.903
X37.786 Y95.715
X37.631 Y95.619
X37.44 Y95.493
X37.25 Y95.364
X37.059 Y95.223
X36.83 Y95.049
X36.774 Y95.005
X36.488 Y94.759
X36.385 Y94.668
G3 X35.917 Y94.213 I7.343 J-8.027
G1 X35.631 Y93.901
G3 X35.248 Y93.43 I12.571 J-10.631
G1 X35.155 Y93.303
X34.965 Y93.037
X34.87 Y92.893
X34.669 Y92.573
X34.612 Y92.478
X34.394 Y92.079
G3 X34.13 Y91.526 I13.23 J-6.644
G1 X34.09 Y91.431
X33.939 Y91.05
X33.872 Y90.859
X33.778 Y90.574
X33.721 Y90.383
X33.62 Y90.003
X33.598 Y89.907
X33.52 Y89.527
X33.501 Y89.431
X33.486 Y89.336
X33.432 Y88.955
X33.421 Y88.86
X33.404 Y88.67
X33.381 Y88.384
X33.376 Y88.289
G3 X33.366 Y87.717 I14.362 J-0.555
G1 X33.385 Y87.241
X33.401 Y87.051
X33.43 Y86.765
X33.454 Y86.575
X33.516 Y86.194
X33.537 Y86.077
X33.638 Y85.623
X33.663 Y85.528
X33.772 Y85.147
X33.801 Y85.051
X33.866 Y84.861
X33.967 Y84.575
X34.013 Y84.46
X34.043 Y84.385
X34.164 Y84.099
X34.252 Y83.909
X34.441 Y83.528
X34.494 Y83.433
X34.679 Y83.11
X34.774 Y82.956
X34.965 Y82.664
X35.024 Y82.576
X35.164 Y82.385
X35.307 Y82.195
X35.38 Y82.1
X35.631 Y81.801
X35.726 Y81.694
X35.79 Y81.624
X36.012 Y81.391
X36.107 Y81.292
X36.488 Y80.937
X36.807 Y80.672
X36.924 Y80.576
X36.964 Y80.546
X37.345 Y80.269
X37.454 Y80.196
X37.751 Y80.005
X37.821 Y79.962
X37.916 Y79.906
X38.249 Y79.72
X38.297 Y79.694
X38.435 Y79.624
X38.773 Y79.461
X38.832 Y79.434
X39.249 Y79.262
X39.344 Y79.226
X39.439 Y79.191
X39.725 Y79.094
X39.851 Y79.053
X39.915 Y79.033
X40.201 Y78.953
X40.391 Y78.903
X40.487 Y78.881
X40.867 Y78.8
X40.963 Y78.782
X41.343 Y78.724
X41.439 Y78.71
X41.629 Y78.69
X41.915 Y78.665
X42.105 Y78.652
X42.581 Y78.638
X42.867 Y78.644
X42.962 Y78.648
X43.343 Y78.674
X43.438 Y78.681
G3 X44.102 Y78.767 I-1.157 J11.488
G1 X44.58 Y78.86
X45.056 Y78.981
X45.247 Y79.038
X45.532 Y79.129
X45.59 Y79.148
X45.723 Y79.196
X46.008 Y79.306
X46.104 Y79.344
X46.199 Y79.384
X46.311 Y79.434
X46.58 Y79.557
X46.675 Y79.602
X46.896 Y79.72
X47.074 Y79.815
X47.246 Y79.914
X47.551 Y80.1
X47.722 Y80.214
X48.008 Y80.414
X48.103 Y80.483
X48.462 Y80.767
X48.579 Y80.867
X48.893 Y81.148
X48.99 Y81.243
X49.245 Y81.501
X49.341 Y81.6
X49.626 Y81.926
X49.721 Y82.041
X50.007 Y82.409
X50.058 Y82.481
X50.253 Y82.766
X50.316 Y82.862
X50.377 Y82.957
X50.548 Y83.242
X50.656 Y83.433
X50.805 Y83.718
X50.864 Y83.836
X50.899 Y83.909
X51.054 Y84.257
X51.107 Y84.385
X51.15 Y84.493
X51.252 Y84.766
X51.286 Y84.861
X51.318 Y84.956
X51.406 Y85.242
X51.462 Y85.432
X51.579 Y85.908
X51.632 Y86.194
X51.667 Y86.384
X51.695 Y86.575
X51.73 Y86.861
X51.75 Y87.051
X51.757 Y87.146
X51.78 Y87.527
X51.783 Y87.622
Y88.003
X51.781 Y88.098
G3 X51.739 Y88.765 I-11.772 J-0.41
G1 X51.693 Y89.146
X51.681 Y89.241
X51.594 Y89.717
X51.551 Y89.907
X51.481 Y90.193
X51.435 Y90.361
X51.4 Y90.479
X51.382 Y90.537
X51.363 Y90.57 Z-4.756
X51.345 Y90.599 Z-4.738
X51.331 Y90.623 Z-4.711
X51.322 Y90.638 Z-4.676
X51.319 Y90.643 Z-4.638
G0 Z5
X41.218 Y109.416
Z1.005
G3 X43.932 Y110.734 Z0.839 I1.357 J0.659 F300
X41.218 Y109.416 Z0.674 I-1.357 J-0.659
X43.932 Y110.734 Z0.508 I1.357 J0.659
X41.218 Y109.416 Z0.343 I-1.357 J-0.659
X43.932 Y110.734 Z0.177 I1.357 J0.659
X41.218 Y109.416 Z0.012 I-1.357 J-0.659
X43.932 Y110.734 Z-0.154 I1.357 J0.659
X41.218 Y109.416 Z-0.319 I-1.357 J-0.659
X43.932 Y110.734 Z-0.485 I1.357 J0.659
X41.218 Y109.416 Z-0.65 I-1.357 J-0.659
X43.932 Y110.734 Z-0.815 I1.357 J0.659
X41.218 Y109.416 Z-0.981 I-1.357 J-0.659
X43.932 Y110.734 Z-1.146 I1.357 J0.659
X41.218 Y109.416 Z-1.312 I-1.357 J-0.659
X43.932 Y110.734 Z-1.477 I1.357 J0.659
X41.218 Y109.416 Z-1.643 I-1.357 J-0.659
X43.932 Y110.734 Z-1.808 I1.357 J0.659
X41.218 Y109.416 Z-1.974 I-1.357 J-0.659
X43.932 Y110.734 Z-2.139 I1.357 J0.659
X41.218 Y109.416 Z-2.305 I-1.357 J-0.659
X43.932 Y110.734 Z-2.47 I1.357 J0.659
X41.218 Y109.416 Z-2.635 I-1.357 J-0.659
X43.932 Y110.734 Z-2.801 I1.357 J0.659
X41.218 Y109.416 Z-2.966 I-1.357 J-0.659
X43.932 Y110.734 Z-3.132 I1.357 J0.659
X41.218 Y109.416 Z-3.297 I-1.357 J-0.659
X43.932 Y110.734 Z-3.463 I1.357 J0.659
X41.218 Y109.416 Z-3.628 I-1.357 J-0.659
X43.932 Y110.734 Z-3.794 I1.357 J0.659
X41.218 Y109.416 Z-3.959 I-1.357 J-0.659
X43.932 Y110.734 Z-4.124 I1.357 J0.659
X41.218 Y109.416 Z-4.29 I-1.357 J-0.659
X43.932 Y110.734 Z-4.455 I1.357 J0.659
X41.218 Y109.416 Z-4.621 I-1.357 J-0.659
X44.083 Y110.075 Z-4.762 I1.357 J0.659
X41.067 Y110.075 I-1.508 J0
X44.083 Y110.075 I1.508 J0
G1 X44.084 Y110.287 F620
G3 X44.08 Y110.579 I-0.736 J0.137
X43.819 Y111.127 I-1.241 J-0.256
X42.883 Y111.688 I-1.221 J-0.976
X41.21 Y109.16 I-0.311 J-1.612
X44.169 Y109.671 I1.366 J0.914
G1 X44.195 Y109.776
X44.204 Y109.819
X44.223 Y109.927
X44.234 Y110.035
X44.236 Y110.145
X44.235 Y110.188
X44.223 Y110.283
G3 X44.129 Y110.664 I-1.435 J-0.155
G1 X44.09 Y110.759
X44.043 Y110.854
X43.991 Y110.95
X43.925 Y111.045
X43.819 Y111.179
G3 X43.544 Y111.426 I-1.195 J-1.056
G1 X43.397 Y111.521
X43.343 Y111.55
X43.248 Y111.597
G3 X42.962 Y111.694 I-0.686 J-1.555
G1 X42.867 Y111.712
X42.772 Y111.727
X42.676 Y111.733
X42.581 Y111.739
X42.391 Y111.728
X42.2 Y111.696
X42.105 Y111.668
X42.01 Y111.64
G3 X41.752 Y111.521 I0.641 J-1.738
G1 X41.724 Y111.504
X41.604 Y111.426
X41.534 Y111.372
X41.439 Y111.288
X41.383 Y111.235
X41.343 Y111.194
X41.3 Y111.14
X41.225 Y111.045
X41.161 Y110.95
X41.107 Y110.854
X41.058 Y110.759
X41.018 Y110.664
X40.987 Y110.569
X40.962 Y110.473
X40.94 Y110.378
X40.927 Y110.283
X40.915 Y110.188
X40.913 Y109.997
X40.933 Y109.807
X40.975 Y109.617
X41.006 Y109.521
X41.042 Y109.426
X41.058 Y109.391
X41.153 Y109.212
X41.198 Y109.141
X41.269 Y109.045
X41.351 Y108.95
X41.445 Y108.855
X41.534 Y108.778
X41.557 Y108.76
X41.629 Y108.707
X41.724 Y108.648
X41.819 Y108.594
X41.915 Y108.551
X42.01 Y108.511
X42.13 Y108.474
X42.2 Y108.454
X42.391 Y108.42
X42.486 Y108.414
X42.581 Y108.409
X42.676 Y108.414
X42.772 Y108.421
X42.867 Y108.437
X42.962 Y108.456
X43.026 Y108.474
X43.152 Y108.516
X43.248 Y108.556
X43.343 Y108.6
X43.438 Y108.656
X43.533 Y108.717
X43.594 Y108.76
G3 X43.819 Y108.97 I-1.472 J1.794
G1 X43.881 Y109.045
X43.95 Y109.141
X44.01 Y109.236
X44.06 Y109.331
X44.104 Y109.421
X44.142 Y109.521
X44.175 Y109.617
X44.2 Y109.717
X44.219 Y109.807
X44.238 Y109.997
X44.236 Y110.145
X44.226 Y110.182 Z-4.756
X44.218 Y110.215 Z-4.738
X44.211 Y110.242 Z-4.711
X44.207 Y110.259 Z-4.676
X44.205 Y110.265 Z-4.638
G0 Z5
X84.081 Y109.417
Z1.005
G3 X86.794 Y110.734 Z0.839 I1.357 J0.659 F300
X84.081 Y109.417 Z0.674 I-1.357 J-0.659
X86.794 Y110.734 Z0.508 I1.357 J0.659
X84.081 Y109.417 Z0.343 I-1.357 J-0.659
X86.794 Y110.734 Z0.177 I1.357 J0.659
X84.081 Y109.417 Z0.012 I-1.357 J-0.659
X86.794 Y110.734 Z-0.154 I1.357 J0.659
X84.081 Y109.417 Z-0.319 I-1.357 J-0.659
X86.794 Y110.734 Z-0.485 I1.357 J0.659
X84.081 Y109.417 Z-0.65 I-1.357 J-0.659
X86.794 Y110.734 Z-0.815 I1.357 J0.659
X84.081 Y109.417 Z-0.981 I-1.357 J-0.659
X86.794 Y110.734 Z-1.146 I1.357 J0.659
X84.081 Y109.417 Z-1.312 I-1.357 J-0.659
X86.794 Y110.734 Z-1.477 I1.357 J0.659
X84.081 Y109.417 Z-1.643 I-1.357 J-0.659
X86.794 Y110.734 Z-1.808 I1.357 J0.659
X84.081 Y109.417 Z-1.974 I-1.357 J-0.659
X86.794 Y110.734 Z-2.139 I1.357 J0.659
X84.081 Y109.417 Z-2.305 I-1.357 J-0.659
X86.794 Y110.734 Z-2.47 I1.357 J0.659
X84.081 Y109.417 Z-2.635 I-1.357 J-0.659
X86.794 Y110.734 Z-2.801 I1.357 J0.659
X84.081 Y109.417 Z-2.966 I-1.357 J-0.659
X86.794 Y110.734 Z-3.132 I1.357 J0.659
X84.081 Y109.417 Z-3.297 I-1.357 J-0.659
X86.794 Y110.734 Z-3.463 I1.357 J0.659
X84.081 Y109.417 Z-3.628 I-1.357 J-0.659
X86.794 Y110.734 Z-3.794 I1.357 J0.659
X84.081 Y109.417 Z-3.959 I-1.357 J-0.659
X86.794 Y110.734 Z-4.125 I1.357 J0.659
X84.081 Y109.417 Z-4.29 I-1.357 J-0.659
X86.794 Y110.734 Z-4.455 I1.357 J0.659
X84.081 Y109.417 Z-4.621 I-1.357 J-0.659
X86.946 Y110.075 Z-4.762 I1.357 J0.659
X83.93 Y110.075 I-1.508 J0
X86.946 Y110.075 I1.508 J0
G1 X86.947 Y110.287 F620
G3 X86.943 Y110.579 I-0.736 J0.137
X86.682 Y111.127 I-1.24 J-0.256
X85.745 Y111.688 I-1.221 J-0.976
X84.072 Y109.16 I-0.311 J-1.612
X87.031 Y109.672 I1.366 J0.914
G1 X87.058 Y109.776
X87.066 Y109.816
X87.085 Y109.922
X87.095 Y110.03
X87.098 Y110.138
X87.097 Y110.188
X87.086 Y110.283
X87.073 Y110.378
X87.05 Y110.473
X87.026 Y110.569
X86.992 Y110.664
X86.946 Y110.779
G3 X86.756 Y111.091 I-2.075 J-1.049
G1 X86.715 Y111.14
X86.661 Y111.202
X86.566 Y111.297
X86.47 Y111.379
X86.375 Y111.451
X86.256 Y111.521
X86.185 Y111.561
X86.09 Y111.604
X85.994 Y111.642
X85.899 Y111.671
X85.804 Y111.697
G3 X85.423 Y111.738 I-0.376 J-1.705
X85.042 Y111.69 I0.002 J-1.541
G1 X84.947 Y111.664
X84.813 Y111.616
G3 X84.566 Y111.492 I0.62 J-1.532
G1 X84.469 Y111.426
X84.376 Y111.357
X84.281 Y111.27
X84.185 Y111.17
X84.088 Y111.045
X84.022 Y110.95
G3 X83.884 Y110.664 I1.369 J-0.837
G1 X83.85 Y110.569
X83.805 Y110.393
X83.801 Y110.378
X83.787 Y110.283
X83.778 Y110.188
X83.775 Y109.997
X83.794 Y109.807
X83.814 Y109.712
X83.837 Y109.617
X83.871 Y109.521
X83.906 Y109.426
X83.951 Y109.331
X83.995 Y109.246
X84.001 Y109.236
X84.064 Y109.141
X84.132 Y109.045
X84.185 Y108.979
X84.213 Y108.95
X84.31 Y108.855
X84.376 Y108.794
G3 X84.757 Y108.558 I1.058 J1.282
G1 X84.852 Y108.52
X84.947 Y108.486
X84.984 Y108.474
X85.138 Y108.439
G3 X85.709 Y108.435 I0.298 J1.585
G1 X85.804 Y108.452
X85.899 Y108.477
X85.994 Y108.507
X86.143 Y108.569
X86.185 Y108.589
X86.28 Y108.642
X86.375 Y108.701
X86.47 Y108.773
X86.571 Y108.855
X86.661 Y108.95
X86.744 Y109.045
X86.756 Y109.06
X86.812 Y109.141
X86.851 Y109.198
X86.873 Y109.236
X86.946 Y109.375
X86.97 Y109.426
X87.006 Y109.521
X87.038 Y109.617
X87.08 Y109.807
X87.099 Y109.997
X87.098 Y110.138
X87.088 Y110.175 Z-4.756
X87.08 Y110.209 Z-4.738
X87.073 Y110.235 Z-4.711
X87.069 Y110.253 Z-4.676
X87.068 Y110.258 Z-4.638
G0 Z5
X84.081 Y87.191
Z1.005
G3 X86.794 Y88.508 Z0.839 I1.357 J0.659 F300
X84.081 Y87.191 Z0.674 I-1.357 J-0.659
X86.794 Y88.508 Z0.508 I1.357 J0.659
X84.081 Y87.191 Z0.343 I-1.357 J-0.659
X86.794 Y88.508 Z0.177 I1.357 J0.659
X84.081 Y87.191 Z0.012 I-1.357 J-0.659
X86.794 Y88.508 Z-0.154 I1.357 J0.659
X84.081 Y87.191 Z-0.319 I-1.357 J-0.659
X86.794 Y88.508 Z-0.485 I1.357 J0.659
X84.081 Y87.191 Z-0.65 I-1.357 J-0.659
X86.794 Y88.508 Z-0.815 I1.357 J0.659
X84.081 Y87.191 Z-0.981 I-1.357 J-0.659
X86.794 Y88.508 Z-1.146 I1.357 J0.659
X84.081 Y87.191 Z-1.312 I-1.357 J-0.659
X86.794 Y88.508 Z-1.477 I1.357 J0.659
X84.081 Y87.191 Z-1.643 I-1.357 J-0.659
X86.794 Y88.508 Z-1.808 I1.357 J0.659
X84.081 Y87.191 Z-1.974 I-1.357 J-0.659
X86.794 Y88.508 Z-2.139 I1.357 J0.659
X84.081 Y87.191 Z-2.305 I-1.357 J-0.659
X86.794 Y88.508 Z-2.47 I1.357 J0.659
X84.081 Y87.191 Z-2.635 I-1.357 J-0.659
X86.794 Y88.508 Z-2.801 I1.357 J0.659
X84.081 Y87.191 Z-2.966 I-1.357 J-0.659
X86.794 Y88.508 Z-3.132 I1.357 J0.659
X84.081 Y87.191 Z-3.297 I-1.357 J-0.659
X86.794 Y88.508 Z-3.463 I1.357 J0.659
X84.081 Y87.191 Z-3.628 I-1.357 J-0.659
X86.794 Y88.508 Z-3.794 I1.357 J0.659
X84.081 Y87.191 Z-3.959 I-1.357 J-0.659
X86.794 Y88.508 Z-4.124 I1.357 J0.659
X84.081 Y87.191 Z-4.29 I-1.357 J-0.659
X86.794 Y88.508 Z-4.455 I1.357 J0.659
X84.081 Y87.191 Z-4.621 I-1.357 J-0.659
X86.946 Y87.85 Z-4.762 I1.357 J0.659
X83.929 Y87.85 I-1.508 J0
X86.946 Y87.85 I1.508 J0
G1 X86.947 Y88.061 F620
G3 X86.943 Y88.354 I-0.736 J0.137
X86.682 Y88.901 I-1.241 J-0.256
X85.7 Y89.471 I-1.223 J-0.978
X83.999 Y87.054 I-0.265 J-1.62
X87.031 Y87.446 I1.438 J0.795
X87.117 Y87.978 I-2.284 J0.641
X86.609 Y89.176 I-1.557 J0.046
X85.252 Y89.624 I-1.171 J-1.266
X84.157 Y86.606 I0.183 J-1.774
X87.059 Y87.101 I1.282 J1.243
X87.267 Y88.058 I-1.857 J0.903
X86.396 Y89.512 I-1.77 J-0.072
X84.691 Y89.631 I-0.969 J-1.621
X86.089 Y86.03 I0.745 J-1.782
X87.071 Y86.815 I-0.648 J1.818
X87.414 Y88.122 I-1.776 J1.165
X86.249 Y89.756 I-1.943 J-0.154
X84.204 Y89.529 I-0.827 J-1.874
X83.777 Y86.588 I1.232 J-1.681
X86.725 Y86.211 I1.659 J1.261
X87.504 Y87.41 I-1.382 J1.749
X86.942 Y89.47 I-2.05 J0.548
X84.765 Y89.984 I-1.519 J-1.566
X83.522 Y86.687 I0.666 J-2.134
X86.895 Y86.146 I1.916 J1.161
X87.717 Y88.242 I-1.538 J1.812
X86.014 Y90.168 I-2.27 J-0.291
X83.724 Y89.531 I-0.596 J-2.292
X86.625 Y85.762 I1.713 J-1.683
X87.722 Y87.031 I-1.235 J2.177
X87.364 Y89.479 I-2.291 J0.916
X84.895 Y90.353 I-1.943 J-1.565
X82.887 Y87.563 I0.53 J-2.5
X86.668 Y85.596 I2.551 J0.285
X88.028 Y87.506 I-1.279 J2.35
X86.187 Y90.463 I-2.586 J0.441
X83.447 Y89.725 I-0.774 J-2.584
X84.889 Y85.169 I1.988 J-1.877
X87.172 Y85.728 I0.55 J2.693
X88.137 Y88.688 I-1.776 J2.216
X85.653 Y90.737 I-2.707 J-0.752
X82.955 Y89.364 I-0.239 J-2.868
X86.274 Y85.063 I2.482 J-1.516
X87.976 Y86.385 I-0.852 J2.853
X87.861 Y89.668 I-2.554 J1.554
X84.779 Y90.855 I-2.445 J-1.751
X82.357 Y88.023 I0.641 J-3
X86.356 Y84.903 I3.08 J-0.176
X88.311 Y86.643 I-0.937 J3.021
X85.976 Y91.051 I-2.881 J1.297
X82.996 Y90.014 I-0.566 J-3.173
X85.526 Y84.585 I2.439 J-2.167
X87.929 Y85.716 I-0.089 J3.308
X88.273 Y89.695 I-2.512 J2.222
X84.825 Y91.232 I-2.858 J-1.776
X82.029 Y88.364 I0.592 J-3.374
X86.055 Y84.457 I3.408 J-0.516
X88.496 Y86.197 I-0.625 J3.459
X86.068 Y91.406 I-3.069 J1.74
X82.484 Y89.961 I-0.66 J-3.532
X84.486 Y84.343 I2.95 J-2.115
X87.644 Y84.951 I0.958 J3.532
X88.605 Y89.863 I-2.227 J2.986
X84.685 Y91.584 I-3.192 J-1.945
X81.704 Y88.663 I0.73 J-3.725
X85.767 Y84.041 I3.732 J-0.816
X88.692 Y85.795 I-0.331 J3.868
X86.168 Y91.771 I-3.266 J2.142
X82.407 Y90.474 I-0.762 J-3.892
X84.354 Y83.986 I3.026 J-2.628
X87.847 Y84.626 I1.092 J3.89
X88.543 Y90.597 I-2.427 J3.309
X84.073 Y91.818 I-3.136 J-2.688
X81.26 Y87.359 I1.345 J-3.965
X85.886 Y83.666 I4.177 J0.488
X89.063 Y85.656 I-0.448 J4.245
X86.516 Y92.089 I-3.638 J2.28
X82.137 Y90.756 I-1.112 J-4.208
X82.772 Y84.346 I3.293 J-2.91
X87.167 Y83.795 I2.673 J3.513
X89.914 Y87.89 I-1.742 J4.138
X86.522 Y92.29 I-4.489 J0.047
X82.045 Y90.95 I-1.118 J-4.409
X82.902 Y84.012 I3.385 J-3.104
X87.408 Y83.685 I2.544 J3.851
X90.113 Y87.935 I-1.983 J4.248
X86.524 Y92.495 I-4.689 J0.001
X81.958 Y91.148 I-1.122 J-4.613
X83.065 Y83.678 I3.472 J-3.303
X87.537 Y83.524 I2.382 J4.187
X87.059 Y92.545 I-2.114 J4.411
X82.079 Y91.548 I-1.657 J-4.659
X81.984 Y84.232 I3.349 J-3.702
X86.87 Y83.052 I3.461 J3.623
X90.459 Y87.172 I-1.438 J4.876
X86.94 Y92.798 I-5.035 J0.765
X82.125 Y91.857 I-1.539 J-4.91
X81.379 Y84.59 I3.301 J-4.011
X86.546 Y82.759 I4.064 J3.263
X90.368 Y86.032 I-1.109 J5.162
X87.094 Y92.964 I-4.944 J1.904
X82.193 Y92.171 I-1.694 J-5.073
X80.811 Y85.044 I3.232 J-4.324
X86.339 Y82.51 I4.632 J2.807
X90.256 Y85.3 I-0.898 J5.405
X87.255 Y93.127 I-4.832 J2.636
X82.281 Y92.487 I-1.855 J-5.234
X80.293 Y85.593 I3.141 J-4.64
X85.953 Y82.252 I5.149 J2.256
X90.129 Y84.697 I-0.508 J5.658
X87.423 Y93.287 I-4.706 J3.239
X82.392 Y92.806 I-2.024 J-5.392
X79.889 Y86.073 I3.029 J-4.958
X85.532 Y82.021 I5.551 J1.776
X89.93 Y84.093 I-0.086 J5.882
X87.599 Y93.444 I-4.506 J3.842
X82.525 Y93.126 I-2.199 J-5.546
X79.497 Y86.779 I2.893 J-5.276
X85.252 Y81.813 I5.942 J1.068
X89.779 Y83.618 I0.196 J6.085
X87.781 Y93.597 I-4.356 J4.317
X82.681 Y93.444 I-2.381 J-5.697
X79.208 Y87.382 I2.736 J-5.593
X84.776 Y81.634 I6.231 J0.465
X89.445 Y83.029 I0.674 J6.257
X87.97 Y93.747 I-4.022 J4.907
X83.027 Y93.83 I-2.57 J-5.842
X78.988 Y88.216 I2.386 J-5.977
X84.092 Y81.529 I6.449 J-0.37
X89.036 Y82.463 I1.36 J6.356
X88.5 Y93.727 I-3.612 J5.473
X83.596 Y94.249 I-3.099 J-5.817
X78.963 Y89.468 I1.813 J-6.392
X83.199 Y81.559 I6.471 J-1.623
X88.383 Y81.844 I2.252 J6.316
X92.141 Y88.798 I-2.953 J6.088
X87.657 Y94.331 I-6.722 J-0.864
X82.044 Y93.835 I-2.259 J-6.438
X78.555 Y87.518 I3.372 J-5.984
X83.946 Y81.12 I6.882 J0.329
X89.058 Y81.966 I1.506 J6.764
X89.591 Y93.546 I-3.633 J5.969
X84.515 Y94.877 I-4.188 J-5.629
X79.231 Y91.306 I0.89 J-7.011
X80.908 Y82.371 I6.2 J-3.461
X86.784 Y80.863 I4.54 J5.489
X91.526 Y84.101 I-1.34 J7.053
X88.974 Y94.208 I-6.103 J3.835
X83.606 Y94.925 I-3.574 J-6.299
X78.65 Y90.6 I1.801 J-7.065
X81.5 Y81.67 I6.782 J-2.755
X87.102 Y80.706 I3.95 J6.193
X91.857 Y84.229 I-1.659 J7.212
X89.2 Y94.329 I-6.434 J3.707
X83.898 Y95.217 I-3.8 J-6.419
X78.701 Y91.239 I1.507 J-7.354
X80.47 Y82.17 I6.731 J-3.395
X86.36 Y80.355 I4.976 J5.685
X91.403 Y83.173 I-0.915 J7.558
X92.793 Y89.964 I-5.972 J4.76
X88.124 Y95.089 I-7.372 J-2.028
X81.227 Y94.36 I-2.727 J-7.194
X77.692 Y87.331 I4.188 J-6.509
X81.932 Y80.92 I7.741 J0.512
X87.693 Y80.41 I3.518 J6.939
X93.281 Y87.621 I-2.255 J7.518
X89.06 Y94.909 I-7.857 J0.317
X84.552 Y95.763 I-3.658 J-6.991
X78.554 Y91.887 I0.852 J-7.897
X78.771 Y83.454 I6.874 J-4.042
X85.377 Y79.86 I6.673 J4.397
X91.108 Y82.188 I0.071 J8.044
X93.295 Y89.778 I-5.676 J5.745
X88.563 Y95.388 I-7.873 J-1.84
X81.237 Y94.885 I-3.166 J-7.491
X77.234 Y87.852 I4.176 J-7.033
X81.221 Y80.809 I8.199 J-0.009
X87.749 Y79.966 I4.228 J7.052
X93.647 Y86.775 I-2.31 J7.96
X88.941 Y95.462 I-8.226 J1.162
X81.398 Y95.231 I-3.544 J-7.565
X77.013 Y87.973 I4.017 J-7.38
X84.142 Y79.519 I8.427 J-0.127
X90.54 Y81.115 I1.311 J8.369
X93.867 Y89.124 I-5.104 J6.816
X89.235 Y95.566 I-8.443 J-1.185
X81.485 Y95.528 I-3.838 J-7.664
X76.827 Y88.641 I3.925 J-7.674
X80.655 Y80.642 I8.606 J-0.797
X87.337 Y79.403 I4.794 J7.216
X93.756 Y85.265 I-1.894 J8.52
X89.072 Y95.891 I-8.335 J2.671
X80.939 Y95.483 I-3.675 J-7.997
X77.022 Y85.043 I4.479 J-7.636
X82.858 Y79.358 I8.414 J2.8
X90.001 Y80.221 I2.595 J8.52
X94.393 Y88.169 I-4.562 J7.708
X89.782 Y95.78 I-8.969 J-0.231
X82.02 Y96.262 I-4.385 J-7.875
X76.498 Y89.51 I3.388 J-8.405
X80.546 Y80.18 I8.936 J-1.666
X87.656 Y79.019 I4.905 J7.682
X94.174 Y85.104 I-2.214 J8.905
X94.21 Y90.65 I-8.738 J2.83
G1 X94.14 Y90.859
X94.074 Y91.05
X93.96 Y91.336
X93.882 Y91.526
X93.839 Y91.621
X93.704 Y91.907
X93.658 Y92.002
X93.609 Y92.097
X93.453 Y92.383
X93.399 Y92.478
X93.344 Y92.573
X93.165 Y92.859
X93.102 Y92.954
X93.039 Y93.049
X92.835 Y93.335
G3 X92.373 Y93.909 I-8.276 J-6.181
G1 X92.087 Y94.222
X92.025 Y94.287
X91.707 Y94.597
G3 X91.231 Y95.01 I-8.577 J-9.393
G1 X91.182 Y95.049
X90.85 Y95.301
X90.755 Y95.37
X90.374 Y95.626
X90.227 Y95.715
X89.898 Y95.908
X89.803 Y95.959
X89.422 Y96.153
X89.326 Y96.199
X88.906 Y96.382
X88.85 Y96.405
X88.565 Y96.51
X88.374 Y96.579
X88.184 Y96.639
X87.898 Y96.724
X87.708 Y96.775
X87.327 Y96.864
X87.232 Y96.884
X86.829 Y96.953
X86.756 Y96.966
X86.661 Y96.978
X86.185 Y97.031
X85.804 Y97.051
X85.709 Y97.055
X85.614 Y97.058
X85.518 Y97.059
X85.138 Y97.055
X85.042 Y97.052
X84.566 Y97.019
X84.376 Y96.997
X84.044 Y96.953
X83.9 Y96.93
X83.519 Y96.857
X83.424 Y96.837
X83.329 Y96.814
X82.948 Y96.717
X82.853 Y96.69
X82.377 Y96.538
X82.186 Y96.465
X81.901 Y96.354
X81.71 Y96.27
X81.425 Y96.139
X81.234 Y96.043
X80.949 Y95.891
X80.853 Y95.837
X80.758 Y95.781
X80.472 Y95.606
X80.377 Y95.546
X80.074 Y95.335
X79.901 Y95.211
X79.577 Y94.954
X79.52 Y94.908
X79.462 Y94.858
X79.14 Y94.57
X79.042 Y94.478
X78.759 Y94.191
X78.664 Y94.088
X78.568 Y93.982
X78.335 Y93.716
X78.092 Y93.403
X77.97 Y93.24
X77.902 Y93.142
X77.773 Y92.954
X77.71 Y92.859
X77.616 Y92.711
X77.42 Y92.383
X77.318 Y92.192
X77.169 Y91.907
G3 X76.912 Y91.336 I16.3 J-7.686
G1 X76.76 Y90.932
G3 X76.557 Y90.288 I10.058 J-3.517
X76.419 Y89.717 I12.295 J-3.28
G1 X76.332 Y89.241
X76.283 Y88.847
X76.274 Y88.765
X76.265 Y88.67
X76.257 Y88.574
X76.24 Y88.289
X76.231 Y88.098
X76.23 Y88.003
Y87.622
X76.233 Y87.527
X76.256 Y87.146
X76.262 Y87.051
X76.283 Y86.861
X76.317 Y86.575
X76.345 Y86.384
X76.415 Y86.004
X76.433 Y85.908
X76.55 Y85.432
X76.577 Y85.337
X76.695 Y84.956
X76.727 Y84.861
X76.76 Y84.766
X76.904 Y84.385
X76.95 Y84.275
X77.114 Y83.909
X77.16 Y83.814
X77.208 Y83.718
X77.357 Y83.433
X77.426 Y83.306
X77.636 Y82.957
X77.712 Y82.839
X77.759 Y82.766
X77.997 Y82.42
X78.245 Y82.1
X78.378 Y81.935
X78.664 Y81.61
X78.759 Y81.509
X79.044 Y81.22
G3 X79.551 Y80.767 I8.75 J9.265
G1 X79.912 Y80.481
X79.996 Y80.419
X80.318 Y80.196
X80.377 Y80.155
X80.472 Y80.094
X80.774 Y79.91
X80.853 Y79.863
X80.949 Y79.809
X81.329 Y79.606
X81.425 Y79.561
X81.71 Y79.43
X81.901 Y79.346
X82.186 Y79.235
X82.377 Y79.163
X82.42 Y79.148
X82.853 Y79.01
X82.948 Y78.983
X83.329 Y78.886
X83.425 Y78.863
X83.614 Y78.824
X83.915 Y78.767
X84.09 Y78.74
X84.376 Y78.703
X84.566 Y78.681
X85.042 Y78.648
G3 X85.614 Y78.643 I0.34 J7.454
G1 X85.899 Y78.653
X85.994 Y78.658
X86.09 Y78.664
X86.47 Y78.699
X86.566 Y78.708
X87.042 Y78.78
X87.232 Y78.818
X87.518 Y78.879
X87.708 Y78.925
X87.994 Y79.004
X88.184 Y79.059
X88.279 Y79.091
X88.565 Y79.189
X88.718 Y79.243
X89.181 Y79.434
X89.231 Y79.457
X89.612 Y79.642
X89.707 Y79.688
X90.103 Y79.91
X90.183 Y79.956
X90.41 Y80.1
X90.564 Y80.2
X90.659 Y80.263
X90.755 Y80.332
X91.04 Y80.54
X91.135 Y80.614
X91.516 Y80.929
X91.853 Y81.243
X91.897 Y81.285
X91.951 Y81.338
X92.278 Y81.682
X92.392 Y81.814
X92.632 Y82.1
X92.706 Y82.195
X92.919 Y82.481
X92.988 Y82.576
X93.052 Y82.671
X93.23 Y82.943
X93.325 Y83.095
X93.518 Y83.433
X93.611 Y83.606
X93.761 Y83.909
X93.848 Y84.099
X94.009 Y84.48
X94.046 Y84.575
X94.182 Y84.96
X94.212 Y85.051
X94.241 Y85.147
X94.35 Y85.528
X94.374 Y85.623
X94.468 Y86.04
X94.48 Y86.099
X94.512 Y86.289
X94.558 Y86.575
X94.582 Y86.765
X94.611 Y87.051
X94.628 Y87.241
X94.647 Y87.717
G3 X94.636 Y88.289 I-15.755 J-0.008
G1 X94.631 Y88.384
X94.609 Y88.67
X94.592 Y88.86
X94.58 Y88.955
X94.527 Y89.336
X94.511 Y89.431
X94.435 Y89.812
X94.415 Y89.907
X94.367 Y90.098
X94.291 Y90.383
X94.235 Y90.574
X94.209 Y90.65
X94.189 Y90.683 Z-4.756
X94.171 Y90.712 Z-4.738
X94.157 Y90.736 Z-4.711
X94.148 Y90.751 Z-4.676
X94.145 Y90.756 Z-4.638
G0 Z15

(PocketFinish)
X92.338 Y92.58
Z15
Z5
G1 Z-4.445 F100
X92.344 Y92.585 Z-4.516
X92.363 Y92.599 Z-4.583
X92.394 Y92.621 Z-4.643
X92.434 Y92.651 Z-4.693
X92.482 Y92.687 Z-4.731
X92.536 Y92.727 Z-4.755
X92.593 Y92.769 Z-4.762
X92.848 Y92.959 F400
G3 X92.913 Y93.403 I-0.189 J0.255
G1 X92.887 Y93.438 F620
G3 X78.039 Y93.506 I-7.45 J-5.588
G1 X77.988 Y93.438
G3 X92.887 Y82.262 I7.45 J-5.588
X94.287 Y90.75 I-7.45 J5.588
X92.939 Y93.368 I-8.849 J-2.9 F400
G1 X92.913 Y93.403
X92.9 Y93.431 F620
X92.898 Y93.463
X92.909 Y93.493
X92.919 Y93.522
X92.917 Y93.554
X92.903 Y93.582
G3 X77.96 Y93.566 I-7.466 J-5.732
G1 X77.908 Y93.497
G3 X92.968 Y82.202 I7.53 J-5.647
X93.019 Y93.428 I-7.53 J5.648
G1 X92.967 Y93.497
X92.903 Y93.582
X92.889 Y93.611
X92.887 Y93.642
X92.897 Y93.672
X92.907 Y93.702
X92.905 Y93.733
X92.89 Y93.761
G3 X77.985 Y81.939 I-7.453 J-5.911
X85.35 Y78.338 I7.453 J5.911
G1 X85.438
G3 X93.099 Y93.488 I0 J9.512
G1 X93.048 Y93.558
G3 X77.828 Y82.142 I-7.61 J-5.708
X85.35 Y78.338 I7.61 J5.708
G1 X85.438
G3 X93.099 Y93.488 I0 J9.512
G1 X93.048 Y93.558
G3 X90.689 Y95.781 I-7.61 J-5.708
X90.249 Y95.692 I-0.175 J-0.265 F400
G1 X90.074 Y95.427
X90.035 Y95.368 Z-4.755
X89.998 Y95.312 Z-4.731
X89.965 Y95.262 Z-4.693
X89.937 Y95.22 Z-4.643
X89.916 Y95.189 Z-4.583
X89.903 Y95.169 Z-4.516
X89.899 Y95.163 Z-4.445
G0 Z5
X85.111 Y109.262
G1 Z-4.445 F100
Y109.255 Z-4.516
Y109.231 Z-4.583
Y109.193 Z-4.643
X85.11 Y109.143 Z-4.693
Y109.083 Z-4.731
X85.109 Y109.016 Z-4.755
X85.108 Y108.945 Z-4.762
X85.105 Y108.628 F400
G3 X85.419 Y108.307 I0.317 J-0.003
G1 X85.438 F620
G3 X85.438 Y111.843 I0 J1.768
X84.045 Y111.166 I0 J-1.769
G1 X84.023 Y111.136
G3 X83.685 Y110.315 I1.415 J-1.061
X85.4 Y108.307 I1.752 J-0.24 F400
G1 X85.419
X85.449 Y108.3 F620
X85.475 Y108.283
X85.492 Y108.257
X85.51 Y108.232
X85.537 Y108.215
X85.568 Y108.211
G3 X85.307 Y111.939 I-0.13 J1.864
X83.966 Y111.227 I0.13 J-1.864
G1 X83.943 Y111.196
G3 X85.399 Y108.207 I1.495 J-1.121
G1 X85.438 Y108.206
X85.568 Y108.211
X85.599 Y108.207
X85.626 Y108.192
X85.645 Y108.168
X85.665 Y108.144
X85.693 Y108.129
X85.724 Y108.127
G3 X87.036 Y111.224 I-0.286 J1.948
G1 X87.012 Y111.256
G3 X83.887 Y111.288 I-1.575 J-1.181
G1 X83.863 Y111.256
G3 X87.012 Y108.894 I1.575 J-1.181
X87.036 Y111.224 I-1.575 J1.181
G1 X87.012 Y111.256
G3 X83.887 Y111.288 I-1.575 J-1.181
G1 X83.863 Y111.256
G3 X87.012 Y108.894 I1.575 J-1.181
X87.396 Y110.27 I-1.575 J1.181
X87.049 Y110.554 I-0.316 J-0.031 F400
G1 X86.733 Y110.523
X86.663 Y110.516 Z-4.755
X86.596 Y110.509 Z-4.731
X86.536 Y110.503 Z-4.693
X86.486 Y110.498 Z-4.643
X86.448 Y110.495 Z-4.583
X86.425 Y110.492 Z-4.516
X86.417 Z-4.445
G0 Z5
X49.475 Y92.58
G1 Z-4.445 F100
X49.482 Y92.585 Z-4.516
X49.501 Y92.599 Z-4.583
X49.531 Y92.621 Z-4.643
X49.571 Y92.651 Z-4.693
X49.62 Y92.687 Z-4.731
X49.674 Y92.727 Z-4.755
X49.73 Y92.769 Z-4.762
X49.985 Y92.959 F400
G3 X50.051 Y93.403 I-0.189 J0.255
G1 X50.025 Y93.438 F620
G3 X35.177 Y93.506 I-7.45 J-5.588
G1 X35.125 Y93.438
G3 X50.025 Y82.262 I7.45 J-5.588
X51.424 Y90.75 I-7.45 J5.588
X50.076 Y93.368 I-8.849 J-2.9 F400
G1 X50.051 Y93.403
X50.037 Y93.431 F620
X50.036 Y93.463
X50.046 Y93.493
X50.056 Y93.522
X50.055 Y93.554
X50.041 Y93.582
G3 X35.097 Y93.566 I-7.466 J-5.732
G1 X35.045 Y93.497
G3 X50.105 Y82.202 I7.53 J-5.647
X50.157 Y93.428 I-7.53 J5.647
G1 X50.105 Y93.497
X50.041 Y93.582
X50.027 Y93.611
X50.025 Y93.642
X50.035 Y93.672
X50.044 Y93.702
X50.042 Y93.733
X50.028 Y93.761
G3 X35.122 Y81.939 I-7.453 J-5.911
X42.488 Y78.338 I7.453 J5.911
G1 X42.575
G3 X50.237 Y93.488 I0 J9.512
G1 X50.185 Y93.558
G3 X34.965 Y82.142 I-7.61 J-5.708
X42.488 Y78.338 I7.61 J5.708
G1 X42.575
G3 X50.237 Y93.488 I0 J9.512
G1 X50.185 Y93.558
G3 X47.827 Y95.781 I-7.61 J-5.708
X47.387 Y95.692 I-0.175 J-0.265 F400
G1 X47.211 Y95.427
X47.172 Y95.368 Z-4.755
X47.135 Y95.312 Z-4.731
X47.102 Y95.262 Z-4.693
X47.074 Y95.22 Z-4.643
X47.053 Y95.189 Z-4.583
X47.04 Y95.169 Z-4.516
X47.036 Y95.163 Z-4.445
G0 Z5
X43.421 Y110.302
G1 Z-4.445 F100
X43.427 Y110.306 Z-4.516
X43.446 Y110.32 Z-4.583
X43.477 Y110.343 Z-4.643
X43.517 Y110.372 Z-4.693
X43.566 Y110.408 Z-4.731
X43.62 Y110.448 Z-4.755
X43.677 Y110.489 Z-4.762
X43.933 Y110.677 F400
G3 X44.001 Y111.121 I-0.188 J0.256
G1 X43.99 Y111.136 F620
G3 X41.183 Y111.166 I-1.415 J-1.061
G1 X41.16 Y111.136
G3 X43.434 Y108.529 I1.415 J-1.061
X44.012 Y111.106 I-0.859 J1.546 F400
G1 X44.001 Y111.121
X43.988 Y111.149 F620
X43.986 Y111.18
X43.996 Y111.209
X44.006 Y111.239
X44.003 Y111.27
X43.988 Y111.298
G3 X41.104 Y111.227 I-1.413 J-1.223
G1 X41.08 Y111.196
G3 X44.07 Y108.954 I1.495 J-1.121
X44.092 Y111.165 I-1.495 J1.121
G1 X44.07 Y111.196
X43.988 Y111.298
X43.973 Y111.324
X43.969 Y111.355
X43.976 Y111.385
X43.984 Y111.416
X43.979 Y111.446
X43.961 Y111.473
G3 X41.189 Y108.677 I-1.386 J-1.398
X42.535 Y108.107 I1.386 J1.398
G1 X42.575 Y108.106
G3 X44.173 Y111.224 I0 J1.968
G1 X44.15 Y111.256
G3 X41 Y108.894 I-1.575 J-1.181
X42.535 Y108.107 I1.575 J1.181
G1 X42.575 Y108.106
G3 X44.173 Y111.224 I0 J1.968
G1 X44.15 Y111.256
G3 X41.244 Y111.525 I-1.575 J-1.181
X41.225 Y111.077 I0.215 J-0.234 F400
G1 X41.439 Y110.843
X41.487 Y110.791 Z-4.755
X41.532 Y110.741 Z-4.731
X41.573 Y110.697 Z-4.693
X41.607 Y110.66 Z-4.643
X41.633 Y110.632 Z-4.583
X41.649 Y110.615 Z-4.516
X41.654 Y110.609 Z-4.445
G0 Z15

(Perimeter)
X83.776 Y122.662
Z15
Z5
G1 Z0.5 F100
X94.357 Z0.47 F600
G2 X101.025 Y115.995 Z0.44 I0 J-6.667
G1 Y74.93 Z0.322
G2 X94.357 Y68.262 Z0.292 I-6.668 J0
G1 X66.387 Z0.211
G2 X64.8 Y69.85 Z0.204 I0 J1.588
G1 Y121.075 Z0.057
G2 X66.387 Y122.662 Z0.05 I1.587 J0
G1 X94.357 Z-0.03
G2 X101.025 Y115.995 Z-0.06 I0 J-6.667
G1 Y74.93 Z-0.178
G2 X94.357 Y68.262 Z-0.208 I-6.668 J0
G1 X66.387 Z-0.289
G2 X64.8 Y69.85 Z-0.296 I0 J1.588
G1 Y121.075 Z-0.443
G2 X66.387 Y122.662 Z-0.45 I1.587 J0
G1 X94.357 Z-0.53
G2 X101.025 Y115.995 Z-0.56 I0 J-6.667
G1 Y74.93 Z-0.678
G2 X94.357 Y68.262 Z-0.708 I-6.668 J0
G1 X66.387 Z-0.789
G2 X64.8 Y69.85 Z-0.796 I0 J1.588
G1 Y121.075 Z-0.943
G2 X66.387 Y122.662 Z-0.95 I1.587 J0
G1 X94.357 Z-1.03
G2 X101.025 Y115.995 Z-1.06 I0 J-6.667
G1 Y74.93 Z-1.178
G2 X94.357 Y68.262 Z-1.208 I-6.668 J0
G1 X66.387 Z-1.289
G2 X64.8 Y69.85 Z-1.296 I0 J1.588
G1 Y121.075 Z-1.443
G2 X66.387 Y122.662 Z-1.45 I1.587 J0
G1 X94.357 Z-1.53
G2 X101.025 Y115.995 Z-1.56 I0 J-6.667
G1 Y74.93 Z-1.678
G2 X94.357 Y68.262 Z-1.708 I-6.668 J0
G1 X66.387 Z-1.789
G2 X64.8 Y69.85 Z-1.796 I0 J1.588
G1 Y121.075 Z-1.943
G2 X66.387 Y122.662 Z-1.95 I1.587 J0
G1 X94.357 Z-2.03
G2 X101.025 Y115.995 Z-2.06 I0 J-6.667
G1 Y74.93 Z-2.178
G2 X94.357 Y68.262 Z-2.208 I-6.668 J0
G1 X66.387 Z-2.289
G2 X64.8 Y69.85 Z-2.296 I0 J1.588
G1 Y121.075 Z-2.443
G2 X66.387 Y122.662 Z-2.45 I1.587 J0
G1 X94.357 Z-2.53
G2 X101.025 Y115.995 Z-2.56 I0 J-6.667
G1 Y74.93 Z-2.678
G2 X94.357 Y68.262 Z-2.708 I-6.668 J0
G1 X66.387 Z-2.789
G2 X64.8 Y69.85 Z-2.796 I0 J1.588
G1 Y121.075 Z-2.943
G2 X66.387 Y122.662 Z-2.95 I1.587 J0
G1 X94.357 Z-3.03
G2 X101.025 Y115.995 Z-3.06 I0 J-6.667
G1 Y74.93 Z-3.178
G2 X94.357 Y68.262 Z-3.208 I-6.668 J0
G1 X66.387 Z-3.289
G2 X64.8 Y69.85 Z-3.296 I0 J1.588
G1 Y121.075 Z-3.443
G2 X66.387 Y122.662 Z-3.45 I1.587 J0
G1 X94.357 Z-3.53
G2 X101.025 Y115.995 Z-3.56 I0 J-6.667
G1 Y74.93 Z-3.678
G2 X94.357 Y68.262 Z-3.708 I-6.668 J0
G1 X66.387 Z-3.789
G2 X64.8 Y69.85 Z-3.796 I0 J1.588
G1 Y121.075 Z-3.943
G2 X66.387 Y122.662 Z-3.95 I1.587 J0
G1 X94.357 Z-4.03
G2 X101.025 Y115.995 Z-4.06 I0 J-6.667
G1 Y74.93 Z-4.178
G2 X94.357 Y68.262 Z-4.208 I-6.668 J0
G1 X66.387 Z-4.289
G2 X64.8 Y69.85 Z-4.296 I0 J1.588
G1 Y121.075 Z-4.443
G2 X66.387 Y122.662 Z-4.45 I1.587 J0
G1 X94.357 Z-4.53
G2 X101.025 Y115.995 Z-4.56 I0 J-6.667
G1 Y74.93 Z-4.678
G2 X94.357 Y68.262 Z-4.708 I-6.668 J0
G1 X66.387 Z-4.789
G2 X64.8 Y69.85 Z-4.796 I0 J1.588
G1 Y121.075 Z-4.943
G2 X66.387 Y122.662 Z-4.95 I1.587 J0
G1 X94.357 Z-5.03
G2 X101.025 Y115.995 Z-5.06 I0 J-6.667
G1 Y74.93 Z-5.178
G2 X94.357 Y68.262 Z-5.208 I-6.668 J0
G1 X66.387 Z-5.289
G2 X64.8 Y69.85 Z-5.296 I0 J1.588
G1 Y121.075 Z-5.443
G2 X66.387 Y122.662 Z-5.45 I1.587 J0
G1 X94.357 Z-5.53
G2 X101.025 Y115.995 Z-5.56 I0 J-6.667
G1 Y74.93 Z-5.678
G2 X94.357 Y68.262 Z-5.708 I-6.668 J0
G1 X66.387 Z-5.789
G2 X64.8 Y69.85 Z-5.796 I0 J1.588
G1 Y121.075 Z-5.943
G2 X66.387 Y122.662 Z-5.95 I1.587 J0
G1 X94.357 Z-6.03
G2 X101.025 Y115.995 Z-6.06 I0 J-6.667
G1 Y74.93 Z-6.178
G2 X94.357 Y68.262 Z-6.208 I-6.668 J0
G1 X66.387 Z-6.289
G2 X64.8 Y69.85 Z-6.296 I0 J1.588
G1 Y121.075 Z-6.443
G2 X66.36 Y122.662 Z-6.45 I1.587 J0
G1 X66.387 F620
X94.357
G2 X101.025 Y115.995 I0 J-6.667
G1 Y74.93
G2 X94.357 Y68.262 I-6.668 J0
G1 X66.387
G2 X64.8 Y69.85 I0 J1.588
G1 Y121.075
G2 X66.36 Y122.662 I1.587 J0
G0 Z5
X63.213 Y106.125
G1 Z0.5 F100
Y69.85 Z0.396 F600
G2 X61.625 Y68.262 Z0.389 I-1.588 J0
G1 X33.655 Z0.308
G2 X26.987 Y74.93 Z0.278 I0 J6.668
G1 Y115.995 Z0.16
G2 X33.655 Y122.662 Z0.13 I6.667 J0
G1 X61.625 Z0.05
X61.653
G2 X63.213 Y121.075 Z0.043 I-0.028 J-1.587
G1 Y69.85 Z-0.104
G2 X61.625 Y68.262 Z-0.111 I-1.588 J0
G1 X33.655 Z-0.192
G2 X26.987 Y74.93 Z-0.222 I0 J6.668
G1 Y115.995 Z-0.34
G2 X33.655 Y122.662 Z-0.37 I6.667 J0
G1 X61.625 Z-0.45
X61.653
G2 X63.213 Y121.075 Z-0.457 I-0.028 J-1.587
G1 Y69.85 Z-0.604
G2 X61.625 Y68.262 Z-0.611 I-1.588 J0
G1 X33.655 Z-0.692
G2 X26.987 Y74.93 Z-0.722 I0 J6.668
G1 Y115.995 Z-0.84
G2 X33.655 Y122.662 Z-0.87 I6.667 J0
G1 X61.625 Z-0.95
X61.653
G2 X63.213 Y121.075 Z-0.957 I-0.028 J-1.587
G1 Y69.85 Z-1.104
G2 X61.625 Y68.262 Z-1.111 I-1.588 J0
G1 X33.655 Z-1.192
G2 X26.987 Y74.93 Z-1.222 I0 J6.668
G1 Y115.995 Z-1.34
G2 X33.655 Y122.662 Z-1.37 I6.667 J0
G1 X61.625 Z-1.45
X61.653
G2 X63.213 Y121.075 Z-1.457 I-0.028 J-1.587
G1 Y69.85 Z-1.604
G2 X61.625 Y68.262 Z-1.611 I-1.588 J0
G1 X33.655 Z-1.692
G2 X26.987 Y74.93 Z-1.722 I0 J6.668
G1 Y115.995 Z-1.84
G2 X33.655 Y122.662 Z-1.87 I6.667 J0
G1 X61.625 Z-1.95
X61.653
G2 X63.213 Y121.075 Z-1.957 I-0.028 J-1.587
G1 Y69.85 Z-2.104
G2 X61.625 Y68.262 Z-2.111 I-1.588 J0
G1 X33.655 Z-2.192
G2 X26.987 Y74.93 Z-2.222 I0 J6.668
G1 Y115.995 Z-2.34
G2 X33.655 Y122.662 Z-2.37 I6.667 J0
G1 X61.625 Z-2.45
X61.653
G2 X63.213 Y121.075 Z-2.457 I-0.028 J-1.587
G1 Y69.85 Z-2.604
G2 X61.625 Y68.262 Z-2.611 I-1.588 J0
G1 X33.655 Z-2.692
G2 X26.987 Y74.93 Z-2.722 I0 J6.668
G1 Y115.995 Z-2.84
G2 X33.655 Y122.662 Z-2.87 I6.667 J0
G1 X61.625 Z-2.95
X61.653
G2 X63.213 Y121.075 Z-2.957 I-0.028 J-1.587
G1 Y69.85 Z-3.104
G2 X61.625 Y68.262 Z-3.111 I-1.588 J0
G1 X33.655 Z-3.192
G2 X26.987 Y74.93 Z-3.222 I0 J6.668
G1 Y115.995 Z-3.34
G2 X33.655 Y122.662 Z-3.37 I6.667 J0
G1 X61.625 Z-3.45
X61.653
G2 X63.213 Y121.075 Z-3.457 I-0.028 J-1.587
G1 Y69.85 Z-3.604
G2 X61.625 Y68.262 Z-3.611 I-1.588 J0
G1 X33.655 Z-3.692
G2 X26.987 Y74.93 Z-3.722 I0 J6.668
G1 Y115.995 Z-3.84
G2 X33.655 Y122.662 Z-3.87 I6.667 J0
G1 X61.625 Z-3.95
X61.653
G2 X63.213 Y121.075 Z-3.957 I-0.028 J-1.587
G1 Y69.85 Z-4.104
G2 X61.625 Y68.262 Z-4.111 I-1.588 J0
G1 X33.655 Z-4.192
G2 X26.987 Y74.93 Z-4.222 I0 J6.668
G1 Y115.995 Z-4.34
G2 X33.655 Y122.662 Z-4.37 I6.667 J0
G1 X61.625 Z-4.45
X61.653
G2 X63.213 Y121.075 Z-4.457 I-0.028 J-1.587
G1 Y69.85 Z-4.604
G2 X61.625 Y68.262 Z-4.611 I-1.588 J0
G1 X33.655 Z-4.692
G2 X26.987 Y74.93 Z-4.722 I0 J6.668
G1 Y115.995 Z-4.84
G2 X33.655 Y122.662 Z-4.87 I6.667 J0
G1 X61.625 Z-4.95
X61.653
G2 X63.213 Y121.075 Z-4.957 I-0.028 J-1.587
G1 Y69.85 Z-5.104
G2 X61.625 Y68.262 Z-5.111 I-1.588 J0
G1 X33.655 Z-5.192
G2 X26.987 Y74.93 Z-5.222 I0 J6.668
G1 Y115.995 Z-5.34
G2 X33.655 Y122.662 Z-5.37 I6.667 J0
G1 X61.625 Z-5.45
X61.653
G2 X63.213 Y121.075 Z-5.457 I-0.028 J-1.587
G1 Y69.85 Z-5.604
G2 X61.625 Y68.262 Z-5.611 I-1.588 J0
G1 X33.655 Z-5.692
G2 X26.987 Y74.93 Z-5.722 I0 J6.668
G1 Y115.995 Z-5.84
G2 X33.655 Y122.662 Z-5.87 I6.667 J0
G1 X61.625 Z-5.95
X61.653
G2 X63.213 Y121.075 Z-5.957 I-0.028 J-1.587
G1 Y69.85 Z-6.104
G2 X61.625 Y68.262 Z-6.111 I-1.588 J0
G1 X33.655 Z-6.192
G2 X26.987 Y74.93 Z-6.222 I0 J6.668
G1 Y115.995 Z-6.34
G2 X33.655 Y122.662 Z-6.37 I6.667 J0
G1 X61.625 Z-6.45
X61.653
G2 X63.213 Y121.075 I-0.028 J-1.587 F620
G1 Y69.85
G2 X61.625 Y68.262 I-1.588 J0
G1 X33.655
G2 X26.987 Y74.93 I0 J6.668
G1 Y115.995
G2 X33.655 Y122.662 I6.667 J0
G1 X61.625
X61.653
G0 Z15
G28 G91 Z0
G90
G28 G91 X0 Y0
G90
M5
M30
