(Pillow_Block_Bolt_Holes)
(Drilling holes for manual threading with 1/16" mill)
(Machine)
(  vendor: Carbide 3D)
(  model: 3)
(  description: Shapeoko)
(T2  D=1.587 CR=0 - ZMIN=-5 - flat end mill)
G90 G94
G17
G21
G28 G91 Z0
G90

(Circular1)
T2 M6
S15000 M3
G54
G0 X3.234 Y47.566
Z12
Z9
G1 Z-0.841 F125
X3.242 Z-0.89
X3.265 Z-0.935
X3.3 Z-0.97
X3.344 Z-0.992
X3.393 Z-1
X3.473
X3.522 Y47.574
X3.566 Y47.597
X3.601 Y47.632
X3.623 Y47.676
X3.631 Y47.725
G3 X2.719 Y47.725 I-0.456 J0
X3.631 Y47.725 I0.456 J0
G1 X3.623 Y47.774
X3.601 Y47.818
X3.566 Y47.853
X3.522 Y47.876
X3.473 Y47.884
X3.393
X3.344 Z-0.992
X3.3 Z-0.97
X3.265 Z-0.935
X3.242 Z-0.89
X3.234 Z-0.841
G0 Z10
Y47.566
Z8
G1 Z-1.841 F125
X3.242 Z-1.89
X3.265 Z-1.935
X3.3 Z-1.97
X3.344 Z-1.992
X3.393 Z-2
X3.473
X3.522 Y47.574
X3.566 Y47.597
X3.601 Y47.632
X3.623 Y47.676
X3.631 Y47.725
G3 X2.719 Y47.725 I-0.456 J0
X3.631 Y47.725 I0.456 J0
G1 X3.623 Y47.774
X3.601 Y47.818
X3.566 Y47.853
X3.522 Y47.876
X3.473 Y47.884
X3.393
X3.344 Z-1.992
X3.3 Z-1.97
X3.265 Z-1.935
X3.242 Z-1.89
X3.234 Z-1.841
G0 Z10
Y47.566
Z7
G1 Z-2.841 F125
X3.242 Z-2.89
X3.265 Z-2.935
X3.3 Z-2.97
X3.344 Z-2.992
X3.393 Z-3
X3.473
X3.522 Y47.574
X3.566 Y47.597
X3.601 Y47.632
X3.623 Y47.676
X3.631 Y47.725
G3 X2.719 Y47.725 I-0.456 J0
X3.631 Y47.725 I0.456 J0
G1 X3.623 Y47.774
X3.601 Y47.818
X3.566 Y47.853
X3.522 Y47.876
X3.473 Y47.884
X3.393
X3.344 Z-2.992
X3.3 Z-2.97
X3.265 Z-2.935
X3.242 Z-2.89
X3.234 Z-2.841
G0 Z10
Y47.566
Z6
G1 Z-3.841 F125
X3.242 Z-3.89
X3.265 Z-3.935
X3.3 Z-3.97
X3.344 Z-3.992
X3.393 Z-4
X3.473
X3.522 Y47.574
X3.566 Y47.597
X3.601 Y47.632
X3.623 Y47.676
X3.631 Y47.725
G3 X2.719 Y47.725 I-0.456 J0
X3.631 Y47.725 I0.456 J0
G1 X3.623 Y47.774
X3.601 Y47.818
X3.566 Y47.853
X3.522 Y47.876
X3.473 Y47.884
X3.393
X3.344 Z-3.992
X3.3 Z-3.97
X3.265 Z-3.935
X3.242 Z-3.89
X3.234 Z-3.841
G0 Z10
Y47.566
Z5
G1 Z-4.841 F125
X3.242 Z-4.89
X3.265 Z-4.935
X3.3 Z-4.97
X3.344 Z-4.992
X3.393 Z-5
X3.473
X3.522 Y47.574
X3.566 Y47.597
X3.601 Y47.632
X3.623 Y47.676
X3.631 Y47.725
G3 X2.719 Y47.725 I-0.456 J0
X3.631 Y47.725 I0.456 J0
G1 X3.623 Y47.774
X3.601 Y47.818
X3.566 Y47.853
X3.522 Y47.876
X3.473 Y47.884
X3.393
X3.344 Z-4.992
X3.3 Z-4.97
X3.265 Z-4.935
X3.242 Z-4.89
X3.234 Z-4.841
G0 Z10
X3.334 Y32.059
Z9
G1 Z-0.841 F125
Y32.067 Z-0.89
Y32.089 Z-0.935
Y32.124 Z-0.97
Y32.168 Z-0.992
X3.335 Y32.218 Z-1
Y32.297
X3.327 Y32.346
X3.305 Y32.39
X3.27 Y32.426
X3.226 Y32.448
X3.177 Y32.456
G3 X3.173 Y31.544 I-0.002 J-0.456
X3.177 Y32.456 I0.002 J0.456
G1 X3.128 Y32.449
X3.083 Y32.426
X3.048 Y32.391
X3.025 Y32.347
X3.017 Y32.298
Y32.219
Y32.17 Z-0.992
Y32.125 Z-0.97
Y32.09 Z-0.935
Y32.068 Z-0.89
X3.016 Y32.06 Z-0.841
G0 Z10
X3.334 Y32.059
Z8
G1 Z-1.841 F125
Y32.067 Z-1.89
Y32.089 Z-1.935
Y32.124 Z-1.97
Y32.168 Z-1.992
X3.335 Y32.218 Z-2
Y32.297
X3.327 Y32.346
X3.305 Y32.39
X3.27 Y32.426
X3.226 Y32.448
X3.177 Y32.456
G3 X3.173 Y31.544 I-0.002 J-0.456
X3.177 Y32.456 I0.002 J0.456
G1 X3.128 Y32.449
X3.083 Y32.426
X3.048 Y32.391
X3.025 Y32.347
X3.017 Y32.298
Y32.219
Y32.17 Z-1.992
Y32.125 Z-1.97
Y32.09 Z-1.935
Y32.068 Z-1.89
X3.016 Y32.06 Z-1.841
G0 Z10
X3.334 Y32.059
Z7
G1 Z-2.841 F125
Y32.067 Z-2.89
Y32.089 Z-2.935
Y32.124 Z-2.97
Y32.168 Z-2.992
X3.335 Y32.218 Z-3
Y32.297
X3.327 Y32.346
X3.305 Y32.39
X3.27 Y32.426
X3.226 Y32.448
X3.177 Y32.456
G3 X3.173 Y31.544 I-0.002 J-0.456
X3.177 Y32.456 I0.002 J0.456
G1 X3.128 Y32.449
X3.083 Y32.426
X3.048 Y32.391
X3.025 Y32.347
X3.017 Y32.298
Y32.219
Y32.17 Z-2.992
Y32.125 Z-2.97
Y32.09 Z-2.935
Y32.068 Z-2.89
X3.016 Y32.06 Z-2.841
G0 Z10
X3.334 Y32.059
Z6
G1 Z-3.841 F125
Y32.067 Z-3.89
Y32.089 Z-3.935
Y32.124 Z-3.97
Y32.168 Z-3.992
X3.335 Y32.218 Z-4
Y32.297
X3.327 Y32.346
X3.305 Y32.39
X3.27 Y32.426
X3.226 Y32.448
X3.177 Y32.456
G3 X3.173 Y31.544 I-0.002 J-0.456
X3.177 Y32.456 I0.002 J0.456
G1 X3.128 Y32.449
X3.083 Y32.426
X3.048 Y32.391
X3.025 Y32.347
X3.017 Y32.298
Y32.219
Y32.17 Z-3.992
Y32.125 Z-3.97
Y32.09 Z-3.935
Y32.068 Z-3.89
X3.016 Y32.06 Z-3.841
G0 Z10
X3.334 Y32.059
Z5
G1 Z-4.841 F125
Y32.067 Z-4.89
Y32.089 Z-4.935
Y32.124 Z-4.97
Y32.168 Z-4.992
X3.335 Y32.218 Z-5
Y32.297
X3.327 Y32.346
X3.305 Y32.39
X3.27 Y32.426
X3.226 Y32.448
X3.177 Y32.456
G3 X3.173 Y31.544 I-0.002 J-0.456
X3.177 Y32.456 I0.002 J0.456
G1 X3.128 Y32.449
X3.083 Y32.426
X3.048 Y32.391
X3.025 Y32.347
X3.017 Y32.298
Y32.219
Y32.17 Z-4.992
Y32.125 Z-4.97
Y32.09 Z-4.935
Y32.068 Z-4.89
X3.016 Y32.06 Z-4.841
G0 Z10
X3.333 Y3.56
Z9
G1 Z-0.841 F125
Y3.568 Z-0.89
Y3.591 Z-0.935
Y3.626 Z-0.97
Y3.67 Z-0.992
Y3.719 Z-1
X3.332 Y3.798
X3.324 Y3.847
X3.301 Y3.892
X3.266 Y3.926
X3.222 Y3.949
X3.172 Y3.956
G3 X3.178 Y3.044 I0.003 J-0.456
X3.172 Y3.956 I-0.003 J0.456
G1 X3.123 Y3.948
X3.079 Y3.925
X3.044 Y3.89
X3.022 Y3.846
X3.015 Y3.797
Y3.717
Y3.668 Z-0.992
X3.016 Y3.624 Z-0.97
Y3.589 Z-0.935
Y3.566 Z-0.89
Y3.558 Z-0.841
G0 Z10
X3.333 Y3.56
Z8
G1 Z-1.841 F125
Y3.568 Z-1.89
Y3.591 Z-1.935
Y3.626 Z-1.97
Y3.67 Z-1.992
Y3.719 Z-2
X3.332 Y3.798
X3.324 Y3.847
X3.301 Y3.892
X3.266 Y3.926
X3.222 Y3.949
X3.172 Y3.956
G3 X3.178 Y3.044 I0.003 J-0.456
X3.172 Y3.956 I-0.003 J0.456
G1 X3.123 Y3.948
X3.079 Y3.925
X3.044 Y3.89
X3.022 Y3.846
X3.015 Y3.797
Y3.717
Y3.668 Z-1.992
X3.016 Y3.624 Z-1.97
Y3.589 Z-1.935
Y3.566 Z-1.89
Y3.558 Z-1.841
G0 Z10
X3.333 Y3.56
Z7
G1 Z-2.841 F125
Y3.568 Z-2.89
Y3.591 Z-2.935
Y3.626 Z-2.97
Y3.67 Z-2.992
Y3.719 Z-3
X3.332 Y3.798
X3.324 Y3.847
X3.301 Y3.892
X3.266 Y3.926
X3.222 Y3.949
X3.172 Y3.956
G3 X3.178 Y3.044 I0.003 J-0.456
X3.172 Y3.956 I-0.003 J0.456
G1 X3.123 Y3.948
X3.079 Y3.925
X3.044 Y3.89
X3.022 Y3.846
X3.015 Y3.797
Y3.717
Y3.668 Z-2.992
X3.016 Y3.624 Z-2.97
Y3.589 Z-2.935
Y3.566 Z-2.89
Y3.558 Z-2.841
G0 Z10
X3.333 Y3.56
Z6
G1 Z-3.841 F125
Y3.568 Z-3.89
Y3.591 Z-3.935
Y3.626 Z-3.97
Y3.67 Z-3.992
Y3.719 Z-4
X3.332 Y3.798
X3.324 Y3.847
X3.301 Y3.892
X3.266 Y3.926
X3.222 Y3.949
X3.172 Y3.956
G3 X3.178 Y3.044 I0.003 J-0.456
X3.172 Y3.956 I-0.003 J0.456
G1 X3.123 Y3.948
X3.079 Y3.925
X3.044 Y3.89
X3.022 Y3.846
X3.015 Y3.797
Y3.717
Y3.668 Z-3.992
X3.016 Y3.624 Z-3.97
Y3.589 Z-3.935
Y3.566 Z-3.89
Y3.558 Z-3.841
G0 Z10
X3.333 Y3.56
Z5
G1 Z-4.841 F125
Y3.568 Z-4.89
Y3.591 Z-4.935
Y3.626 Z-4.97
Y3.67 Z-4.992
Y3.719 Z-5
X3.332 Y3.798
X3.324 Y3.847
X3.301 Y3.892
X3.266 Y3.926
X3.222 Y3.949
X3.172 Y3.956
G3 X3.178 Y3.044 I0.003 J-0.456
X3.172 Y3.956 I-0.003 J0.456
G1 X3.123 Y3.948
X3.079 Y3.925
X3.044 Y3.89
X3.022 Y3.846
X3.015 Y3.797
Y3.717
Y3.668 Z-4.992
X3.016 Y3.624 Z-4.97
Y3.589 Z-4.935
Y3.566 Z-4.89
Y3.558 Z-4.841
G0 Z12

(2D Contour3)
X3.631 Y32
Z12
Z10
G1 Z-5 F60
G3 X2.719 Y32 I-0.456 J0 F125
X3.631 Y32 I0.456 J0
X2.719 Y32 I-0.456 J0
X3.631 Y31.986 I0.456 J0
G1 Y31.995 F31.3
Y32 F125
G0 Z10
Y47.725
G1 Z-5 F60
G3 X2.719 Y47.725 I-0.456 J0 F125
X3.631 Y47.725 I0.456 J0
X2.719 Y47.725 I-0.456 J0
X3.631 Y47.711 I0.456 J0
G1 Y47.72 F31.3
Y47.725 F125
G0 Z10
Y3.5
G1 Z-5 F60
G3 X2.719 Y3.5 I-0.456 J0 F125
X3.631 Y3.5 I0.456 J0
X2.719 Y3.5 I-0.456 J0
X3.631 Y3.486 I0.456 J0
G1 Y3.495 F31.3
Y3.5 F125
G0 Z12
G28 G91 Z0
G90
G28 G91 X0 Y0
G90
M5
M30
