(Pillow_Block_Jig)
(Pillow block jig for screw holes)
(Machine)
(  vendor: Carbide 3D)
(  model: 3)
(  description: Shapeoko)
(T2  D=3.175 CR=0 - ZMIN=-8 - flat end mill)
G90 G94
G17
G21
G28 G91 Z0
G90

(2D Pocket1)
T2 M6
S10000 M3
G54
G0 X312.95 Y98.632
Z15
Z5
G1 Z2 F600
X312.7 Z1.987 F400
X312.684 Y98.627 Z1.986
X312.673 Y98.616 Z1.985
X312.668 Y98.6 Z1.984
Y52.7 Z-0.457
X312.673 Y52.684 Z-0.458
X312.684 Y52.673 Z-0.459
X312.7 Y52.668 Z-0.46
X313.7 Z-0.513
X313.716 Y52.673 Z-0.514
X313.727 Y52.684 Z-0.515
X313.732 Y52.7 Z-0.516
Y98.6 Z-2.957
X313.727 Y98.616 Z-2.958
X313.716 Y98.627 Z-2.959
X313.7 Y98.632 Z-2.96
X312.7 Z-3.013
X312.684 Y98.627 Z-3.014
X312.673 Y98.616 Z-3.015
X312.668 Y98.6 Z-3.016
Y52.7 Z-5.457
X312.673 Y52.684 Z-5.458
X312.684 Y52.673 Z-5.459
X312.7 Y52.668 Z-5.46
X313.7 Z-5.513
X313.716 Y52.673 Z-5.514
X313.727 Y52.684 Z-5.515
X313.732 Y52.7 Z-5.516
Y98.6 Z-7.957
X313.727 Y98.616 Z-7.958
X313.716 Y98.627 Z-7.959
X313.7 Y98.632 Z-7.96
X312.95 Z-8
X312.7 F600
X312.684 Y98.627 F150
X312.673 Y98.616
X312.668 Y98.6
Y52.7 F600
X312.673 Y52.684 F150
X312.684 Y52.673
X312.7 Y52.668
X313.7 F600
X313.716 Y52.673 F150
X313.727 Y52.684
X313.732 Y52.7
Y98.6 F600
X313.727 Y98.616 F150
X313.716 Y98.627
X313.7 Y98.632
X312.95 F600
G2 X312.057 Y99.216 I0 J0.974
G3 X311.409 Y100.064 I-2.056 J-0.898
G2 X310.819 Y101.3 I0.997 J1.236
G3 X309.231 Y101.3 I-0.794 J0
X310.017 Y100.506 I0.794 J0
G2 X311.587 Y98.919 I-0.017 J-1.587
G1 Y52.381
G2 X310 Y50.794 I-1.587 J0
G3 X310 Y49.207 I0 J-0.794
X310.793 Y50 I0 J0.794
G2 X312.381 Y51.588 I1.588 J0
G1 X314.019
G2 X315.607 Y50 I0 J-1.588
G3 X317.194 Y50 I0.794 J0
X316.4 Y50.794 I-0.794 J0
G2 X314.813 Y52.381 I0 J1.587
G1 Y98.919
G2 X316.4 Y100.506 I1.587 J0
G3 X316.4 Y102.093 I0 J0.794
X315.607 Y101.3 I0 J-0.794
G2 X314.019 Y99.713 I-1.587 J0
G1 X312.406
G2 X311.409 Y100.064 I0 J1.588
G0 Z15
G28 G91 Z0
G90
G28 G91 X0 Y0
G90
M5
M30
