; G-Code generated by Simplify3D(R) Version 3.1.1
; Dec 25, 2016 at 7:40:42 PM
; Settings Summary
;   processName,Process1
;   applyToModels,Track 2
;   profileName,MakerBot Replicator 2X (modified)
;   profileVersion,2015-05-01 08:00:00
;   baseProfile,
;   printMaterial,ABS
;   printQuality,Medium
;   printExtruders,Right Extruder Only
;   extruderName,Right Extruder,Left Extruder
;   extruderToolheadNumber,0,1
;   extruderDiameter,0.4,0.4
;   extruderAutoWidth,0,0
;   extruderWidth,0.4,0.4
;   extrusionMultiplier,1,1
;   extruderUseRetract,1,1
;   extruderRetractionDistance,1,1
;   extruderExtraRestartDistance,0,0
;   extruderRetractionZLift,0,0
;   extruderRetractionSpeed,1200,1200
;   extruderUseCoasting,0,0
;   extruderCoastingDistance,0.2,0.2
;   extruderUseWipe,0,0
;   extruderWipeDistance,5,5
;   primaryExtruder,0
;   layerHeight,0.2
;   topSolidLayers,3
;   bottomSolidLayers,3
;   perimeterOutlines,3
;   printPerimetersInsideOut,1
;   startPointOption,2
;   startPointOriginX,0
;   startPointOriginY,0
;   startPointOriginZ,300
;   sequentialIslands,0
;   spiralVaseMode,0
;   firstLayerHeightPercentage,33
;   firstLayerWidthPercentage,150
;   firstLayerUnderspeed,0.6
;   useRaft,0
;   raftExtruder,0
;   raftLayers,3
;   raftOffset,3
;   raftSeparationDistance,0.14
;   raftInfill,85
;   disableRaftBaseLayers,0
;   useSkirt,1
;   skirtExtruder,0
;   skirtLayers,1
;   skirtOutlines,5
;   skirtOffset,0
;   usePrimePillar,0
;   primePillarExtruder,999
;   primePillarWidth,12
;   primePillarLocation,7
;   primePillarSpeedMultiplier,1
;   useOozeShield,0
;   oozeShieldExtruder,999
;   oozeShieldOffset,2
;   oozeShieldOutlines,1
;   oozeShieldSidewallShape,1
;   oozeShieldSidewallAngle,30
;   oozeShieldSpeedMultiplier,1
;   infillExtruder,0
;   internalInfillPattern,Rectilinear
;   externalInfillPattern,Rectilinear
;   infillPercentage,20
;   outlineOverlapPercentage,20
;   infillExtrusionWidthPercentage,100
;   minInfillLength,5
;   infillLayerInterval,1
;   infillAngles,45,-45
;   overlapInfillAngles,0
;   generateSupport,1
;   supportExtruder,0
;   supportInfillPercentage,30
;   supportExtraInflation,0
;   denseSupportLayers,0
;   denseSupportInfillPercentage,70
;   supportLayerInterval,1
;   supportHorizontalPartOffset,0.3
;   supportUpperSeparationLayers,1
;   supportLowerSeparationLayers,1
;   supportType,0
;   supportGridSpacing,4
;   maxOverhangAngle,45
;   supportAngles,0
;   temperatureName,Right Extruder,Left Extruder,Heated Build Platform
;   temperatureNumber,0,1,0
;   temperatureSetpointCount,2,1,4
;   temperatureSetpointLayers,1,2,1,1,2,3,4
;   temperatureSetpointTemperatures,235,230,0,115,115,115,110
;   temperatureStabilizeAtStartup,1,0,1
;   temperatureHeatedBed,0,0,1
;   temperatureRelayBetweenLayers,0,0,0
;   temperatureRelayBetweenLoops,0,0,0
;   fanLayers,1
;   fanSpeeds,0
;   blipFanToFullPower,0
;   adjustSpeedForCooling,1
;   minSpeedLayerTime,15
;   minCoolingSpeedSlowdown,20
;   increaseFanForCooling,0
;   minFanLayerTime,45
;   maxCoolingFanSpeed,100
;   increaseFanForBridging,0
;   bridgingFanSpeed,100
;   use5D,1
;   relativeEdistances,1
;   allowEaxisZeroing,0
;   independentExtruderAxes,1
;   includeM10123,0
;   stickySupport,1
;   applyToolheadOffsets,0
;   gcodeXoffset,0
;   gcodeYoffset,0
;   gcodeZoffset,0
;   overrideMachineDefinition,1
;   machineTypeOverride,0
;   strokeXoverride,250
;   strokeYoverride,150
;   strokeZoverride,150
;   originOffsetXoverride,125
;   originOffsetYoverride,75
;   originOffsetZoverride,0
;   homeXdirOverride,1
;   homeYdirOverride,1
;   homeZdirOverride,-1
;   flipXoverride,1
;   flipYoverride,-1
;   flipZoverride,1
;   toolheadOffsets,0,0|33,0|0,0|0,0|0,0|0,0
;   overrideFirmwareConfiguration,1
;   firmwareTypeOverride,MakerBot/Sailfish Firmware
;   GPXconfigOverride,r2x
;   baudRateOverride,115200
;   overridePrinterModels,1
;   printerModelsOverride,MakerBot_Replicator2X.stl
;   startingGcode,; **** Replicator 2X start.gcode ****,M73 P0 ; Enable build progress,G162 X Y F3000 ; Home XY maximum,G161 Z F1200 ; Home Z minimum,G92 Z-5 ; Set Z to -5,G1 Z0 ; Move Z to 0,G161 Z F100 ; Home Z slowly,M132 X Y Z A B ; Recall home offsets,M135 T0 ; Load right extruder offsets,G1 X-130 Y-75 Z30 F9000 ; Move to wait position off table,G130 X20 Y20 Z20 A20 B20 ; Lower stepper Vrefs while heating,M126 S[fan_speed_pwm] ; Set fan speed,M140 S[bed0_temperature] T0 ; Heat buildplate,M134 T0 ; Stabilize bed temperature,M104 S[extruder0_temperature] T0 ; Heat right extruder,M133 T0 ; Stabilize extruder temperature,G130 X127 Y127 Z40 A127 B127 ; Default stepper Vref,G92 A0 B0 ; Zero extruders,G1 X100 Y-70 F9000 ; Move to front right corner of bed,G1 Z0.3 F6000 ; Move down to purge,G1 X-90 Y-70 E24 F2000 ; Extrude a line of filament across the front edge of the bed,G1 X-100 Y-70 F180 ; Wait for ooze,G1 X-110 Y-70 F5000 ; Fast wipe,G1 Z0.5 F100 ; Lift,G92 A0 B0 ; Zero extruders,M73 P1 ;@body (notify GPX body has started),; **** end of start.gcode ****
;   layerChangeGcode,
;   retractionGcode,
;   toolChangeGcode,
;   endingGcode,; **** Replicator 2X end.gcode ****,M73 P100 ; end build progress,G1 Z155 F1000 ; send Z axis to bottom of machine,M140 S0 T0 ; cool down HBP,M104 S0 T0 ; cool down right extruder,M104 S0 T1 ; cool down left extruder,M127 ; stop blower fan,G162 X Y F3000 ; home XY maximum,M18 ; disable stepper,M72 P1 ; play Ta-Da song,; **** end of end.gcode ****
;   exportFileFormat,x3g
;   celebration,0
;   celebrationSong,Random Song
;   postProcessing,
;   defaultSpeed,4800
;   outlineUnderspeed,0.5
;   solidInfillUnderspeed,0.8
;   supportUnderspeed,0.8
;   rapidXYspeed,9000
;   rapidZspeed,1200
;   minBridgingArea,50
;   bridgingExtraInflation,0
;   bridgingExtrusionMultiplier,1
;   bridgingSpeedMultiplier,0.8
;   filamentDiameter,1.75
;   filamentPricePerKg,16
;   filamentDensity,1.25
;   useMinPrintHeight,0
;   minPrintHeight,0
;   useMaxPrintHeight,0
;   maxPrintHeight,0
;   useDiaphragm,0
;   diaphragmLayerInterval,20
;   robustSlicing,1
;   mergeAllIntoSolid,0
;   onlyRetractWhenCrossingOutline,1
;   retractBetweenLayers,1
;   useRetractionMinTravel,0
;   retractionMinTravel,3
;   retractWhileWiping,0
;   onlyWipeOutlines,1
;   avoidCrossingOutline,0
;   maxMovementDetourFactor,3
;   toolChangeRetractionDistance,12
;   toolChangeExtraRestartDistance,-0.5
;   toolChangeRetractionSpeed,600
;   allowThinWallGapFill,1
;   thinWallAllowedOverlapPercentage,10
;   horizontalSizeCompensation,0
G90
M83
; **** Replicator 2X start.gcode ****
M73 P0 ; Enable build progress
G162 X Y F3000 ; Home XY maximum
G161 Z F1200 ; Home Z minimum
G92 Z-5 ; Set Z to -5
G1 Z0 ; Move Z to 0
G161 Z F100 ; Home Z slowly
M132 X Y Z A B ; Recall home offsets
M135 T0 ; Load right extruder offsets
G1 X-130 Y-75 Z30 F9000 ; Move to wait position off table
G130 X20 Y20 Z20 A20 B20 ; Lower stepper Vrefs while heating
M127 ; Set fan speed
M140 S115 T0 ; Heat buildplate
M134 T0 ; Stabilize bed temperature
M104 S235 T0 ; Heat right extruder
M133 T0 ; Stabilize extruder temperature
G130 X127 Y127 Z40 A127 B127 ; Default stepper Vref
G92 A0 B0 ; Zero extruders
G1 X100 Y-70 F9000 ; Move to front right corner of bed
G1 Z0.3 F6000 ; Move down to purge
G1 X-90 Y-70 E24 F2000 ; Extrude a line of filament across the front edge of the bed
G1 X-100 Y-70 F180 ; Wait for ooze
G1 X-110 Y-70 F5000 ; Fast wipe
G1 Z0.5 F100 ; Lift
G92 A0 B0 ; Zero extruders
M73 P1 ;@body (notify GPX body has started)
; **** end of start.gcode ****
G1 E-1.0000 F1200
G1 Z0.066 F1200
; layer 1, Z = 0.066
M135 T0
; tool H0.200 W0.600
; skirt
G1 X0.243 Y-8.333 F9000
G1 E1.0000 F360
G1 X1.896 Y-8.420 E0.0826 F2880
G1 X3.545 Y-8.564 E0.0826
G1 X5.188 Y-8.766 E0.0826
G1 X6.823 Y-9.025 E0.0826
G1 X8.448 Y-9.340 E0.0826
G1 X10.061 Y-9.713 E0.0826
G1 X11.660 Y-10.141 E0.0826
G1 X13.243 Y-10.625 E0.0826
G1 X14.808 Y-11.164 E0.0826
G1 X16.353 Y-11.757 E0.0826
G1 X17.877 Y-12.404 E0.0826
G1 X19.378 Y-13.104 E0.0826
G1 X20.852 Y-13.855 E0.0826
G1 X22.300 Y-14.658 E0.0826
G1 X23.719 Y-15.510 E0.0826
G1 X25.108 Y-16.412 E0.0826
G1 X26.463 Y-17.361 E0.0826
G1 X27.785 Y-18.358 E0.0826
G1 X29.072 Y-19.399 E0.0826
G1 X30.321 Y-20.485 E0.0826
G1 X31.532 Y-21.614 E0.0826
G1 X32.702 Y-22.785 E0.0826
G1 X33.831 Y-23.996 E0.0826
G1 X34.917 Y-25.245 E0.0826
G1 X35.959 Y-26.531 E0.0826
G1 X36.955 Y-27.853 E0.0826
G1 X37.905 Y-29.209 E0.0826
G1 X38.806 Y-30.598 E0.0826
G1 X39.659 Y-32.017 E0.0826
G1 X40.461 Y-33.464 E0.0825
G1 X41.231 Y-34.978 E0.0847
G1 X41.913 Y-36.440 E0.0805
G1 X42.559 Y-37.963 E0.0826
G1 X43.153 Y-39.509 E0.0826
G1 X43.692 Y-41.074 E0.0826
G1 X44.176 Y-42.657 E0.0826
G1 X44.604 Y-44.256 E0.0826
G1 X44.976 Y-45.869 E0.0826
G1 X45.292 Y-47.494 E0.0826
G1 X45.551 Y-49.129 E0.0826
G1 X45.753 Y-50.772 E0.0826
G1 X45.897 Y-52.421 E0.0826
G1 X45.984 Y-54.074 E0.0826
G1 X46.026 Y-56.497 E0.1209
G1 X47.077 Y-57.529 E0.0735
G1 X64.434 Y-57.529 E0.8659
G1 X65.488 Y-56.475 E0.0744
G1 X65.488 Y-2.583 E2.6887
G1 X64.434 Y-1.529 E0.0744
G1 X-67.258 Y-1.529 E6.5701
G1 X-68.312 Y-2.583 E0.0744
G1 X-68.312 Y-56.475 E2.6887
G1 X-67.258 Y-57.529 E0.0744
G1 X-49.901 Y-57.529 E0.8659
G1 X-48.850 Y-56.497 E0.0735
G1 X-48.808 Y-54.074 E0.1209
G1 X-48.722 Y-52.421 E0.0826
G1 X-48.577 Y-50.772 E0.0826
G1 X-48.376 Y-49.129 E0.0826
G1 X-48.117 Y-47.494 E0.0826
G1 X-47.801 Y-45.869 E0.0826
G1 X-47.428 Y-44.256 E0.0826
G1 X-47.000 Y-42.657 E0.0826
G1 X-46.516 Y-41.074 E0.0826
G1 X-45.977 Y-39.509 E0.0826
G1 X-45.384 Y-37.963 E0.0826
G1 X-44.737 Y-36.440 E0.0826
G1 X-44.037 Y-34.939 E0.0826
G1 X-43.286 Y-33.465 E0.0826
G1 X-42.483 Y-32.016 E0.0826
G1 X-41.631 Y-30.598 E0.0826
G1 X-40.729 Y-29.209 E0.0826
G1 X-39.780 Y-27.853 E0.0826
G1 X-38.783 Y-26.531 E0.0826
G1 X-37.742 Y-25.245 E0.0826
G1 X-36.656 Y-23.996 E0.0826
G1 X-35.527 Y-22.785 E0.0826
G1 X-34.356 Y-21.614 E0.0826
G1 X-33.146 Y-20.485 E0.0826
G1 X-31.896 Y-19.399 E0.0826
G1 X-30.610 Y-18.358 E0.0826
G1 X-29.288 Y-17.361 E0.0826
G1 X-27.932 Y-16.412 E0.0826
G1 X-26.543 Y-15.510 E0.0826
G1 X-25.125 Y-14.658 E0.0826
G1 X-23.677 Y-13.855 E0.0826
G1 X-22.202 Y-13.104 E0.0826
G1 X-20.701 Y-12.404 E0.0826
G1 X-19.178 Y-11.757 E0.0826
G1 X-17.632 Y-11.164 E0.0826
G1 X-16.067 Y-10.625 E0.0826
G1 X-14.484 Y-10.141 E0.0826
G1 X-12.886 Y-9.713 E0.0826
G1 X-11.272 Y-9.340 E0.0826
G1 X-9.647 Y-9.025 E0.0826
G1 X-8.012 Y-8.766 E0.0826
G1 X-6.369 Y-8.564 E0.0826
G1 X-4.720 Y-8.420 E0.0826
G1 X-3.067 Y-8.333 E0.0826
G1 X-1.412 Y-8.304 E0.0826
G1 X0.243 Y-8.333 E0.0826
G1 X0.257 Y-7.933 F9000
G1 X1.924 Y-8.021 E0.0833 F2880
G1 X3.587 Y-8.166 E0.0833
G1 X5.244 Y-8.369 E0.0833
G1 X6.892 Y-8.631 E0.0833
G1 X8.531 Y-8.949 E0.0833
G1 X10.158 Y-9.325 E0.0833
G1 X11.770 Y-9.757 E0.0833
G1 X13.367 Y-10.245 E0.0833
G1 X14.945 Y-10.788 E0.0833
G1 X16.503 Y-11.386 E0.0833
G1 X18.040 Y-12.039 E0.0833
G1 X19.553 Y-12.744 E0.0833
G1 X21.040 Y-13.502 E0.0833
G1 X22.500 Y-14.311 E0.0833
G1 X23.931 Y-15.171 E0.0833
G1 X25.331 Y-16.080 E0.0833
G1 X26.699 Y-17.038 E0.0833
G1 X28.032 Y-18.042 E0.0833
G1 X29.329 Y-19.093 E0.0833
G1 X30.589 Y-20.188 E0.0833
G1 X31.810 Y-21.327 E0.0833
G1 X32.990 Y-22.507 E0.0833
G1 X34.129 Y-23.728 E0.0833
G1 X35.224 Y-24.988 E0.0833
G1 X36.275 Y-26.285 E0.0833
G1 X37.279 Y-27.618 E0.0833
G1 X38.237 Y-28.986 E0.0833
G1 X39.146 Y-30.386 E0.0833
G1 X40.005 Y-31.817 E0.0833
G1 X40.815 Y-33.276 E0.0833
G1 X41.591 Y-34.803 E0.0854
G1 X42.278 Y-36.277 E0.0812
G1 X42.930 Y-37.814 E0.0833
G1 X43.529 Y-39.372 E0.0833
G1 X44.072 Y-40.950 E0.0833
G1 X44.560 Y-42.547 E0.0833
G1 X44.992 Y-44.159 E0.0833
G1 X45.368 Y-45.786 E0.0833
G1 X45.686 Y-47.424 E0.0833
G1 X45.947 Y-49.073 E0.0833
G1 X46.151 Y-50.730 E0.0833
G1 X46.296 Y-52.393 E0.0833
G1 X46.384 Y-54.060 E0.0833
G1 X46.423 Y-56.326 E0.1131
G1 X47.240 Y-57.129 E0.0571
G1 X64.268 Y-57.129 E0.8495
G1 X65.088 Y-56.309 E0.0579
G1 X65.088 Y-2.749 E2.6721
G1 X64.268 Y-1.929 E0.0579
G1 X-67.092 Y-1.929 E6.5536
G1 X-67.912 Y-2.749 E0.0579
G1 X-67.912 Y-56.309 E2.6721
G1 X-67.092 Y-57.129 E0.0579
G1 X-50.065 Y-57.129 E0.8495
G1 X-49.248 Y-56.326 E0.0571
G1 X-49.208 Y-54.060 E0.1131
G1 X-49.121 Y-52.393 E0.0833
G1 X-48.975 Y-50.730 E0.0833
G1 X-48.772 Y-49.073 E0.0833
G1 X-48.511 Y-47.424 E0.0833
G1 X-48.192 Y-45.786 E0.0833
G1 X-47.817 Y-44.159 E0.0833
G1 X-47.384 Y-42.547 E0.0833
G1 X-46.896 Y-40.950 E0.0833
G1 X-46.353 Y-39.372 E0.0833
G1 X-45.755 Y-37.814 E0.0833
G1 X-45.102 Y-36.277 E0.0833
G1 X-44.397 Y-34.764 E0.0833
G1 X-43.639 Y-33.277 E0.0833
G1 X-42.830 Y-31.817 E0.0833
G1 X-41.970 Y-30.386 E0.0833
G1 X-41.061 Y-28.986 E0.0833
G1 X-40.103 Y-27.618 E0.0833
G1 X-39.099 Y-26.285 E0.0833
G1 X-38.048 Y-24.988 E0.0833
G1 X-36.953 Y-23.728 E0.0833
G1 X-35.815 Y-22.507 E0.0833
G1 X-34.634 Y-21.327 E0.0833
G1 X-33.413 Y-20.188 E0.0833
G1 X-32.153 Y-19.093 E0.0833
G1 X-30.856 Y-18.042 E0.0833
G1 X-29.523 Y-17.038 E0.0833
G1 X-28.156 Y-16.080 E0.0833
G1 X-26.756 Y-15.171 E0.0833
G1 X-25.325 Y-14.311 E0.0833
G1 X-23.865 Y-13.502 E0.0833
G1 X-22.377 Y-12.744 E0.0833
G1 X-20.864 Y-12.039 E0.0833
G1 X-19.328 Y-11.386 E0.0833
G1 X-17.769 Y-10.788 E0.0833
G1 X-16.191 Y-10.245 E0.0833
G1 X-14.594 Y-9.757 E0.0833
G1 X-12.982 Y-9.325 E0.0833
G1 X-11.356 Y-8.949 E0.0833
G1 X-9.717 Y-8.631 E0.0833
G1 X-8.068 Y-8.369 E0.0833
G1 X-6.411 Y-8.166 E0.0833
G1 X-4.748 Y-8.021 E0.0833
G1 X-3.081 Y-7.933 E0.0833
G1 X-1.412 Y-7.904 E0.0833
G1 X0.257 Y-7.933 E0.0833
G1 X0.271 Y-7.533 F9000
G1 X1.952 Y-7.621 E0.0840 F2880
G1 X3.629 Y-7.768 E0.0840
G1 X5.299 Y-7.973 E0.0840
G1 X6.962 Y-8.237 E0.0840
G1 X8.614 Y-8.558 E0.0840
G1 X10.255 Y-8.937 E0.0840
G1 X11.880 Y-9.372 E0.0840
G1 X13.490 Y-9.864 E0.0840
G1 X15.082 Y-10.412 E0.0840
G1 X16.653 Y-11.016 E0.0840
G1 X18.203 Y-11.673 E0.0840
G1 X19.728 Y-12.385 E0.0840
G1 X21.228 Y-13.149 E0.0840
G1 X22.700 Y-13.965 E0.0840
G1 X24.143 Y-14.832 E0.0840
G1 X25.555 Y-15.749 E0.0840
G1 X26.934 Y-16.714 E0.0840
G1 X28.278 Y-17.727 E0.0840
G1 X29.586 Y-18.786 E0.0840
G1 X30.857 Y-19.891 E0.0840
G1 X32.088 Y-21.039 E0.0840
G1 X33.278 Y-22.229 E0.0840
G1 X34.426 Y-23.460 E0.0840
G1 X35.530 Y-24.731 E0.0840
G1 X36.590 Y-26.039 E0.0840
G1 X37.603 Y-27.383 E0.0840
G1 X38.568 Y-28.762 E0.0840
G1 X39.485 Y-30.174 E0.0840
G1 X40.352 Y-31.617 E0.0840
G1 X41.168 Y-33.088 E0.0839
G1 X41.950 Y-34.628 E0.0862
G1 X42.644 Y-36.114 E0.0818
G1 X43.301 Y-37.664 E0.0840
G1 X43.905 Y-39.235 E0.0840
G1 X44.453 Y-40.827 E0.0840
G1 X44.945 Y-42.436 E0.0840
G1 X45.380 Y-44.062 E0.0840
G1 X45.759 Y-45.702 E0.0840
G1 X46.080 Y-47.355 E0.0840
G1 X46.344 Y-49.017 E0.0840
G1 X46.549 Y-50.688 E0.0840
G1 X46.695 Y-52.365 E0.0840
G1 X46.783 Y-54.046 E0.0840
G1 X46.820 Y-56.156 E0.1053
G1 X47.404 Y-56.729 E0.0408
G1 X64.102 Y-56.729 E0.8331
G1 X64.688 Y-56.143 E0.0413
G1 X64.688 Y-2.914 E2.6556
G1 X64.102 Y-2.329 E0.0413
G1 X-66.927 Y-2.329 E6.5371
G1 X-67.512 Y-2.914 E0.0413
G1 X-67.512 Y-56.143 E2.6556
G1 X-66.927 Y-56.729 E0.0413
G1 X-50.228 Y-56.729 E0.8331
G1 X-49.645 Y-56.156 E0.0408
G1 X-49.608 Y-54.046 E0.1053
G1 X-49.520 Y-52.365 E0.0840
G1 X-49.373 Y-50.688 E0.0840
G1 X-49.168 Y-49.017 E0.0840
G1 X-48.905 Y-47.355 E0.0840
G1 X-48.583 Y-45.702 E0.0840
G1 X-48.205 Y-44.062 E0.0840
G1 X-47.769 Y-42.436 E0.0840
G1 X-47.277 Y-40.827 E0.0840
G1 X-46.729 Y-39.235 E0.0840
G1 X-46.126 Y-37.664 E0.0840
G1 X-45.468 Y-36.114 E0.0840
G1 X-44.757 Y-34.589 E0.0840
G1 X-43.992 Y-33.089 E0.0840
G1 X-43.176 Y-31.617 E0.0840
G1 X-42.309 Y-30.174 E0.0840
G1 X-41.393 Y-28.762 E0.0840
G1 X-40.427 Y-27.383 E0.0840
G1 X-39.414 Y-26.039 E0.0840
G1 X-38.355 Y-24.731 E0.0840
G1 X-37.250 Y-23.460 E0.0840
G1 X-36.102 Y-22.229 E0.0840
G1 X-34.912 Y-21.039 E0.0840
G1 X-33.681 Y-19.891 E0.0840
G1 X-32.410 Y-18.786 E0.0840
G1 X-31.103 Y-17.727 E0.0840
G1 X-29.758 Y-16.714 E0.0840
G1 X-28.379 Y-15.749 E0.0840
G1 X-26.968 Y-14.832 E0.0840
G1 X-25.525 Y-13.965 E0.0840
G1 X-24.053 Y-13.149 E0.0840
G1 X-22.553 Y-12.385 E0.0840
G1 X-21.027 Y-11.673 E0.0840
G1 X-19.477 Y-11.015 E0.0840
G1 X-17.906 Y-10.412 E0.0840
G1 X-16.315 Y-9.864 E0.0840
G1 X-14.705 Y-9.372 E0.0840
