; G-Code generated by Simplify3D(R) Version 3.1.1
; Dec 25, 2016 at 12:24:20 PM
; Settings Summary
;   processName,Process1
;   applyToModels,Track 2
;   profileName,MakerBot Replicator 2X (modified)
;   profileVersion,2015-05-01 08:00:00
;   baseProfile,
;   printMaterial,ABS
;   printQuality,Medium
;   printExtruders,Right Extruder Only
;   extruderName,Right Extruder,Left Extruder
;   extruderToolheadNumber,0,1
;   extruderDiameter,0.4,0.4
;   extruderAutoWidth,0,0
;   extruderWidth,0.4,0.4
;   extrusionMultiplier,1,1
;   extruderUseRetract,1,1
;   extruderRetractionDistance,1,1
;   extruderExtraRestartDistance,0,0
;   extruderRetractionZLift,0,0
;   extruderRetractionSpeed,1200,1200
;   extruderUseCoasting,0,0
;   extruderCoastingDistance,0.2,0.2
;   extruderUseWipe,0,0
;   extruderWipeDistance,5,5
;   primaryExtruder,0
;   layerHeight,0.2
;   topSolidLayers,3
;   bottomSolidLayers,3
;   perimeterOutlines,3
;   printPerimetersInsideOut,1
;   startPointOption,2
;   startPointOriginX,0
;   startPointOriginY,0
;   startPointOriginZ,300
;   sequentialIslands,0
;   spiralVaseMode,0
;   firstLayerHeightPercentage,25
;   firstLayerWidthPercentage,150
;   firstLayerUnderspeed,0.4
;   useRaft,0
;   raftExtruder,0
;   raftLayers,3
;   raftOffset,3
;   raftSeparationDistance,0.14
;   raftInfill,85
;   disableRaftBaseLayers,0
;   useSkirt,1
;   skirtExtruder,0
;   skirtLayers,1
;   skirtOutlines,2
;   skirtOffset,4
;   usePrimePillar,0
;   primePillarExtruder,999
;   primePillarWidth,12
;   primePillarLocation,7
;   primePillarSpeedMultiplier,1
;   useOozeShield,0
;   oozeShieldExtruder,999
;   oozeShieldOffset,2
;   oozeShieldOutlines,1
;   oozeShieldSidewallShape,1
;   oozeShieldSidewallAngle,30
;   oozeShieldSpeedMultiplier,1
;   infillExtruder,0
;   internalInfillPattern,Rectilinear
;   externalInfillPattern,Rectilinear
;   infillPercentage,20
;   outlineOverlapPercentage,20
;   infillExtrusionWidthPercentage,100
;   minInfillLength,5
;   infillLayerInterval,1
;   infillAngles,45,-45
;   overlapInfillAngles,0
;   generateSupport,1
;   supportExtruder,0
;   supportInfillPercentage,30
;   supportExtraInflation,0
;   denseSupportLayers,0
;   denseSupportInfillPercentage,70
;   supportLayerInterval,1
;   supportHorizontalPartOffset,0.3
;   supportUpperSeparationLayers,1
;   supportLowerSeparationLayers,1
;   supportType,0
;   supportGridSpacing,4
;   maxOverhangAngle,45
;   supportAngles,0
;   temperatureName,Right Extruder,Left Extruder,Heated Build Platform
;   temperatureNumber,0,1,0
;   temperatureSetpointCount,2,1,7
;   temperatureSetpointLayers,1,2,1,1,2,3,4,5,6,7
;   temperatureSetpointTemperatures,235,230,0,115,115,115,110,110,110,105
;   temperatureStabilizeAtStartup,1,0,1
;   temperatureHeatedBed,0,0,1
;   temperatureRelayBetweenLayers,0,0,0
;   temperatureRelayBetweenLoops,0,0,0
;   fanLayers,1
;   fanSpeeds,0
;   blipFanToFullPower,0
;   adjustSpeedForCooling,1
;   minSpeedLayerTime,15
;   minCoolingSpeedSlowdown,20
;   increaseFanForCooling,0
;   minFanLayerTime,45
;   maxCoolingFanSpeed,100
;   increaseFanForBridging,0
;   bridgingFanSpeed,100
;   use5D,1
;   relativeEdistances,1
;   allowEaxisZeroing,0
;   independentExtruderAxes,1
;   includeM10123,0
;   stickySupport,1
;   applyToolheadOffsets,0
;   gcodeXoffset,0
;   gcodeYoffset,0
;   gcodeZoffset,0
;   overrideMachineDefinition,1
;   machineTypeOverride,0
;   strokeXoverride,250
;   strokeYoverride,150
;   strokeZoverride,150
;   originOffsetXoverride,125
;   originOffsetYoverride,75
;   originOffsetZoverride,0
;   homeXdirOverride,1
;   homeYdirOverride,1
;   homeZdirOverride,-1
;   flipXoverride,1
;   flipYoverride,-1
;   flipZoverride,1
;   toolheadOffsets,0,0|33,0|0,0|0,0|0,0|0,0
;   overrideFirmwareConfiguration,1
;   firmwareTypeOverride,MakerBot/Sailfish Firmware
;   GPXconfigOverride,r2x
;   baudRateOverride,115200
;   overridePrinterModels,1
;   printerModelsOverride,MakerBot_Replicator2X.stl
;   startingGcode,; **** Replicator 2X start.gcode ****,M73 P0 ; Enable build progress,G162 X Y F3000 ; Home XY maximum,G161 Z F1200 ; Home Z minimum,G92 Z-5 ; Set Z to -5,G1 Z0 ; Move Z to 0,G161 Z F100 ; Home Z slowly,M132 X Y Z A B ; Recall home offsets,M135 T0 ; Load right extruder offsets,G1 X-130 Y-75 Z30 F9000 ; Move to wait position off table,G130 X20 Y20 Z20 A20 B20 ; Lower stepper Vrefs while heating,M126 S[fan_speed_pwm] ; Set fan speed,M140 S[bed0_temperature] T0 ; Heat buildplate,M134 T0 ; Stabilize bed temperature,M104 S[extruder0_temperature] T0 ; Heat right extruder,M133 T0 ; Stabilize extruder temperature,G130 X127 Y127 Z40 A127 B127 ; Default stepper Vref,G92 A0 B0 ; Zero extruders,G1 X100 Y-70 F9000 ; Move to front right corner of bed,G1 Z0.3 F6000 ; Move down to purge,G1 X-90 Y-70 E24 F2000 ; Extrude a line of filament across the front edge of the bed,G1 X-100 Y-70 F180 ; Wait for ooze,G1 X-110 Y-70 F5000 ; Fast wipe,G1 Z0.5 F100 ; Lift,G92 A0 B0 ; Zero extruders,M73 P1 ;@body (notify GPX body has started),; **** end of start.gcode ****
;   layerChangeGcode,
;   retractionGcode,
;   toolChangeGcode,
;   endingGcode,; **** Replicator 2X end.gcode ****,M73 P100 ; end build progress,G1 Z155 F1000 ; send Z axis to bottom of machine,M140 S0 T0 ; cool down HBP,M104 S0 T0 ; cool down right extruder,M104 S0 T1 ; cool down left extruder,M127 ; stop blower fan,G162 X Y F3000 ; home XY maximum,M18 ; disable stepper,M72 P1 ; play Ta-Da song,; **** end of end.gcode ****
;   exportFileFormat,x3g
;   celebration,0
;   celebrationSong,Random Song
;   postProcessing,
;   defaultSpeed,4800
;   outlineUnderspeed,0.5
;   solidInfillUnderspeed,0.8
;   supportUnderspeed,0.8
;   rapidXYspeed,9000
;   rapidZspeed,1200
;   minBridgingArea,50
;   bridgingExtraInflation,0
;   bridgingExtrusionMultiplier,1
;   bridgingSpeedMultiplier,0.8
;   filamentDiameter,1.75
;   filamentPricePerKg,16
;   filamentDensity,1.25
;   useMinPrintHeight,0
;   minPrintHeight,0
;   useMaxPrintHeight,0
;   maxPrintHeight,0
;   useDiaphragm,0
;   diaphragmLayerInterval,20
;   robustSlicing,1
;   mergeAllIntoSolid,0
;   onlyRetractWhenCrossingOutline,1
;   retractBetweenLayers,1
;   useRetractionMinTravel,0
;   retractionMinTravel,3
;   retractWhileWiping,0
;   onlyWipeOutlines,1
;   avoidCrossingOutline,0
;   maxMovementDetourFactor,3
;   toolChangeRetractionDistance,12
;   toolChangeExtraRestartDistance,-0.5
;   toolChangeRetractionSpeed,600
;   allowThinWallGapFill,1
;   thinWallAllowedOverlapPercentage,10
;   horizontalSizeCompensation,0
G90
M83
; **** Replicator 2X start.gcode ****
M73 P0 ; Enable build progress
G162 X Y F3000 ; Home XY maximum
G161 Z F1200 ; Home Z minimum
G92 Z-5 ; Set Z to -5
G1 Z0 ; Move Z to 0
G161 Z F100 ; Home Z slowly
M132 X Y Z A B ; Recall home offsets
M135 T0 ; Load right extruder offsets
G1 X-130 Y-75 Z30 F9000 ; Move to wait position off table
G130 X20 Y20 Z20 A20 B20 ; Lower stepper Vrefs while heating
M127 ; Set fan speed
M140 S115 T0 ; Heat buildplate
M134 T0 ; Stabilize bed temperature
M104 S235 T0 ; Heat right extruder
M133 T0 ; Stabilize extruder temperature
G130 X127 Y127 Z40 A127 B127 ; Default stepper Vref
G92 A0 B0 ; Zero extruders
G1 X100 Y-70 F9000 ; Move to front right corner of bed
G1 Z0.3 F6000 ; Move down to purge
G1 X-90 Y-70 E24 F2000 ; Extrude a line of filament across the front edge of the bed
G1 X-100 Y-70 F180 ; Wait for ooze
G1 X-110 Y-70 F5000 ; Fast wipe
G1 Z0.5 F100 ; Lift
G92 A0 B0 ; Zero extruders
M73 P1 ;@body (notify GPX body has started)
; **** end of start.gcode ****
G1 E-1.0000 F1200
G1 Z0.050 F1200
; layer 1, Z = 0.05
M135 T0
; tool H0.200 W0.600
; skirt
G1 X0.008 Y-22.170 F9000
G1 E1.0000 F360
G1 X-1.558 Y-22.143 E0.0781 F1920
G1 X-3.104 Y-22.062 E0.0773
G1 X-4.657 Y-21.926 E0.0777
G1 X-6.203 Y-21.737 E0.0777
G1 X-7.741 Y-21.493 E0.0777
G1 X-9.270 Y-21.196 E0.0777
G1 X-10.788 Y-20.846 E0.0777
G1 X-12.293 Y-20.443 E0.0777
G1 X-13.782 Y-19.988 E0.0777
G1 X-15.255 Y-19.482 E0.0777
G1 X-16.709 Y-18.924 E0.0777
G1 X-18.151 Y-18.312 E0.0782
G1 X-19.554 Y-17.657 E0.0773
G1 X-20.943 Y-16.950 E0.0777
G1 X-22.305 Y-16.196 E0.0777
G1 X-23.640 Y-15.394 E0.0777
G1 X-24.946 Y-14.546 E0.0777
G1 X-26.223 Y-13.652 E0.0777
G1 X-27.467 Y-12.715 E0.0777
G1 X-28.677 Y-11.735 E0.0777
G1 X-29.853 Y-10.714 E0.0777
G1 X-30.999 Y-9.646 E0.0781
G1 X-32.094 Y-8.551 E0.0772
G1 X-33.156 Y-7.412 E0.0777
G1 X-34.178 Y-6.237 E0.0777
G1 X-35.165 Y-5.019 E0.0782
G1 X-36.096 Y-3.783 E0.0772
G1 X-36.990 Y-2.507 E0.0778
G1 X-37.844 Y-1.193 E0.0782
G1 X-38.641 Y0.134 E0.0772
G1 X-39.396 Y1.496 E0.0777
G1 X-40.104 Y2.884 E0.0777
G1 X-40.767 Y4.304 E0.0782
G1 X-41.371 Y5.728 E0.0772
G1 X-41.930 Y7.182 E0.0777
G1 X-42.441 Y8.665 E0.0783
G1 X-42.892 Y10.143 E0.0771
G1 X-43.296 Y11.649 E0.0778
G1 X-43.647 Y13.166 E0.0777
G1 X-43.944 Y14.695 E0.0777
G1 X-44.188 Y16.233 E0.0777
G1 X-44.379 Y17.779 E0.0777
G1 X-44.515 Y19.330 E0.0777
G1 X-44.597 Y20.885 E0.0777
G1 X-44.657 Y24.290 E0.1699
G1 X-44.750 Y24.506 E0.0118
G1 X-47.253 Y26.965 E0.1750
G1 X-47.471 Y27.054 E0.0118
G1 X-66.876 Y27.054 E0.9681
G1 X-67.097 Y26.963 E0.0119
G1 X-69.609 Y24.451 E0.1772
G1 X-69.700 Y24.231 E0.0119
G1 X-69.700 Y-31.722 E2.7915
G1 X-69.609 Y-31.943 E0.0119
G1 X-67.097 Y-34.455 E0.1772
G1 X-66.876 Y-34.546 E0.0119
G1 X66.876 Y-34.546 E6.6730
G1 X67.097 Y-34.455 E0.0119
G1 X69.609 Y-31.943 E0.1772
G1 X69.700 Y-31.722 E0.0119
G1 X69.700 Y24.231 E2.7915
G1 X69.609 Y24.451 E0.0119
G1 X67.097 Y26.963 E0.1772
G1 X66.876 Y27.054 E0.0119
G1 X47.471 Y27.054 E0.9682
G1 X47.252 Y26.965 E0.0118
G1 X44.750 Y24.506 E0.1751
G1 X44.657 Y24.289 E0.0118
G1 X44.598 Y20.910 E0.1686
G1 X44.516 Y19.353 E0.0778
G1 X44.381 Y17.802 E0.0777
G1 X44.192 Y16.255 E0.0777
G1 X43.948 Y14.716 E0.0777
G1 X43.652 Y13.188 E0.0777
G1 X43.301 Y11.669 E0.0778
G1 X42.899 Y10.165 E0.0777
G1 X42.443 Y8.675 E0.0777
G1 X41.933 Y7.191 E0.0783
G1 X41.379 Y5.748 E0.0771
G1 X40.770 Y4.314 E0.0777
G1 X40.124 Y2.926 E0.0764
G1 X39.405 Y1.512 E0.0791
G1 X38.651 Y0.151 E0.0776
G1 X37.849 Y-1.185 E0.0777
G1 X36.995 Y-2.500 E0.0782
G1 X36.108 Y-3.767 E0.0772
G1 X35.170 Y-5.012 E0.0778
G1 X34.184 Y-6.230 E0.0782
G1 X33.169 Y-7.398 E0.0772
G1 X32.106 Y-8.538 E0.0777
G1 X31.005 Y-9.639 E0.0777
G1 X29.859 Y-10.708 E0.0782
G1 X28.691 Y-11.724 E0.0772
G1 X27.480 Y-12.705 E0.0777
G1 X26.236 Y-13.642 E0.0777
G1 X24.961 Y-14.536 E0.0777
G1 X23.654 Y-15.385 E0.0777
G1 X22.320 Y-16.187 E0.0777
G1 X20.957 Y-16.943 E0.0777
G1 X19.570 Y-17.650 E0.0777
G1 X18.158 Y-18.309 E0.0777
G1 X16.716 Y-18.921 E0.0782
G1 X15.271 Y-19.476 E0.0772
G1 X13.797 Y-19.983 E0.0777
G1 X12.308 Y-20.439 E0.0777
G1 X10.804 Y-20.842 E0.0777
G1 X9.286 Y-21.193 E0.0777
G1 X7.757 Y-21.491 E0.0777
G1 X6.218 Y-21.735 E0.0777
G1 X4.673 Y-21.925 E0.0777
G1 X3.121 Y-22.061 E0.0777
G1 X1.566 Y-22.142 E0.0777
G1 X0.008 Y-22.170 E0.0777
G1 X0.008 Y-22.570 F9000
G1 X-1.571 Y-22.543 E0.0788 F1920
G1 X-3.133 Y-22.461 E0.0780
G1 X-4.698 Y-22.324 E0.0784
G1 X-6.258 Y-22.133 E0.0784
G1 X-7.810 Y-21.887 E0.0784
G1 X-9.353 Y-21.588 E0.0784
G1 X-10.885 Y-21.234 E0.0784
G1 X-12.403 Y-20.828 E0.0784
G1 X-13.905 Y-20.369 E0.0784
G1 X-15.392 Y-19.857 E0.0784
G1 X-16.859 Y-19.295 E0.0784
G1 X-18.314 Y-18.677 E0.0789
G1 X-19.729 Y-18.017 E0.0779
G1 X-21.130 Y-17.304 E0.0784
G1 X-22.505 Y-16.542 E0.0784
G1 X-23.852 Y-15.733 E0.0784
G1 X-25.170 Y-14.877 E0.0784
G1 X-26.458 Y-13.976 E0.0784
G1 X-27.713 Y-13.030 E0.0784
G1 X-28.934 Y-12.042 E0.0784
G1 X-30.121 Y-11.011 E0.0784
G1 X-31.277 Y-9.933 E0.0789
G1 X-32.381 Y-8.829 E0.0779
G1 X-33.454 Y-7.680 E0.0784
G1 X-34.485 Y-6.494 E0.0784
G1 X-35.480 Y-5.265 E0.0789
G1 X-36.420 Y-4.018 E0.0779
G1 X-37.322 Y-2.730 E0.0785
G1 X-38.183 Y-1.405 E0.0789
G1 X-38.987 Y-0.066 E0.0779
G1 X-39.749 Y1.308 E0.0784
G1 X-40.463 Y2.708 E0.0784
G1 X-41.132 Y4.141 E0.0789
G1 X-41.742 Y5.578 E0.0779
G1 X-42.306 Y7.046 E0.0784
G1 X-42.821 Y8.542 E0.0789
G1 X-43.277 Y10.033 E0.0778
G1 X-43.684 Y11.552 E0.0784
G1 X-44.038 Y13.082 E0.0784
G1 X-44.338 Y14.625 E0.0784
G1 X-44.585 Y16.177 E0.0784
G1 X-44.776 Y17.737 E0.0784
G1 X-44.914 Y19.302 E0.0784
G1 X-44.996 Y20.871 E0.0784
G1 X-45.056 Y24.204 E0.1663
G1 X-45.087 Y24.276 E0.0039
G1 X-47.477 Y26.625 E0.1672
G1 X-47.550 Y26.654 E0.0039
G1 X-66.797 Y26.654 E0.9602
G1 X-66.870 Y26.624 E0.0040
G1 X-69.270 Y24.224 E0.1693
G1 X-69.300 Y24.151 E0.0040
G1 X-69.300 Y-31.643 E2.7836
G1 X-69.270 Y-31.716 E0.0040
G1 X-66.870 Y-34.115 E0.1693
G1 X-66.797 Y-34.146 E0.0040
G1 X66.797 Y-34.146 E6.6650
G1 X66.870 Y-34.115 E0.0040
G1 X69.270 Y-31.716 E0.1693
G1 X69.300 Y-31.643 E0.0040
G1 X69.300 Y24.151 E2.7836
G1 X69.270 Y24.225 E0.0040
G1 X66.870 Y26.624 E0.1693
G1 X66.797 Y26.654 E0.0040
G1 X47.549 Y26.654 E0.9603
G1 X47.477 Y26.625 E0.0039
G1 X45.086 Y24.275 E0.1672
G1 X45.055 Y24.203 E0.0039
G1 X44.997 Y20.896 E0.1650
G1 X44.915 Y19.326 E0.0784
G1 X44.779 Y17.760 E0.0784
G1 X44.588 Y16.200 E0.0784
G1 X44.342 Y14.647 E0.0784
G1 X44.043 Y13.105 E0.0784
G1 X43.690 Y11.573 E0.0784
G1 X43.283 Y10.055 E0.0784
G1 X42.824 Y8.551 E0.0784
G1 X42.309 Y7.055 E0.0790
G1 X41.750 Y5.598 E0.0778
G1 X41.136 Y4.151 E0.0784
G1 X40.484 Y2.751 E0.0770
G1 X39.758 Y1.324 E0.0798
G1 X38.997 Y-0.049 E0.0783
G1 X38.188 Y-1.397 E0.0784
G1 X37.327 Y-2.723 E0.0789
G1 X36.431 Y-4.002 E0.0779
G1 X35.485 Y-5.258 E0.0784
G1 X34.491 Y-6.487 E0.0789
G1 X33.466 Y-7.665 E0.0779
G1 X32.394 Y-8.816 E0.0784
G1 X31.283 Y-9.927 E0.0784
G1 X30.127 Y-11.006 E0.0789
G1 X28.948 Y-12.030 E0.0779
G1 X27.727 Y-13.020 E0.0784
G1 X26.472 Y-13.966 E0.0784
G1 X25.184 Y-14.868 E0.0784
G1 X23.867 Y-15.724 E0.0784
G1 X22.520 Y-16.533 E0.0784
G1 X21.145 Y-17.296 E0.0784
G1 X19.745 Y-18.009 E0.0784
G1 X18.321 Y-18.674 E0.0784
G1 X16.866 Y-19.292 E0.0789
G1 X15.408 Y-19.852 E0.0779
G1 X13.921 Y-20.364 E0.0784
G1 X12.418 Y-20.823 E0.0784
G1 X10.900 Y-21.231 E0.0784
G1 X9.369 Y-21.584 E0.0784
G1 X7.826 Y-21.885 E0.0784
G1 X6.274 Y-22.131 E0.0784
G1 X4.715 Y-22.322 E0.0784
G1 X3.149 Y-22.460 E0.0784
G1 X1.580 Y-22.542 E0.0784
G1 X0.008 Y-22.570 E0.0784
G1 E-1.0000 F1200
; inner perimeter
G1 X5.285 Y-27.995 F9000
G1 E1.0000 F1200
G1 X5.312 Y-28.446 E0.0225 F1600
G1 X63.600 Y-28.446 E2.9080
G1 X63.600 Y-22.399 E0.3017
G1 X62.850 Y-23.204 E0.0549
G1 X62.552 Y-23.445 E0.0191
G1 X62.253 Y-23.639 E0.0178
G1 X61.935 Y-23.801 E0.0178
G1 X61.602 Y-23.928 E0.0178
G1 X61.258 Y-24.020 E0.0178
G1 X60.906 Y-24.076 E0.0178
G1 X60.549 Y-24.095 E0.0178
G1 X60.167 Y-24.075 E0.0191
G1 X59.661 Y-23.976 E0.0257
G1 X59.448 Y-23.911 E0.0111
G1 X58.972 Y-23.709 E0.0258
G1 X58.644 Y-23.512 E0.0191
G1 X58.359 Y-23.297 E0.0178
G1 X58.099 Y-23.054 E0.0178
G1 X57.848 Y-22.765 E0.0191
G1 X57.553 Y-22.310 E0.0270
G1 X57.391 Y-21.963 E0.0191
G1 X57.266 Y-21.601 E0.0191
G1 X57.163 Y-21.069 E0.0270
G1 X57.143 Y-20.687 E0.0191
G1 X57.163 Y-20.304 E0.0191
G1 X57.272 Y-19.747 E0.0283
G1 X57.476 Y-19.216 E0.0284
G1 X57.661 Y-18.881 E0.0191
G1 X57.881 Y-18.568 E0.0191
G1 X58.251 Y-18.172 E0.0270
G1 X58.548 Y-17.931 E0.0191
G1 X58.847 Y-17.737 E0.0178
G1 X59.165 Y-17.575 E0.0178
G1 X59.498 Y-17.447 E0.0178
G1 X59.843 Y-17.355 E0.0178
G1 X60.221 Y-17.295 E0.0191
G1 X60.763 Y-17.286 E0.0270
G1 X61.143 Y-17.333 E0.0191
G1 X61.516 Y-17.419 E0.0191
G1 X62.022 Y-17.613 E0.0270
G1 X62.356 Y-17.799 E0.0191
G1 X62.670 Y-18.019 E0.0191
G1 X63.066 Y-18.388 E0.0270
G1 X63.600 Y-19.048 E0.0423
G1 X63.600 Y-8.164 E0.5430
G1 X63.100 Y-8.827 E0.0414
G1 X62.829 Y-9.098 E0.0191
G1 X62.532 Y-9.339 E0.0191
G1 X62.067 Y-9.618 E0.0270
G1 X61.715 Y-9.767 E0.0191
G1 X61.348 Y-9.879 E0.0191
G1 X60.813 Y-9.964 E0.0270
G1 X60.430 Y-9.970 E0.0191
G1 X60.075 Y-9.939 E0.0178
G1 X59.725 Y-9.871 E0.0178
G1 X59.384 Y-9.767 E0.0178
G1 X59.056 Y-9.627 E0.0178
G1 X58.744 Y-9.454 E0.0178
G1 X58.452 Y-9.250 E0.0178
G1 X58.163 Y-8.998 E0.0191
G1 X57.808 Y-8.589 E0.0270
G1 X57.599 Y-8.268 E0.0191
G1 X57.425 Y-7.927 E0.0191
G1 X57.258 Y-7.440 E0.0257
G1 X57.208 Y-7.222 E0.0111
G1 X57.145 Y-6.710 E0.0258
G1 X57.151 Y-6.327 E0.0191
G1 X57.195 Y-5.973 E0.0178
G1 X57.275 Y-5.625 E0.0178
G1 X57.400 Y-5.263 E0.0191
G1 X57.658 Y-4.757 E0.0283
