(1-2-3_vise_cut)
(1-2-3 Vise Cut)
(Machine)
(  description: Generic 3-axis)
(T1  D=6.35 CR=0 - ZMIN=-15 - flat end mill)
G90 G94
G17
G21
G28 G91 Z0
G90

(Cavity)
T1 M6
(3 Flute)
S10000 M3
G54
G0 X88.697 Y86.043
Z15
Z0.504
G3 X89.578 Y92.011 Z0.174 I0.44 J2.984 F500
X88.697 Y86.043 Z-0.157 I-0.44 J-2.984
X89.578 Y92.011 Z-0.488 I0.44 J2.984
X88.697 Y86.043 Z-0.819 I-0.44 J-2.984
X92.154 Y89.027 Z-1 I0.44 J2.984
X86.121 Y89.027 I-3.016 J0
X92.154 Y89.027 I3.016 J0
G1 Y89.302 F1000
X92.205 Y89.571
X92.305 Y89.827
X92.355 Y89.907
X92.399 Y89.993
X92.44 Y90.093
X92.477 Y90.207
X92.507 Y90.334
X92.529 Y90.475
X92.54 Y90.628
X92.538 Y90.794
X92.523 Y90.97
X92.491 Y91.156
X92.441 Y91.351
X92.372 Y91.551
X92.283 Y91.756
X92.173 Y91.963
X92.04 Y92.17
X91.884 Y92.374
X91.706 Y92.572
X91.507 Y92.761
X91.293 Y92.933
X91.067 Y93.089
X90.83 Y93.227
X90.583 Y93.347
X90.328 Y93.45
X90.067 Y93.535
X89.801 Y93.602
X89.531 Y93.651
X89.258 Y93.682
X88.984 Y93.695
X88.709 Y93.691
X88.436 Y93.669
X88.164 Y93.631
X87.895 Y93.575
X87.63 Y93.503
X87.37 Y93.415
X87.116 Y93.311
X86.869 Y93.192
X86.629 Y93.059
X86.397 Y92.911
X86.175 Y92.75
X85.963 Y92.576
X85.761 Y92.39
X85.571 Y92.192
X85.392 Y91.983
X85.226 Y91.764
X85.074 Y91.536
X84.934 Y91.3
X84.809 Y91.055
X84.698 Y90.804
X84.602 Y90.547
X84.521 Y90.285
X84.455 Y90.018
X84.405 Y89.748
X84.37 Y89.476
X84.352 Y89.202
X84.349 Y88.928
X84.362 Y88.653
X84.39 Y88.38
X84.434 Y88.109
X84.494 Y87.841
X84.569 Y87.577
X84.659 Y87.318
X84.764 Y87.064
X84.883 Y86.817
X85.016 Y86.577
X85.163 Y86.345
X85.323 Y86.122
X85.495 Y85.908
X85.68 Y85.705
X85.875 Y85.512
X86.082 Y85.331
X86.298 Y85.162
X86.524 Y85.006
X86.758 Y84.863
X87 Y84.733
X87.249 Y84.618
X87.505 Y84.517
X87.765 Y84.431
X88.03 Y84.36
X88.299 Y84.304
X88.571 Y84.264
X88.844 Y84.239
X89.119 Y84.23
X89.393 Y84.237
X89.667 Y84.259
X89.939 Y84.297
X90.208 Y84.351
X90.474 Y84.42
X90.735 Y84.504
X90.991 Y84.602
X91.241 Y84.716
X91.484 Y84.843
X91.72 Y84.984
X91.947 Y85.138
X92.165 Y85.305
X92.373 Y85.485
X92.57 Y85.676
X92.756 Y85.877
X92.93 Y86.089
X93.092 Y86.311
X93.241 Y86.542
X93.382 Y86.778
X93.518 Y87.016
X93.649 Y87.257
X93.773 Y87.502
X93.89 Y87.75
X93.999 Y88.002
X94.098 Y88.258
X94.187 Y88.518
X94.265 Y88.781
X94.331 Y89.048
X94.384 Y89.317
X94.425 Y89.589
X94.451 Y89.862
X94.464 Y90.136
X94.463 Y90.411
X94.447 Y90.685
X94.417 Y90.958
X94.373 Y91.229
X94.314 Y91.497
X94.24 Y91.761
X94.153 Y92.022
X94.052 Y92.277
X93.938 Y92.526
X93.81 Y92.769
X93.67 Y93.006
X93.517 Y93.234
X93.353 Y93.454
X93.178 Y93.665
X92.992 Y93.867
X92.796 Y94.06
X92.591 Y94.242
X92.377 Y94.414
X92.155 Y94.575
X91.925 Y94.725
X91.688 Y94.863
X91.444 Y94.99
X91.195 Y95.105
X90.94 Y95.208
X90.681 Y95.299
X90.418 Y95.377
X90.152 Y95.444
X89.883 Y95.498
X89.611 Y95.539
X89.338 Y95.569
X89.064 Y95.585
X88.79 Y95.59
X88.515 Y95.582
X88.242 Y95.562
X87.969 Y95.53
X87.698 Y95.486
X87.429 Y95.43
X87.163 Y95.362
X86.9 Y95.283
X86.641 Y95.193
X86.386 Y95.091
X86.135 Y94.979
X85.89 Y94.856
X85.65 Y94.723
X85.416 Y94.579
X85.188 Y94.426
X84.967 Y94.263
X84.753 Y94.092
X84.546 Y93.911
X84.347 Y93.722
X84.156 Y93.524
X83.974 Y93.319
X83.8 Y93.107
X83.636 Y92.887
X83.48 Y92.661
X83.334 Y92.428
X83.198 Y92.19
X83.072 Y91.946
X82.956 Y91.697
X82.851 Y91.443
X82.756 Y91.186
X82.671 Y90.925
X82.598 Y90.66
X82.536 Y90.393
X82.484 Y90.123
X82.444 Y89.852
X82.414 Y89.579
X82.396 Y89.305
X82.389 Y89.03
X82.394 Y88.756
X82.41 Y88.482
X82.437 Y88.208
X82.475 Y87.937
X82.524 Y87.666
X82.584 Y87.399
X82.655 Y87.133
X82.737 Y86.871
X82.829 Y86.613
X82.932 Y86.358
X83.045 Y86.108
X83.168 Y85.863
X83.301 Y85.623
X83.444 Y85.388
X83.596 Y85.16
X83.758 Y84.938
X83.928 Y84.722
X84.107 Y84.514
X84.294 Y84.313
X84.489 Y84.12
X84.692 Y83.935
X84.902 Y83.759
X85.12 Y83.591
X85.344 Y83.432
X85.574 Y83.283
X85.81 Y83.143
X86.052 Y83.012
X86.298 Y82.892
X86.55 Y82.781
X86.805 Y82.681
X87.065 Y82.592
X87.328 Y82.513
X87.594 Y82.445
X87.862 Y82.387
X88.133 Y82.341
X88.405 Y82.306
X88.678 Y82.281
X88.953 Y82.268
X89.227 Y82.266
X89.501 Y82.275
X89.775 Y82.295
X90.048 Y82.327
X90.319 Y82.369
X90.588 Y82.423
X90.855 Y82.487
X91.119 Y82.562
X91.38 Y82.648
X91.637 Y82.744
X91.89 Y82.851
X92.139 Y82.968
X92.382 Y83.094
X92.62 Y83.231
X92.853 Y83.377
X93.079 Y83.532
X93.299 Y83.697
X93.512 Y83.87
X93.719 Y84.05
X93.919 Y84.238
X94.113 Y84.432
X94.301 Y84.633
X94.482 Y84.839
X94.657 Y85.051
X94.825 Y85.268
X94.986 Y85.49
X95.14 Y85.717
X95.287 Y85.949
X95.427 Y86.185
X95.559 Y86.426
X95.683 Y86.671
X95.8 Y86.919
X95.908 Y87.172
X96.008 Y87.428
X96.099 Y87.687
X96.181 Y87.948
X96.254 Y88.213
X96.318 Y88.48
X96.373 Y88.749
X96.418 Y89.02
X96.453 Y89.292
X96.479 Y89.565
X96.495 Y89.839
X96.501 Y90.114
X96.497 Y90.388
X96.482 Y90.663
X96.458 Y90.936
X96.423 Y91.208
X96.379 Y91.479
X96.324 Y91.748
X96.26 Y92.015
X96.185 Y92.279
X96.101 Y92.541
X96.007 Y92.799
X95.903 Y93.053
X95.79 Y93.303
X95.668 Y93.549
X95.536 Y93.79
X95.396 Y94.026
X95.247 Y94.256
X95.09 Y94.481
X94.924 Y94.7
X94.75 Y94.913
X94.569 Y95.119
X94.381 Y95.318
X94.185 Y95.511
X93.982 Y95.696
X93.773 Y95.873
X93.557 Y96.043
X93.335 Y96.205
X93.108 Y96.359
X92.875 Y96.505
X92.638 Y96.643
X92.395 Y96.771
X92.148 Y96.892
X91.898 Y97.003
X91.643 Y97.106
X91.385 Y97.199
X91.124 Y97.284
X90.86 Y97.359
X90.593 Y97.426
X90.325 Y97.483
X90.054 Y97.531
X89.783 Y97.569
X89.51 Y97.598
X89.236 Y97.618
X88.962 Y97.629
X88.687 Y97.631
X88.413 Y97.623
X88.139 Y97.606
X87.865 Y97.58
X87.593 Y97.544
X87.322 Y97.5
X87.053 Y97.447
X86.785 Y97.385
X86.52 Y97.314
X86.257 Y97.235
X85.997 Y97.146
X85.741 Y97.05
X85.487 Y96.945
X85.237 Y96.832
X84.99 Y96.71
X84.748 Y96.581
X84.51 Y96.444
X84.277 Y96.3
X84.048 Y96.148
X83.825 Y95.989
X83.606 Y95.822
X83.393 Y95.649
X83.186 Y95.469
X82.985 Y95.282
X82.789 Y95.089
X82.6 Y94.89
X82.418 Y94.685
X82.242 Y94.474
X82.073 Y94.258
X81.91 Y94.037
X81.755 Y93.81
X81.607 Y93.579
X81.467 Y93.343
X81.334 Y93.103
X81.209 Y92.859
X81.091 Y92.61
X80.982 Y92.359
X80.88 Y92.104
X80.787 Y91.846
X80.701 Y91.585
X80.624 Y91.321
X80.555 Y91.055
X80.495 Y90.788
X80.443 Y90.518
X80.399 Y90.247
X80.364 Y89.975
X80.338 Y89.701
X80.32 Y89.427
X80.311 Y89.153
X80.31 Y88.879
X80.318 Y88.604
X80.335 Y88.33
X80.36 Y88.057
X80.393 Y87.784
X80.435 Y87.513
X80.486 Y87.243
X80.545 Y86.975
X80.612 Y86.709
X80.688 Y86.445
X80.771 Y86.183
X80.863 Y85.925
X80.963 Y85.669
X81.071 Y85.417
X81.186 Y85.168
X81.309 Y84.922
X81.44 Y84.681
X81.579 Y84.444
X81.724 Y84.211
X81.877 Y83.983
X82.037 Y83.76
X82.204 Y83.542
X82.377 Y83.329
X82.557 Y83.121
X82.743 Y82.92
X82.936 Y82.724
X83.134 Y82.534
X83.339 Y82.351
X83.548 Y82.174
X83.764 Y82.004
X83.984 Y81.84
X84.21 Y81.683
X84.44 Y81.534
X84.675 Y81.391
X84.914 Y81.257
X85.157 Y81.129
X85.404 Y81.009
X85.654 Y80.897
X85.908 Y80.793
X86.165 Y80.696
X86.425 Y80.608
X86.688 Y80.528
X86.953 Y80.456
X87.22 Y80.392
X87.489 Y80.337
X87.759 Y80.289
X88.031 Y80.251
X88.304 Y80.221
X88.577 Y80.199
X88.852 Y80.186
X89.126 Y80.181
X89.401 Y80.185
X89.675 Y80.197
X89.949 Y80.218
X90.222 Y80.247
X90.493 Y80.285
X90.764 Y80.331
X91.033 Y80.386
X91.3 Y80.449
X91.565 Y80.52
X91.828 Y80.6
X92.088 Y80.687
X92.346 Y80.782
X92.6 Y80.886
X92.851 Y80.997
X93.099 Y81.116
X93.342 Y81.242
X93.582 Y81.376
X93.818 Y81.516
G3 X94.719 Y82.144 I-5.109 J8.29
X96.287 Y83.675 I-6.301 J8.023
X97.847 Y86.248 I-7.964 J6.588
X98.359 Y87.812 I-9.31 J3.916
X98.555 Y88.892 I-9.682 J2.31
X98.628 Y90.262 I-9.704 J1.202
X98.546 Y91.356 I-9.699 J-0.174
X98.34 Y92.434 I-9.561 J-1.269
X97.911 Y93.737 I-9.294 J-2.338
X97.3 Y94.965 I-8.868 J-3.647
X96.688 Y95.876 I-8.311 J-4.914
X95.587 Y97.099 I-7.711 J-5.841
X94.295 Y98.117 I-6.666 J-7.125
X93.101 Y98.792 I-5.423 J-8.211
X91.825 Y99.295 I-4.279 J-8.979
X89.402 Y99.748 I-3.058 J-9.649
X87.484 Y99.69 I-0.651 J-10.261
X85.091 Y99.1 I1.284 J-10.36
X82.453 Y97.651 I3.729 J-9.913
X79.71 Y94.613 I6.456 J-8.585
X78.252 Y90.501 I9.293 J-5.611
X79.067 Y84.594 I10.833 J-1.514
X84.271 Y79.15 I10.061 J4.409
X92.288 Y78.474 I4.869 J9.87
X94.561 Y79.431 I-3.232 J10.851
X96.582 Y80.845 I-5.767 J10.393
X100.287 Y86.517 I-8.076 J9.323
X100.771 Y88.936 I-11.589 J3.576
X100.576 Y92.486 I-11.842 J1.13
X97.354 Y98.437 I-11.56 J-2.411
X94.002 Y100.794 I-8.473 J-8.486
X90.329 Y101.87 I-5.233 J-11.056
X85.964 Y101.663 I-1.6 J-12.387
X81.473 Y99.676 I2.811 J-12.419
X77.764 Y95.683 I7.407 J-10.599
X75.925 Y89.152 I11.239 J-6.689
X79.165 Y80.331 I13.175 J-0.166
X91.552 Y76.011 I9.974 J8.681
X94.687 Y76.998 I-2.439 J13.226
X97.926 Y79.044 I-5.796 J12.76
X102.71 Y86.871 I-9.321 J11.074
X103.057 Y90.687 I-13.905 J3.187
X98.551 Y100.398 I-14.068 J-0.627
X93.656 Y103.369 I-9.713 J-10.486
X88.264 Y104.219 I-4.926 J-13.718
X82.43 Y102.826 I0.461 J-14.853
X76.899 Y98.42 I6.392 J-13.695
X73.747 Y90.632 I12.066 J-9.416
X76.877 Y79.547 I15.341 J-1.652
X90.909 Y73.623 I12.261 J9.462
X95.147 Y74.719 I-1.776 J15.601
X99.775 Y77.626 I-6.222 J15.041
X105.124 Y87.288 I-11.111 J12.463
X105.131 Y92.754 I-16.266 J2.755
X99.332 Y102.744 I-16.168 J-2.707
X93.285 Y105.886 I-10.526 J-12.864
X85.943 Y106.29 I-4.579 J-16.308
X78.88 Y103.422 I2.794 J-17.01
X72.853 Y96.094 I9.991 J-14.36
X71.922 Y84.545 I16.173 J-7.116
X83.384 Y72.177 I17.202 J4.447
X92.321 Y71.503 I5.765 J16.858
X97.74 Y73.398 I-3.219 J17.903
X103.238 Y77.882 I-8.888 J16.51
X107.569 Y88.093 I-14.528 J12.186
X107.03 Y94.897 I-18.682 J1.943
X99.815 Y105.287 I-18.094 J-4.865
X92.3 Y108.496 I-11.042 J-15.451
X83.862 Y108.222 I-3.606 J-18.974
X75.499 Y103.689 I4.89 J-19.002
X69.589 Y93.67 I13.408 J-14.663
X71.257 Y79.795 I19.468 J-4.698
X88.249 Y68.911 I17.878 J9.205
X95.81 Y70.013 I0.907 J20.275
X102.452 Y73.794 I-6.807 J19.682
X108.283 Y81.664 I-13.704 J16.248
X109.806 Y92.95 I-19.46 J8.372
X101.911 Y106.638 I-20.87 J-2.917
X93.017 Y110.741 I-13.139 J-16.791
X83.223 Y110.478 I-4.331 J-21.211
X74.113 Y105.598 I5.519 J-21.25
X67.444 Y94.764 I14.784 J-16.57
X69.027 Y78.998 I21.608 J-5.794
X87.014 Y66.643 I20.106 J10
X95.963 Y67.587 I2.148 J22.53
X103.437 Y71.555 I-6.93 J22.073
X110.907 Y81.879 I-14.672 J18.481
X111.616 Y95.918 I-22.048 J8.15
X102.434 Y109.187 I-22.701 J-5.898
X92.613 Y113.215 I-13.68 J-19.366
X81.749 Y112.518 I-3.932 J-23.713
X71.885 Y106.758 I6.998 J-23.309
X64.944 Y94.512 I17.019 J-17.737
X67.691 Y76.492 I24.115 J-5.543
X86.861 Y64.279 I21.443 J12.507
X96.626 Y65.311 I2.305 J24.908
X104.838 Y69.638 I-7.582 J24.347
X113.032 Y80.781 I-16.054 J20.389
X113.794 Y96.958 I-24.172 J9.245
X103.442 Y111.377 I-24.89 J-6.944
X92.266 Y115.671 I-14.7 J-21.571
X80.343 Y114.568 I-3.59 J-26.186
X69.148 Y107.367 I8.411 J-25.381
X62.32 Y93.53 I19.768 J-18.357
X66.988 Y73.197 I26.749 J-4.561
X86.599 Y61.911 I22.148 J15.803
X97.445 Y63.07 I2.57 J27.293
X106.582 Y67.976 I-8.399 J26.601
X115.22 Y79.817 I-17.786 J22.045
X116.092 Y97.606 I-26.361 J10.208
X104.802 Y113.34 I-27.192 J-7.593
X92.615 Y118.035 I-16.063 J-23.532
X80.92 Y117.243 I-3.942 J-28.525
X68.242 Y109.871 I7.821 J-28.037
X60.656 Y97.008 I20.646 J-20.845
X62.969 Y75.161 I28.395 J-8.041
X83.969 Y59.853 I26.163 J13.834
X96.495 Y60.31 I5.203 J29.303
X106.648 Y65.017 I-7.41 J29.289
X115.566 Y74.943 I-17.798 J24.959
X119.19 Y94.558 I-26.748 J15.085
X107.244 Y114.543 I-30.282 J-4.538
X94.545 Y120.149 I-18.494 J-24.706
X80.67 Y119.664 I-5.875 J-30.622
X67.536 Y112.513 I8.058 J-30.438
X58.302 Y97.517 I21.348 J-23.485
X60.827 Y74.067 I30.746 J-8.551
X82.448 Y57.701 I28.303 J14.926
X96.071 Y57.738 I6.725 J31.44
X107.129 Y62.425 I-6.967 J31.825
X117.678 Y73.784 I-18.264 J27.541
X121.427 Y95.806 I-28.853 J16.241
X108.368 Y116.709 I-32.525 J-5.79
X94.602 Y122.59 I-19.624 J-26.879
X79.646 Y121.885 I-5.935 J-33.071
X65.245 Y113.675 I9.085 J-32.67
X55.612 Y96.731 I23.646 J-24.655
X58.658 Y73.005 I33.438 J-7.765
X82.762 Y55.175 I30.474 J15.99
X97.201 Y55.518 I6.415 J33.984
X109.154 Y60.879 I-8.103 J34.071
X119.496 Y72.092 I-20.281 J29.082
X123.907 Y95.637 I-30.674 J17.933
X109.997 Y118.512 I-35.007 J-5.62
X99.028 Y124.014 I-21.227 J-28.631
G1 X98.887 Y124.05
X98.743 Y124.072
X98.597 Y124.079
X80.947
X80.673 Y124.065
G3 X79.579 Y123.98 I0.346 J-11.441
X77.959 Y123.686 I1.968 J-15.498
X75.59 Y122.987 I5.008 J-21.318
X72.308 Y121.59 I9.768 J-27.512
X67.831 Y118.925 I15.233 J-30.681
X58.949 Y110.037 I20.857 J-29.724
X54.045 Y100.157 I29.921 J-21.009
G1 X54.006 Y100.01
X53.983 Y99.859
X53.975 Y99.707
Y80.566
X53.989 Y80.292
X53.997 Y80.018
G3 X54.104 Y78.925 I11.304 J0.55
X54.429 Y77.311 I15.355 J2.255
X55.176 Y74.958 I21.245 J5.447
X56.511 Y71.948 I27.219 J10.272
X59.385 Y67.276 I30.75 J15.696
X66.855 Y59.659 I29.573 J21.529
X77.47 Y54.053 I22.267 J29.311
G1 X77.625 Y54.01
X77.784 Y53.984
X77.944 Y53.975
X98.09
X98.364 Y53.989
X98.638 Y53.998
G3 X99.731 Y54.109 I-0.567 J10.994
X101.342 Y54.445 I-2.298 J15.056
X103.433 Y55.114 I-5.449 J20.656
X106.445 Y56.445 I-10.116 J26.961
X110.675 Y58.992 I-15.763 J30.962
X117.213 Y64.828 I-21.473 J30.637
X126.595 Y93.764 I-28.411 J25.2
X111.69 Y120.275 I-37.694 J-3.746
X105.806 Y123.923 I-22.812 J-30.224
G1 X105.595 Y124.009
X105.373 Y124.061
X105.145 Y124.079
X98.852
X98.798 Y124.067 Z-0.994
X98.747 Y124.056 Z-0.975
X98.701 Y124.047 Z-0.945
X98.662 Y124.038 Z-0.906
X98.633 Y124.032 Z-0.859
X98.616 Y124.025 Z-0.806
X98.611 Y124.022 Z-0.751
G0 Z5
X81.248 Y123.291
Z0.27
G1 Z-0.365 F1000
X81.246 Y123.298 Z-0.464
X81.242 Y123.321 Z-0.561
X81.236 Y123.359 Z-0.653
X81.226 Y123.41 Z-0.738
X81.215 Y123.474 Z-0.814
X81.202 Y123.548 Z-0.879
X81.187 Y123.632 Z-0.931
X81.17 Y123.723 Z-0.969
X81.153 Y123.818 Z-0.992
X81.136 Y123.916 Z-1
X81.119 Y123.967
X81.09 Y124.012
X81.049 Y124.047
X81 Y124.07
X80.947 Y124.079
X74.471
X74.197 Y124.065
X73.923 Y124.049
X73.65 Y124.021
X73.378 Y123.984
X73.107 Y123.937
X72.838 Y123.882
G3 X71.779 Y123.593 I2.434 J-10.997
X70.244 Y123 I4.802 J-14.712
X68.287 Y122.004 I8.839 J-19.776
X65.527 Y120.209 I14.525 J-25.369
X61.749 Y117.03 I20.955 J-28.731
X55.878 Y109.803 I26.72 J-27.704
X54.138 Y106.742 I32.41 J-20.447
G1 X54.048 Y106.527
X53.993 Y106.299
X53.975 Y106.066
Y99.804
X53.987 Y99.75 Z-0.994
X53.998 Y99.699 Z-0.975
X54.007 Y99.653 Z-0.945
X54.016 Y99.615 Z-0.906
X54.022 Y99.586 Z-0.859
X54.029 Y99.569 Z-0.806
X54.032 Y99.563 Z-0.751
G0 Z5
X74.772 Y123.291
Z0.27
G1 Z-0.365 F1000
X74.77 Y123.298 Z-0.464
X74.766 Y123.321 Z-0.561
X74.76 Y123.359 Z-0.653
X74.75 Y123.41 Z-0.738
X74.739 Y123.474 Z-0.814
X74.726 Y123.548 Z-0.879
X74.711 Y123.632 Z-0.931
X74.694 Y123.723 Z-0.969
X74.677 Y123.818 Z-0.992
X74.66 Y123.916 Z-1
X74.643 Y123.967
X74.613 Y124.012
X74.573 Y124.047
X74.524 Y124.07
X74.471 Y124.079
X69.709
X69.435 Y124.065
X69.161 Y124.049
X68.888 Y124.019
X68.617 Y123.977
X68.348 Y123.923
X68.081 Y123.86
X67.816 Y123.787
X67.554 Y123.707
G3 X66.529 Y123.313 I3.407 J-10.416
X65.062 Y122.566 I6.098 J-13.78
X63.221 Y121.371 I10.662 J-18.437
X60.663 Y119.296 I17.259 J-23.891
X57.769 Y116.37 I24.406 J-27.035
X54.217 Y111.72 I30.005 J-26.601
G1 X54.113 Y111.533
X54.037 Y111.332
X53.991 Y111.123
X53.975 Y110.909
Y106.28
G3 X55.086 Y105.883 I0.635 J0.022
G1 X70.164 Y123.025
G3 X69.709 Y124.079 I-0.477 J0.419
G1 X65.519
X65.245 Y124.065
X64.971 Y124.044
X64.699 Y124.007
X64.429 Y123.957
X64.162 Y123.894
X63.897 Y123.821
X63.636 Y123.738
X63.377 Y123.646
X63.121 Y123.546
G3 X62.129 Y123.078 I4.147 J-10.081
X60.722 Y122.222 I7.046 J-13.167
X58.977 Y120.89 I11.954 J-17.47
X56.775 Y118.826 I18.908 J-22.375
X54.296 Y115.988 I26.513 J-25.657
G1 X54.158 Y115.781
X54.057 Y115.555
X53.996 Y115.314
X53.975 Y115.067
Y111.042
G3 X55.086 Y110.645 I0.635 J0.022
G1 X65.974 Y123.025
G3 X65.519 Y124.079 I-0.477 J0.419
G1 X61.71
X61.435 Y124.065
X61.162 Y124.037
X60.891 Y123.993
X60.623 Y123.935
X60.358 Y123.865
X60.096 Y123.783
X59.837 Y123.69
X59.582 Y123.589
X59.33 Y123.479
X59.082 Y123.362
G3 X58.123 Y122.829 I4.935 J-10.004
X56.775 Y121.884 I8.016 J-12.871
X55.118 Y120.444 I13.201 J-16.863
X54.396 Y119.728 I17.101 J-17.956
G1 X54.249 Y119.552
X54.131 Y119.356
X54.045 Y119.144
X53.993 Y118.921
X53.975 Y118.693
Y115.232
G3 X55.09 Y114.839 I0.635 J0.022
G1 X62.168 Y123.029
G3 X61.71 Y124.079 I-0.48 J0.415
G1 X58.281
X58.007 Y124.065
X57.734 Y124.04
X57.462 Y123.997
X57.194 Y123.939
X56.929 Y123.867
X56.668 Y123.783
X56.41 Y123.688
X56.157 Y123.583
X55.907 Y123.469
X55.661 Y123.347
G3 X54.714 Y122.791 I4.714 J-9.11
G1 X54.555 Y122.682
X54.374 Y122.536
X54.218 Y122.363
X54.091 Y122.168
X53.996 Y121.956
X53.935 Y121.731
X53.91 Y121.5
X53.922 Y121.268
X53.939 Y121.137
X53.954 Y120.947
X53.968 Y120.756
X53.974 Y120.566
X53.975 Y119.994
Y118.851
G3 X55.106 Y118.477 I0.635 J0.022
G1 X58.755 Y123.048
G3 X58.281 Y124.079 I-0.496 J0.396
G1 X57.519 Y124.08
X57.329 Y124.084
X57.138 Y124.097
X56.948 Y124.113
X56.757 Y124.135
X56.567 Y124.168
X56.376 Y124.209
X56.186 Y124.254
X56.081 Y124.283
X55.884 Y124.327
X55.662 Y124.359
X55.429 Y124.373
X55.198 Y124.368
X54.965 Y124.345
X54.738 Y124.303
X54.51 Y124.242
X54.278 Y124.136
X54.068 Y123.99
X53.887 Y123.81
X53.74 Y123.601
X53.632 Y123.369
X53.567 Y123.122
X53.546 Y122.867
X53.57 Y122.613
X53.638 Y122.367
G2 X53.793 Y121.899 I-4.294 J-1.682
G1 X53.838 Y121.709
G3 X54.947 Y121.48 I0.613 J0.167
G1 X56.386 Y123.281
G3 X56.081 Y124.283 I-0.496 J0.396
G1 X55.995 Y124.307
G2 X55.319 Y124.565 I2.206 J6.782
G1 X55.234 Y124.608
X55.043 Y124.709
X54.958 Y124.756
X54.85 Y124.81
X54.756 Y124.847
X54.661 Y124.877
X54.548 Y124.902
X54.432 Y124.919
X54.315 Y124.926
X54.181 Y124.923
X53.925 Y124.868
X53.688 Y124.759
X53.479 Y124.6
X53.311 Y124.4
X53.191 Y124.168
X53.124 Y123.915
X53.114 Y123.654
X53.161 Y123.396
X53.264 Y123.156
X53.329 Y123.04
X53.384 Y122.936
G3 X53.857 Y122.531 I0.816 J0.474
X54.958 Y124.756 I0.453 J1.161
G1 X54.853 Y124.815
X54.643 Y124.947
X54.472 Y125.069
X54.281 Y125.212
X54.253 Y125.233
G3 X53.891 Y125.379 I-0.547 J-0.832
G1 X53.642 Y125.388
X53.397 Y125.338
X53.172 Y125.231
X52.978 Y125.075
X52.826 Y124.877
X52.725 Y124.649
X52.68 Y124.403
X52.695 Y124.154
X52.768 Y123.916
X52.895 Y123.701
X52.948 Y123.632
X52.996 Y123.581
X53.05 Y123.537
X53.109 Y123.501
X53.145 Y123.483
G3 X54.281 Y125.212 I0.447 J0.944
G1 X54.14 Y125.327
X54.091 Y125.369
X53.934 Y125.518
X53.853 Y125.599
X53.795 Y125.651
X53.745 Y125.69
X53.692 Y125.724
G3 X53.409 Y125.835 I-0.492 J-0.841
G1 X53.156 Y125.848
X52.908 Y125.797
X52.681 Y125.686
X52.489 Y125.522
X52.343 Y125.314
X52.255 Y125.078
X52.228 Y124.826
X52.264 Y124.576
X52.362 Y124.343
X52.515 Y124.141
X52.552 Y124.11
X52.591 Y124.082
G3 X53.853 Y125.599 I0.532 J0.84
G1 X53.71 Y125.743
X53.57 Y125.899
X53.519 Y125.959
X53.464 Y126.031
X53.427 Y126.074
G3 X53.165 Y126.26 I-0.6 J-0.57
X52.837 Y126.348 I-0.435 J-0.957
G1 X52.577 Y126.332
X52.328 Y126.25
X52.108 Y126.11
X51.931 Y125.918
X51.807 Y125.688
X51.744 Y125.435
X51.747 Y125.173
X51.815 Y124.921
X51.944 Y124.694
X52.126 Y124.507
G3 X53.029 Y124.658 I0.379 J0.51
G1 X53.471 Y125.303
G3 X53.464 Y126.031 I-0.524 J0.359
G1 X53.329 Y126.21
X53.276 Y126.28
X53.138 Y126.483
X53.129 Y126.5
X53.105 Y126.537
G3 X52.866 Y126.754 I-0.666 J-0.49
X52.549 Y126.883 I-0.551 J-0.898
G1 X52.448 Y126.902
X52.35 Y126.913
X52.253 Y126.916
X52.142 Y126.91
X52.027 Y126.894
X51.918 Y126.87
X51.811 Y126.838
X51.78 Y126.825
X51.545 Y126.698
X51.349 Y126.516
X51.203 Y126.293
X51.116 Y126.04
X51.093 Y125.774
X51.136 Y125.51
X51.242 Y125.265
X51.405 Y125.053
X51.615 Y124.888
G3 X52.458 Y125.029 I0.344 J0.534
G1 X53.069 Y125.805
G3 X53.129 Y126.5 I-0.499 J0.393
G2 X52.812 Y127.078 I6.954 J4.178
G3 X52.622 Y127.311 I-0.823 J-0.479
G1 X52.556 Y127.366
X52.485 Y127.415
X52.395 Y127.468
X52.303 Y127.513
X52.21 Y127.549
X52.106 Y127.58
X51.989 Y127.605
X51.875 Y127.62
X51.762 Y127.626
X51.631 Y127.622
X51.502 Y127.607
X51.38 Y127.584
X51.252 Y127.548
X51.117 Y127.498
X50.992 Y127.441
X50.874 Y127.374
X50.747 Y127.288
X50.569 Y127.114
X50.43 Y126.907
X50.337 Y126.676
X50.292 Y126.431
X50.298 Y126.182
X50.355 Y125.94
X50.459 Y125.714
X50.608 Y125.514
X50.793 Y125.348
X51.009 Y125.224
G3 X51.696 Y125.363 I0.239 J0.588
G1 X52.691 Y126.354
G3 X52.831 Y127.042 I-0.448 J0.45
G1 X52.746 Y127.232
X52.674 Y127.423
X52.603 Y127.613
G3 X52.483 Y127.869 I-0.949 J-0.288
G1 X52.431 Y127.941
X52.369 Y128.015
X52.297 Y128.087
X52.215 Y128.156
X52.121 Y128.225
X52.015 Y128.289
X51.9 Y128.347
X51.775 Y128.398
X51.638 Y128.441
X51.504 Y128.472
X51.357 Y128.493
X51.204 Y128.503
X51.057 Y128.501
X50.896 Y128.485
X50.738 Y128.457
X50.588 Y128.418
X50.426 Y128.361
X50.274 Y128.294
X50.129 Y128.215
X49.979 Y128.117
X49.845 Y128.013
X49.714 Y127.894
X49.589 Y127.76
X49.482 Y127.625
X49.358 Y127.396
X49.278 Y127.147
X49.248 Y126.889
X49.266 Y126.628
X49.332 Y126.376
X49.445 Y126.141
X49.6 Y125.931
X49.792 Y125.754
X50.013 Y125.616
X50.091 Y125.577
X50.281 Y125.507
X50.472 Y125.442
X50.662 Y125.369
G3 X51.381 Y125.595 I0.206 J0.601
G1 X52.488 Y127.11
G3 X52.583 Y127.67 I-0.513 J0.375
G1 X52.537 Y127.804
X52.463 Y127.994
X52.376 Y128.163
X52.235 Y128.375
X52.186 Y128.433
X52.062 Y128.566
X51.996 Y128.625
X51.827 Y128.756
X51.805 Y128.771
X51.615 Y128.882
X51.47 Y128.946
X51.424 Y128.965
X51.234 Y129.022
X51.043 Y129.057
X50.853 Y129.073
X50.662 Y129.069
X50.472 Y129.045
X50.281 Y128.999
X50.13 Y128.946
X50.091 Y128.93
X49.9 Y128.834
X49.773 Y128.756
X49.71 Y128.711
X49.539 Y128.566
X49.519 Y128.546
X49.366 Y128.375
X49.329 Y128.325
X49.236 Y128.185
X49.137 Y127.994
X49.064 Y127.804
X49.016 Y127.613
X48.989 Y127.423
X48.981 Y127.232
X48.992 Y127.042
X49.024 Y126.851
X49.079 Y126.661
X49.138 Y126.511
X49.158 Y126.47
X49.264 Y126.28
X49.329 Y126.183
X49.402 Y126.089
X49.519 Y125.961
X49.584 Y125.899
X49.71 Y125.797
X49.837 Y125.708
X49.9 Y125.673
X50.013 Y125.616
X50.066 Y125.603 Z-0.994
X50.117 Y125.59 Z-0.975
X50.162 Y125.578 Z-0.945
X50.201 Y125.568 Z-0.906
X50.229 Y125.561 Z-0.859
X50.248 Y125.56 Z-0.806
X50.254 Y125.559 Z-0.751
G0 Z5
X54.763 Y80.867
Z0.27
G1 Z-0.365 F1000
X54.756 Y80.866 Z-0.464
X54.733 Y80.861 Z-0.561
X54.695 Y80.855 Z-0.653
X54.644 Y80.845 Z-0.738
X54.58 Y80.834 Z-0.814
X54.506 Y80.821 Z-0.879
X54.422 Y80.806 Z-0.931
X54.331 Y80.789 Z-0.969
X54.236 Y80.772 Z-0.992
X54.138 Y80.755 Z-1
X54.087 Y80.738
X54.042 Y80.709
X54.007 Y80.668
X53.984 Y80.619
X53.975 Y80.566
Y74.281
X54.002 Y73.732
X54.026 Y73.459
X54.061 Y73.187
X54.105 Y72.916
X54.158 Y72.646
G3 X54.443 Y71.586 I10.593 J2.281
X55.036 Y70.051 I14.269 J4.628
X56.037 Y68.097 I19.367 J8.689
X57.842 Y65.343 I25.151 J14.511
X60.845 Y61.775 I28.652 J21.07
X68.512 Y55.58 I27.996 J26.809
X71.047 Y54.142 I20.127 J32.522
G1 X71.265 Y54.05
X71.495 Y53.994
X71.73 Y53.975
X77.709
G3 X78.086 Y55.104 I-0.022 J0.635
G1 X54.03 Y74.497
G2 X54.199 Y74.707 I0.085 J0.105
X54.138 Y74.469 I-0.085 J-0.105
G1 X54.087 Y74.453
X54.042 Y74.423
X54.007 Y74.382
X53.984 Y74.334
X53.975 Y74.281
Y69.519
X53.989 Y69.245
X54.004 Y68.971
X54.033 Y68.698
X54.075 Y68.426
X54.128 Y68.157
X54.191 Y67.89
X54.263 Y67.625
X54.344 Y67.363
G3 X54.738 Y66.338 I10.282 J3.367
X55.489 Y64.873 I13.633 J6.058
X56.69 Y63.035 I18.301 J10.648
X58.772 Y60.485 I23.802 J17.312
X61.707 Y57.6 I27.049 J24.58
X66.12 Y54.221 I26.627 J30.205
G1 X66.309 Y54.115
X66.51 Y54.038
X66.721 Y53.991
X66.937 Y53.975
X71.614
G3 X72.011 Y55.087 I-0.022 J0.635
G1 X55.028 Y69.974
G3 X53.975 Y69.519 I-0.419 J-0.478
G1 Y65.329
X53.989 Y65.054
X54.011 Y64.781
X54.048 Y64.509
X54.099 Y64.239
X54.162 Y63.972
X54.236 Y63.707
X54.32 Y63.446
X54.413 Y63.188
X54.513 Y62.932
G3 X54.985 Y61.941 I10.052 J4.168
X55.844 Y60.537 I13.131 J7.076
X57.182 Y58.796 I17.434 J12.008
X59.253 Y56.6 I22.357 J19.011
X61.881 Y54.3 I25.503 J26.494
G1 X62.088 Y54.161
X62.316 Y54.059
X62.558 Y53.996
X62.806 Y53.975
X66.662
G3 X67.062 Y55.084 I-0.022 J0.635
G1 X55.032 Y65.781
G3 X53.975 Y65.329 I-0.422 J-0.475
G1 Y61.519
X53.989 Y61.245
X54.018 Y60.972
X54.064 Y60.701
X54.124 Y60.433
X54.196 Y60.168
X54.279 Y59.907
X54.372 Y59.649
X54.475 Y59.394
X54.586 Y59.143
X54.704 Y58.895
G3 X55.241 Y57.938 I10.031 J5
X56.191 Y56.593 I12.894 J8.096
X57.636 Y54.94 I16.883 J13.305
G1 X57.827 Y54.743
X58.02 Y54.548
X58.167 Y54.403
X58.343 Y54.254
X58.54 Y54.134
X58.754 Y54.046
X58.978 Y53.993
X59.209 Y53.975
X62.662
G3 X63.053 Y55.092 I-0.022 J0.635
G1 X55.023 Y61.979
G3 X53.975 Y61.519 I-0.413 J-0.482
G1 Y58.091
X53.989 Y57.816
X54.017 Y57.543
X54.062 Y57.273
X54.122 Y57.005
X54.196 Y56.74
X54.282 Y56.48
X54.378 Y56.223
X54.485 Y55.969
X54.6 Y55.72
X54.723 Y55.475
X54.854 Y55.233
X54.991 Y54.996
X55.134 Y54.762
X55.292 Y54.523
X55.443 Y54.342
X55.62 Y54.187
X55.821 Y54.063
X56.038 Y53.971
X56.267 Y53.916
X56.502 Y53.897
X56.737 Y53.916
X56.757 Y53.919
X56.948 Y53.942
X57.138 Y53.957
X57.329 Y53.969
X57.519 Y53.974
X58.091 Y53.975
X59.043
G3 X59.413 Y55.109 I-0.022 J0.635
G1 X55.001 Y58.568
G3 X53.975 Y58.091 I-0.392 J-0.5
G1 X53.974 Y57.519
X53.97 Y57.329
X53.957 Y57.138
X53.941 Y56.948
X53.919 Y56.757
X53.9 Y56.638
X53.845 Y56.376
X53.8 Y56.186
X53.747 Y55.995
X53.717 Y55.884
X53.679 Y55.671
X53.657 Y55.459
X53.653 Y55.231
X53.666 Y55.016
X53.698 Y54.788
X53.746 Y54.576
X53.774 Y54.485
X53.871 Y54.251
X54.01 Y54.038
X54.185 Y53.854
X54.391 Y53.705
X54.62 Y53.596
X54.865 Y53.531
X55.119 Y53.511
X55.371 Y53.539
X55.614 Y53.611
X55.805 Y53.682
X55.881 Y53.71
X55.995 Y53.747
X56.186 Y53.801
X56.376 Y53.845
G3 X56.579 Y54.976 I-0.164 J0.613
G1 X54.712 Y56.298
G3 X53.747 Y55.995 I-0.367 J-0.518
G1 X53.71 Y55.879
X53.611 Y55.614
X53.534 Y55.424
X53.519 Y55.389
X53.447 Y55.234
X53.329 Y55.015
X53.238 Y54.853
X53.232 Y54.84
X53.191 Y54.749
X53.158 Y54.658
X53.129 Y54.55
X53.109 Y54.436
X53.097 Y54.324
X53.095 Y54.195
X53.102 Y54.066
X53.104 Y54.055
X53.167 Y53.81
X53.282 Y53.584
X53.444 Y53.388
X53.645 Y53.233
X53.875 Y53.126
X54.123 Y53.072
X54.376 Y53.073
X54.624 Y53.13
X54.853 Y53.239
X55.014 Y53.329
X55.043 Y53.344
X55.148 Y53.4
G3 X55.489 Y53.851 I-0.366 J0.631
X53.238 Y54.853 I-1.21 J0.309
G1 X53.138 Y54.69
G2 X52.795 Y54.223 I-6.3 J4.268
G1 X52.768 Y54.185
X52.733 Y54.127
G3 X52.626 Y53.816 I0.925 J-0.494
G1 X52.621 Y53.572
X52.674 Y53.333
X52.781 Y53.114
X52.936 Y52.925
X53.13 Y52.777
X53.354 Y52.679
X53.594 Y52.636
X53.838 Y52.65
X54.072 Y52.72
X54.283 Y52.843
X54.422 Y52.948
X54.482 Y53.005
X54.533 Y53.071
X54.572 Y53.144
X54.582 Y53.167
G3 X52.795 Y54.223 I-0.983 J0.375
G1 X52.757 Y54.175
X52.685 Y54.091
X52.567 Y53.965
X52.434 Y53.83
X52.402 Y53.799
G3 X52.249 Y53.584 I0.58 J-0.576
G1 X52.216 Y53.51
X52.19 Y53.433
X52.17 Y53.358
X52.158 Y53.105
X52.209 Y52.857
X52.321 Y52.63
X52.486 Y52.438
X52.694 Y52.293
X52.931 Y52.205
X53.183 Y52.179
X53.433 Y52.217
X53.666 Y52.316
X53.867 Y52.47
X53.9 Y52.508
X53.928 Y52.55
G3 X52.402 Y53.799 I-0.848 J0.521
G2 X51.97 Y53.424 I-2.535 J2.479
G1 X51.932 Y53.392
G3 X51.744 Y53.132 I0.565 J-0.607
X51.652 Y52.806 I0.958 J-0.446
G1 X51.645 Y52.704
X51.678 Y52.45
X51.772 Y52.212
X51.922 Y52.004
X52.118 Y51.839
X52.349 Y51.727
X52.6 Y51.675
X52.856 Y51.686
X53.101 Y51.759
X53.321 Y51.891
X53.503 Y52.072
G3 X53.353 Y52.965 I-0.514 J0.373
G1 X52.697 Y53.423
G3 X51.97 Y53.423 I-0.364 J-0.52
G1 X51.805 Y53.3
X51.615 Y53.167
X51.571 Y53.138
X51.49 Y53.09
X51.447 Y53.062
G3 X51.265 Y52.875 I0.488 J-0.659
G1 X51.225 Y52.815
G3 X51.096 Y52.493 I0.946 J-0.565
G1 X51.078 Y52.394
X51.067 Y52.288
X51.065 Y52.186
X51.071 Y52.083
X51.088 Y51.964
X51.113 Y51.849
X51.147 Y51.741
X51.155 Y51.721
X51.271 Y51.503
X51.433 Y51.317
X51.632 Y51.171
X51.858 Y51.073
X52.1 Y51.027
X52.346 Y51.036
X52.585 Y51.099
X52.803 Y51.214
X52.991 Y51.373
X53.138 Y51.571
G3 X52.989 Y52.392 I-0.545 J0.325
G1 X52.191 Y53.029
G3 X51.49 Y53.09 I-0.396 J-0.496
G1 X51.424 Y53.051
X51.234 Y52.946
X51.043 Y52.846
X50.938 Y52.798
X50.899 Y52.777
X50.841 Y52.741
X50.782 Y52.697
G3 X50.554 Y52.443 I0.676 J-0.833
G1 X50.501 Y52.352
X50.456 Y52.26
X50.42 Y52.166
X50.387 Y52.055
X50.362 Y51.941
X50.348 Y51.829
X50.342 Y51.704
X50.346 Y51.574
X50.359 Y51.451
X50.385 Y51.321
X50.423 Y51.185
X50.469 Y51.058
X50.528 Y50.931
X50.602 Y50.799
X50.683 Y50.679
X50.775 Y50.565
X50.977 Y50.391
X51.213 Y50.266
X51.469 Y50.195
X51.736 Y50.181
X51.998 Y50.225
X52.245 Y50.325
X52.465 Y50.476
X52.646 Y50.671
X52.781 Y50.901
X52.845 Y51.043
G3 X52.672 Y51.763 I-0.588 J0.24
G1 X51.596 Y52.692
G3 X50.938 Y52.798 I-0.415 J-0.481
G1 X50.849 Y52.757
X50.662 Y52.685
X50.472 Y52.614
X50.336 Y52.567
X50.235 Y52.527
X50.167 Y52.493
X50.096 Y52.45
X50.023 Y52.398
X49.948 Y52.335
X49.875 Y52.262
X49.804 Y52.179
X49.734 Y52.083
X49.669 Y51.976
X49.61 Y51.859
X49.558 Y51.732
X49.514 Y51.592
X49.48 Y51.443
X49.458 Y51.294
X49.448 Y51.144
X49.451 Y50.977
X49.466 Y50.819
X49.494 Y50.662
X49.538 Y50.492
X49.593 Y50.335
X49.661 Y50.182
X49.748 Y50.022
X49.842 Y49.878
X49.949 Y49.739
X50.075 Y49.6
X50.203 Y49.48
X50.414 Y49.341
X50.646 Y49.239
X50.892 Y49.179
X51.144 Y49.162
X51.396 Y49.189
X51.639 Y49.259
X51.867 Y49.369
X52.072 Y49.517
X52.248 Y49.699
X52.257 Y49.71
X52.376 Y49.891
X52.382 Y49.9
X52.473 Y50.091
X52.547 Y50.281
X52.613 Y50.472
X52.685 Y50.662
G3 X52.448 Y51.389 I-0.601 J0.206
G1 X50.884 Y52.48
G3 X50.336 Y52.567 I-0.363 J-0.521
G1 X50.281 Y52.548
X50.091 Y52.473
X49.892 Y52.376
X49.71 Y52.258
X49.621 Y52.186
X49.519 Y52.093
X49.43 Y51.996
X49.329 Y51.87
X49.283 Y51.805
X49.172 Y51.615
X49.138 Y51.542
X49.09 Y51.424
X49.033 Y51.234
X48.997 Y51.043
X48.981 Y50.853
X48.985 Y50.662
X49.009 Y50.472
X49.055 Y50.281
X49.125 Y50.091
X49.138 Y50.059
X49.219 Y49.9
X49.329 Y49.731
G3 X49.519 Y49.506 I1.755 J1.298
G1 X49.71 Y49.343
X49.73 Y49.329
X49.9 Y49.219
X50.06 Y49.138
X50.091 Y49.125
X50.281 Y49.056
X50.472 Y49.01
X50.662 Y48.985
X50.853 Y48.982
X51.043 Y48.997
X51.234 Y49.033
X51.424 Y49.09
X51.54 Y49.138
X51.615 Y49.172
X51.805 Y49.283
X51.872 Y49.329
X51.996 Y49.43
X52.093 Y49.519
X52.186 Y49.623
X52.248 Y49.699
X52.252 Y49.72 Z-0.996
X52.246 Y49.739 Z-0.983
X52.242 Y49.751 Z-0.963
X52.241 Y49.756 Z-0.94
G0 Z5
X97.789 Y54.763
Z0.27
G1 Z-0.365 F1000
X97.791 Y54.756 Z-0.464
X97.795 Y54.733 Z-0.561
X97.802 Y54.695 Z-0.653
X97.811 Y54.644 Z-0.738
X97.822 Y54.58 Z-0.814
X97.836 Y54.506 Z-0.879
X97.851 Y54.422 Z-0.931
X97.867 Y54.331 Z-0.969
X97.884 Y54.236 Z-0.992
X97.901 Y54.138 Z-1
X97.918 Y54.087
X97.948 Y54.042
X97.988 Y54.007
X98.037 Y53.984
X98.09 Y53.975
X104.376
X104.65 Y53.989
X104.924 Y54.008
X105.196 Y54.038
X105.468 Y54.078
X105.738 Y54.127
X106.007 Y54.184
G3 X107.062 Y54.485 I-2.532 J10.915
X108.592 Y55.094 I-4.953 J14.641
X110.537 Y56.111 I-9.11 J19.803
X113.282 Y57.931 I-15.049 J25.679
X116.842 Y60.943 I-21.73 J29.295
X122.911 Y68.362 I-27.578 J28.748
X128.444 Y97.858 I-34.083 J21.66
X112.296 Y122.848 I-39.553 J-7.847
X110.839 Y123.84 I-21.839 J-30.47
G1 X110.653 Y123.943
X110.454 Y124.018
X110.245 Y124.064
X110.033 Y124.079
X105.328
X105.245 Y124.071
X105.164 Y124.052
X105.087 Y124.022
X104.996 Y123.981 Z-0.992
X104.908 Y123.941 Z-0.969
X104.824 Y123.903 Z-0.931
X104.747 Y123.867 Z-0.879
X104.678 Y123.836 Z-0.814
X104.619 Y123.809 Z-0.738
X104.572 Y123.788 Z-0.653
X104.537 Y123.772 Z-0.561
X104.516 Y123.762 Z-0.464
X104.509 Y123.759 Z-0.365
G0 Z5
X104.075 Y54.763
Z0.27
G1 Z-0.365 F1000
X104.076 Y54.756 Z-0.464
X104.081 Y54.733 Z-0.561
X104.087 Y54.695 Z-0.653
X104.096 Y54.644 Z-0.738
X104.108 Y54.58 Z-0.814
X104.121 Y54.506 Z-0.879
X104.136 Y54.422 Z-0.931
X104.152 Y54.331 Z-0.969
X104.17 Y54.236 Z-0.992
X104.187 Y54.138 Z-1
X104.204 Y54.087
X104.233 Y54.042
X104.274 Y54.007
X104.323 Y53.984
X104.376 Y53.975
X109.137
X109.412 Y53.989
X109.685 Y54.012
X109.957 Y54.049
X110.227 Y54.098
X110.495 Y54.157
X110.761 Y54.226
X111.024 Y54.303
X111.285 Y54.389
G3 X112.304 Y54.798 I-3.703 J10.696
X113.762 Y55.563 I-6.478 J14.104
X115.592 Y56.776 I-11.174 J18.847
X118.135 Y58.867 I-17.951 J24.433
X121.201 Y62.009 I-25.442 J27.893
X126.103 Y68.948 I-31.611 J27.532
X130.051 Y101.608 I-37.255 J21.072
X115.147 Y123.764 I-41.167 J-11.602
G1 X114.942 Y123.899
X114.717 Y123.998
X114.479 Y124.059
X114.234 Y124.079
X110.28
X110.198 Y124.071
X110.117 Y124.052
X110.039 Y124.022
X109.949 Y123.981 Z-0.992
X109.86 Y123.941 Z-0.969
X109.777 Y123.903 Z-0.931
X109.699 Y123.867 Z-0.879
X109.63 Y123.836 Z-0.814
X109.572 Y123.809 Z-0.738
X109.524 Y123.788 Z-0.653
X109.489 Y123.772 Z-0.561
X109.468 Y123.762 Z-0.464
X109.461 Y123.759 Z-0.365
G0 Z5
X108.837 Y54.763
Z0.27
G1 Z-0.365 F1000
X108.838 Y54.756 Z-0.464
X108.842 Y54.733 Z-0.561
X108.849 Y54.695 Z-0.653
X108.858 Y54.644 Z-0.738
X108.87 Y54.58 Z-0.814
X108.883 Y54.506 Z-0.879
X108.898 Y54.422 Z-0.931
X108.914 Y54.331 Z-0.969
X108.931 Y54.236 Z-0.992
X108.949 Y54.138 Z-1
X108.965 Y54.087
X108.995 Y54.042
X109.036 Y54.007
X109.084 Y53.984
X109.137 Y53.975
X113.137
X113.411 Y53.989
X113.685 Y54.008
X113.958 Y54.043
X114.228 Y54.092
X114.495 Y54.153
X114.76 Y54.226
X115.022 Y54.308
X115.281 Y54.399
X115.537 Y54.498
G3 X116.531 Y54.964 I-4.082 J9.993
X117.938 Y55.818 I-6.989 J13.107
X119.685 Y57.149 I-11.959 J17.512
X121.891 Y59.209 I-19.136 J22.697
X124.595 Y62.312 I-27.28 J26.513
X128.251 Y67.785 I-34.141 J26.762
X134.089 Y90.659 I-39.373 J22.23
X119.029 Y123.703 I-45.175 J-0.635
G1 X118.859 Y123.835
X118.671 Y123.94
X118.47 Y124.017
X118.259 Y124.063
X118.045 Y124.079
X114.471
X114.388 Y124.071
X114.307 Y124.052
X114.229 Y124.022
X114.139 Y123.981 Z-0.992
X114.051 Y123.941 Z-0.969
X113.967 Y123.903 Z-0.931
X113.89 Y123.867 Z-0.879
X113.821 Y123.836 Z-0.814
X113.762 Y123.809 Z-0.738
X113.715 Y123.788 Z-0.653
X113.68 Y123.772 Z-0.561
X113.659 Y123.762 Z-0.464
X113.652 Y123.759 Z-0.365
G0 Z5
X112.837 Y54.763
Z0.27
G1 Z-0.365 F1000
X112.838 Y54.756 Z-0.464
X112.842 Y54.733 Z-0.561
X112.849 Y54.695 Z-0.653
X112.858 Y54.644 Z-0.738
X112.87 Y54.58 Z-0.814
X112.883 Y54.506 Z-0.879
X112.898 Y54.422 Z-0.931
X112.914 Y54.331 Z-0.969
X112.931 Y54.236 Z-0.992
X112.949 Y54.138 Z-1
X112.965 Y54.087
X112.995 Y54.042
X113.036 Y54.007
X113.084 Y53.984
X113.137 Y53.975
X116.947
X117.221 Y53.989
X117.494 Y54.015
X117.765 Y54.058
X118.034 Y54.114
X118.3 Y54.184
X118.562 Y54.265
X118.821 Y54.356
X119.076 Y54.457
X119.328 Y54.566
X119.577 Y54.682
G3 X120.537 Y55.213 I-4.891 J9.983
X121.888 Y56.155 I-7.983 J12.886
X123.548 Y57.591 I-13.222 J16.97
X125.626 Y59.781 I-20.852 J21.859
X128.146 Y63.035 I-29.648 J25.563
X131.382 Y68.451 I-37.096 J25.843
X136.027 Y83.036 I-42.373 J21.527
X122.65 Y123.645 I-47.117 J6.986
G1 X122.473 Y123.796
X122.275 Y123.917
X122.06 Y124.006
X121.834 Y124.061
X121.602 Y124.079
X118.28
X118.197 Y124.071
X118.117 Y124.052
X118.039 Y124.022
X117.948 Y123.981 Z-0.992
X117.86 Y123.941 Z-0.969
X117.777 Y123.903 Z-0.931
X117.699 Y123.867 Z-0.879
X117.63 Y123.836 Z-0.814
X117.571 Y123.809 Z-0.738
X117.524 Y123.788 Z-0.653
X117.489 Y123.772 Z-0.561
X117.468 Y123.762 Z-0.464
X117.461 Y123.759 Z-0.365
G0 Z5
X116.646 Y54.763
Z0.27
G1 Z-0.365 F1000
X116.648 Y54.756 Z-0.464
X116.652 Y54.733 Z-0.561
X116.658 Y54.695 Z-0.653
X116.668 Y54.644 Z-0.738
X116.679 Y54.58 Z-0.814
X116.692 Y54.506 Z-0.879
X116.707 Y54.422 Z-0.931
X116.724 Y54.331 Z-0.969
X116.741 Y54.236 Z-0.992
X116.758 Y54.138 Z-1
X116.775 Y54.087
X116.805 Y54.042
X116.845 Y54.007
X116.894 Y53.984
X116.947 Y53.975
X120.375
X120.649 Y53.989
X120.923 Y54.012
X121.194 Y54.053
X121.463 Y54.11
X121.728 Y54.181
X121.99 Y54.264
X122.248 Y54.357
X122.502 Y54.461
X122.752 Y54.574
X122.999 Y54.695
X123.242 Y54.823
G3 X124.176 Y55.399 I-5.39 J9.792
X125.481 Y56.403 I-8.592 J12.511
X127.072 Y57.916 I-13.99 J16.313
X129.044 Y60.201 I-21.976 J20.961
X131.267 Y63.335 I-31.205 J24.484
X134.307 Y68.863 I-39.443 J25.294
X138.339 Y81.939 I-45.15 J21.08
X126.187 Y123.473 I-49.428 J8.083
G1 X126.072 Y123.599
X125.891 Y123.765
X125.686 Y123.9
X125.462 Y123.998
X125.224 Y124.059
X124.979 Y124.079
X121.709
X121.626 Y124.071
X121.545 Y124.052
X121.467 Y124.022
X121.377 Y123.981 Z-0.992
X121.289 Y123.941 Z-0.969
X121.205 Y123.903 Z-0.931
X121.128 Y123.867 Z-0.879
X121.059 Y123.836 Z-0.814
X121 Y123.809 Z-0.738
X120.953 Y123.788 Z-0.653
X120.918 Y123.772 Z-0.561
X120.897 Y123.762 Z-0.464
X120.89 Y123.759 Z-0.365
G0 Z5
X120.075 Y54.763
Z0.27
G1 Z-0.365 F1000
X120.076 Y54.756 Z-0.464
X120.08 Y54.733 Z-0.561
X120.087 Y54.695 Z-0.653
X120.096 Y54.644 Z-0.738
X120.108 Y54.58 Z-0.814
X120.121 Y54.506 Z-0.879
X120.136 Y54.422 Z-0.931
X120.152 Y54.331 Z-0.969
X120.169 Y54.236 Z-0.992
X120.187 Y54.138 Z-1
X120.203 Y54.087
X120.233 Y54.042
X120.274 Y54.007
X120.322 Y53.984
X120.375 Y53.975
X123.804
X124.078 Y53.989
X124.35 Y54.022
X124.62 Y54.073
X124.887 Y54.139
X125.149 Y54.219
X125.408 Y54.31
X125.663 Y54.413
X125.913 Y54.525
X126.16 Y54.647
X126.402 Y54.776
X126.64 Y54.913
G3 X127.554 Y55.52 I-5.686 J9.542
X128.822 Y56.57 I-8.938 J12.088
X130.357 Y58.14 I-14.441 J15.661
X132.244 Y60.496 I-22.705 J20.111
X134.351 Y63.709 I-32.559 J23.654
X136.986 Y68.832 I-41.446 J24.559
X140.45 Y79.805 I-47.532 J21.035
X129.696 Y123.146 I-51.54 J10.216
G1 X129.521 Y123.357
X129.338 Y123.574
X129.156 Y123.749
X128.948 Y123.89
X128.718 Y123.994
X128.475 Y124.058
X128.224 Y124.079
X125.137
X125.054 Y124.071
X124.974 Y124.052
X124.896 Y124.022
X124.805 Y123.981 Z-0.992
X124.717 Y123.941 Z-0.969
X124.634 Y123.903 Z-0.931
X124.556 Y123.867 Z-0.879
X124.487 Y123.836 Z-0.814
X124.428 Y123.809 Z-0.738
X124.381 Y123.788 Z-0.653
X124.346 Y123.772 Z-0.561
X124.325 Y123.762 Z-0.464
X124.318 Y123.759 Z-0.365
G0 Z5
X123.503 Y54.763
Z0.27
G1 Z-0.365 F1000
X123.505 Y54.756 Z-0.464
X123.509 Y54.733 Z-0.561
X123.515 Y54.695 Z-0.653
X123.525 Y54.644 Z-0.738
X123.536 Y54.58 Z-0.814
X123.549 Y54.506 Z-0.879
X123.564 Y54.422 Z-0.931
X123.581 Y54.331 Z-0.969
X123.598 Y54.236 Z-0.992
X123.615 Y54.138 Z-1
X123.632 Y54.087
X123.662 Y54.042
X123.702 Y54.007
X123.751 Y53.984
X123.804 Y53.975
X126.851
X127.125 Y53.989
X127.399 Y54.013
X127.67 Y54.056
X127.938 Y54.116
X128.202 Y54.191
X128.462 Y54.279
X128.717 Y54.38
X128.969 Y54.491
X129.215 Y54.611
X129.458 Y54.74
X129.696 Y54.877
X129.929 Y55.021
G3 X130.823 Y55.658 I-5.982 J9.347
X132.057 Y56.748 I-9.291 J11.758
X133.54 Y58.366 I-14.9 J15.143
X135.349 Y60.783 I-23.358 J19.365
X137.219 Y63.821 I-33.515 J22.729
X139.626 Y68.753 I-42.959 J24.012
X142.497 Y77.622 I-49.637 J20.971
X132.992 Y122.917 I-53.586 J12.4
G1 X132.826 Y123.136
X132.658 Y123.352
X132.518 Y123.525
X132.335 Y123.716
X132.121 Y123.871
X131.882 Y123.985
X131.627 Y124.055
X131.363 Y124.079
X128.375
X128.292 Y124.071
X128.212 Y124.052
X128.134 Y124.022
X128.044 Y123.981 Z-0.992
X127.955 Y123.941 Z-0.969
X127.872 Y123.903 Z-0.931
X127.794 Y123.867 Z-0.879
X127.725 Y123.836 Z-0.814
X127.666 Y123.809 Z-0.738
X127.619 Y123.788 Z-0.653
X127.584 Y123.772 Z-0.561
X127.563 Y123.762 Z-0.464
X127.556 Y123.759 Z-0.365
G0 Z5
X126.551 Y54.763
Z0.27
G1 Z-0.365 F1000
X126.552 Y54.756 Z-0.464
X126.556 Y54.733 Z-0.561
X126.563 Y54.695 Z-0.653
X126.572 Y54.644 Z-0.738
X126.584 Y54.58 Z-0.814
X126.597 Y54.506 Z-0.879
X126.612 Y54.422 Z-0.931
X126.628 Y54.331 Z-0.969
X126.645 Y54.236 Z-0.992
X126.663 Y54.138 Z-1
X126.679 Y54.087
X126.709 Y54.042
X126.75 Y54.007
X126.798 Y53.984
X126.851 Y53.975
X129.899
X130.173 Y53.989
X130.447 Y54.011
X130.718 Y54.053
X130.986 Y54.113
X131.25 Y54.188
X131.509 Y54.277
X131.765 Y54.379
X132.015 Y54.491
X132.261 Y54.614
X132.502 Y54.745
X132.738 Y54.884
X132.97 Y55.031
G3 X133.856 Y55.68 I-5.89 J8.963
X135.07 Y56.791 I-9.162 J11.234
X136.52 Y58.44 I-14.75 J14.43
X138.123 Y60.667 I-22.977 J18.226
X139.941 Y63.737 I-33.342 J21.826
X142.055 Y68.201 I-43.595 J23.38
X144.708 Y76.279 I-51.291 J21.319
X145.459 Y100.248 I-55.741 J13.743
X136.207 Y122.662 I-56.524 J-10.215
X135.596 Y123.501 I-16.2 J-11.172
G1 X135.445 Y123.669
X135.27 Y123.812
X135.076 Y123.927
X134.866 Y124.011
X134.646 Y124.062
X134.421 Y124.079
X131.613
X131.53 Y124.071
X131.45 Y124.052
X131.372 Y124.022
X131.282 Y123.981 Z-0.992
X131.193 Y123.941 Z-0.969
X131.11 Y123.903 Z-0.931
X131.032 Y123.867 Z-0.879
X130.963 Y123.836 Z-0.814
X130.904 Y123.809 Z-0.738
X130.857 Y123.788 Z-0.653
X130.822 Y123.772 Z-0.561
X130.801 Y123.762 Z-0.464
X130.794 Y123.759 Z-0.365
G0 Z5
X129.598 Y54.763
Z0.27
G1 Z-0.365 F1000
X129.6 Y54.756 Z-0.464
X129.604 Y54.733 Z-0.561
X129.611 Y54.695 Z-0.653
X129.62 Y54.644 Z-0.738
X129.631 Y54.58 Z-0.814
X129.645 Y54.506 Z-0.879
X129.66 Y54.422 Z-0.931
X129.676 Y54.331 Z-0.969
X129.693 Y54.236 Z-0.992
X129.71 Y54.138 Z-1
X129.727 Y54.087
X129.757 Y54.042
X129.797 Y54.007
X129.846 Y53.984
X129.899 Y53.975
X132.946
X133.221 Y53.989
X133.494 Y54.015
X133.764 Y54.062
X134.031 Y54.126
X134.294 Y54.206
X134.552 Y54.299
X134.805 Y54.405
X135.054 Y54.522
X135.297 Y54.649
X135.536 Y54.784
X135.77 Y54.928
X135.999 Y55.079
G3 X136.872 Y55.744 I-5.991 J8.764
X137.875 Y56.681 I-9.017 J10.649
X139.141 Y58.125 I-13.712 J13.305
X140.737 Y60.358 I-21.325 J16.927
X142.4 Y63.2 I-31.704 J20.465
X144.388 Y67.421 I-42.924 J22.793
X146.556 Y73.639 I-51.859 J21.572
X148.831 Y88.8 I-57.271 J16.343
X139.352 Y122.389 I-59.904 J1.228
X138.737 Y123.299 I-20.742 J-13.372
G1 X138.602 Y123.48
X138.451 Y123.653
X138.275 Y123.802
X138.078 Y123.921
X137.865 Y124.008
X137.641 Y124.061
X137.412 Y124.079
X134.661
X134.578 Y124.071
X134.497 Y124.052
X134.419 Y124.022
X134.329 Y123.981 Z-0.992
X134.241 Y123.941 Z-0.969
X134.157 Y123.903 Z-0.931
X134.08 Y123.867 Z-0.879
X134.011 Y123.836 Z-0.814
X133.952 Y123.809 Z-0.738
X133.905 Y123.788 Z-0.653
X133.87 Y123.772 Z-0.561
X133.849 Y123.762 Z-0.464
X133.842 Y123.759 Z-0.365
G0 Z5
X132.646 Y54.763
Z0.27
G1 Z-0.365 F1000
X132.647 Y54.756 Z-0.464
X132.651 Y54.733 Z-0.561
X132.658 Y54.695 Z-0.653
X132.667 Y54.644 Z-0.738
X132.679 Y54.58 Z-0.814
X132.692 Y54.506 Z-0.879
X132.707 Y54.422 Z-0.931
X132.723 Y54.331 Z-0.969
X132.74 Y54.236 Z-0.992
X132.758 Y54.138 Z-1
X132.775 Y54.087
X132.804 Y54.042
X132.845 Y54.007
X132.893 Y53.984
X132.946 Y53.975
X135.994
X136.259 Y53.988
X136.531 Y54.024
X136.8 Y54.079
X137.065 Y54.151
X137.325 Y54.238
X137.581 Y54.339
X137.831 Y54.451
X138.077 Y54.574
X138.317 Y54.706
X138.552 Y54.848
X138.783 Y54.997
X139.009 Y55.153
G3 X139.866 Y55.838 I-6.244 J8.699
X141.034 Y56.999 I-9.548 J10.765
X142.411 Y58.708 I-15.17 J13.633
X143.915 Y61.004 I-23.64 J17.129
X145.598 Y64.149 I-34.669 J20.576
X147.432 Y68.439 I-46.146 J22.264
X149.601 Y75.522 I-55.15 J20.765
X151.313 Y90.212 I-60.309 J14.472
X142.583 Y121.857 I-62.384 J-0.184
X141.858 Y123.022 I-28.037 J-16.641
G1 X141.703 Y123.249
X141.532 Y123.488
X141.382 Y123.659
X141.206 Y123.806
X141.01 Y123.923
X140.798 Y124.009
X140.576 Y124.061
X140.348 Y124.079
X137.518
X137.435 Y124.071
X137.354 Y124.052
X137.277 Y124.022
X137.186 Y123.981 Z-0.992
X137.098 Y123.941 Z-0.969
X137.014 Y123.903 Z-0.931
X136.937 Y123.867 Z-0.879
X136.868 Y123.836 Z-0.814
X136.809 Y123.809 Z-0.738
X136.762 Y123.788 Z-0.653
X136.727 Y123.772 Z-0.561
X136.706 Y123.762 Z-0.464
X136.699 Y123.759 Z-0.365
G0 Z5
X135.693 Y54.763
Z0.27
G1 Z-0.365 F1000
X135.695 Y54.756 Z-0.464
X135.699 Y54.733 Z-0.561
X135.706 Y54.695 Z-0.653
X135.715 Y54.644 Z-0.738
X135.726 Y54.58 Z-0.814
X135.74 Y54.506 Z-0.879
X135.755 Y54.422 Z-0.931
X135.771 Y54.331 Z-0.969
X135.788 Y54.236 Z-0.992
X135.806 Y54.138 Z-1
X135.822 Y54.087
X135.852 Y54.042
X135.892 Y54.007
X135.941 Y53.984
X135.994 Y53.975
X138.851
X139.125 Y53.989
X139.398 Y54.023
X139.667 Y54.078
X139.932 Y54.15
X140.192 Y54.238
X140.447 Y54.339
X140.697 Y54.452
X140.942 Y54.576
X141.182 Y54.71
X141.416 Y54.852
X141.646 Y55.003
X141.87 Y55.161
X142.09 Y55.326
G3 X142.924 Y56.04 I-6.847 J8.836
X144.055 Y57.236 I-10.252 J10.831
X145.386 Y58.982 I-16.024 J13.596
X146.967 Y61.553 I-25.009 J17.149
X148.445 Y64.496 I-36.245 J20.045
X150.281 Y69.082 I-48.109 J21.921
X152.235 Y75.943 I-57.52 J20.088
X153.755 Y92.026 I-62.907 J14.059
X145.693 Y121.4 I-64.815 J-1.995
X144.865 Y122.824 I-33.216 J-18.36
G1 X144.718 Y123.055
X144.566 Y123.284
X144.451 Y123.449
X144.3 Y123.631
X144.122 Y123.787
X143.921 Y123.912
X143.703 Y124.004
X143.474 Y124.06
X143.238 Y124.079
X140.565
X140.483 Y124.071
X140.402 Y124.052
X140.324 Y124.022
X140.234 Y123.981 Z-0.992
X140.146 Y123.941 Z-0.969
X140.062 Y123.903 Z-0.931
X139.985 Y123.867 Z-0.879
X139.916 Y123.836 Z-0.814
X139.857 Y123.809 Z-0.738
X139.809 Y123.788 Z-0.653
X139.775 Y123.772 Z-0.561
X139.753 Y123.762 Z-0.464
X139.746 Y123.759 Z-0.365
G0 Z5
X138.551 Y54.763
Z0.27
G1 Z-0.365 F1000
X138.552 Y54.756 Z-0.464
X138.556 Y54.733 Z-0.561
X138.563 Y54.695 Z-0.653
X138.572 Y54.644 Z-0.738
X138.583 Y54.58 Z-0.814
X138.597 Y54.506 Z-0.879
X138.612 Y54.422 Z-0.931
X138.628 Y54.331 Z-0.969
X138.645 Y54.236 Z-0.992
X138.663 Y54.138 Z-1
X138.679 Y54.087
X138.709 Y54.042
X138.749 Y54.007
X138.798 Y53.984
X138.851 Y53.975
X141.708
X141.969 Y53.988
X142.242 Y54.024
X142.51 Y54.08
X142.775 Y54.153
X143.035 Y54.242
X143.289 Y54.345
X143.539 Y54.46
X143.783 Y54.586
X144.021 Y54.721
X144.255 Y54.866
X144.483 Y55.019
X144.706 Y55.179
X144.924 Y55.345
G3 X145.75 Y56.068 I-6.848 J8.661
X146.867 Y57.277 I-10.232 J10.575
X148.175 Y59.04 I-15.966 J13.21
X149.589 Y61.393 I-24.607 J16.392
X151.154 Y64.599 I-36.179 J19.641
X152.837 Y68.95 I-48.711 J21.351
X154.681 Y75.557 I-58.933 J20.005
X156.246 Y88.62 I-64.988 J14.411
X148.633 Y121.155 I-67.305 J1.41
X147.84 Y122.599 I-36.753 J-19.252
G1 X147.7 Y122.835
X147.555 Y123.068
X147.405 Y123.298
X147.309 Y123.439
X147.158 Y123.623
X146.979 Y123.782
X146.778 Y123.909
X146.558 Y124.003
X146.327 Y124.06
X146.089 Y124.079
X143.422
X143.34 Y124.071
X143.259 Y124.052
X143.181 Y124.022
X143.091 Y123.981 Z-0.992
X143.003 Y123.941 Z-0.969
X142.919 Y123.903 Z-0.931
X142.842 Y123.867 Z-0.879
X142.773 Y123.836 Z-0.814
X142.714 Y123.809 Z-0.738
X142.666 Y123.788 Z-0.653
X142.632 Y123.772 Z-0.561
X142.611 Y123.762 Z-0.464
X142.603 Y123.759 Z-0.365
G0 Z5
X141.408 Y54.763
Z0.27
G1 Z-0.365 F1000
X141.409 Y54.756 Z-0.464
X141.413 Y54.733 Z-0.561
X141.42 Y54.695 Z-0.653
X141.429 Y54.644 Z-0.738
X141.44 Y54.58 Z-0.814
X141.454 Y54.506 Z-0.879
X141.469 Y54.422 Z-0.931
X141.485 Y54.331 Z-0.969
X141.502 Y54.236 Z-0.992
X141.52 Y54.138 Z-1
X141.536 Y54.087
X141.566 Y54.042
X141.607 Y54.007
X141.655 Y53.984
X141.708 Y53.975
X144.375
X144.649 Y53.989
X144.922 Y54.014
X145.192 Y54.061
X145.459 Y54.127
X145.721 Y54.21
X145.977 Y54.307
X146.229 Y54.418
X146.475 Y54.54
X146.715 Y54.672
X146.95 Y54.814
X147.179 Y54.965
X147.404 Y55.123
X147.623 Y55.289
G3 X148.451 Y56.009 I-6.503 J8.318
X149.39 Y57.009 I-9.558 J9.914
X150.558 Y58.535 I-14.298 J12.152
X151.997 Y60.871 I-22.13 J15.243
X153.349 Y63.571 I-32.799 J18.108
X154.986 Y67.645 I-45.776 J20.761
X156.516 Y72.63 I-57.178 J20.281
X158.312 Y82.339 I-65.347 J17.108
X157.651 Y102.3 I-69.219 J7.697
X151.607 Y120.764 I-68.663 J-12.253
X150.852 Y122.228 I-42.729 J-21.103
X150.3 Y123.177 I-14.832 J-7.991
G1 X150.149 Y123.407
X150.121 Y123.447
X149.97 Y123.629
X149.792 Y123.785
X149.592 Y123.911
X149.373 Y124.004
X149.143 Y124.06
X148.907 Y124.079
X146.279
X146.197 Y124.071
X146.116 Y124.052
X146.038 Y124.022
X145.948 Y123.981 Z-0.992
X145.86 Y123.941 Z-0.969
X145.776 Y123.903 Z-0.931
X145.699 Y123.867 Z-0.879
X145.63 Y123.836 Z-0.814
X145.571 Y123.809 Z-0.738
X145.523 Y123.788 Z-0.653
X145.489 Y123.772 Z-0.561
X145.468 Y123.762 Z-0.464
X145.461 Y123.759 Z-0.365
G0 Z5
X144.074 Y54.763
Z0.27
G1 Z-0.365 F1000
X144.076 Y54.756 Z-0.464
X144.08 Y54.733 Z-0.561
X144.087 Y54.695 Z-0.653
X144.096 Y54.644 Z-0.738
X144.107 Y54.58 Z-0.814
X144.12 Y54.506 Z-0.879
X144.135 Y54.422 Z-0.931
X144.152 Y54.331 Z-0.969
X144.169 Y54.236 Z-0.992
X144.186 Y54.138 Z-1
X144.203 Y54.087
X144.233 Y54.042
X144.273 Y54.007
X144.322 Y53.984
X144.375 Y53.975
X147.232
X147.506 Y53.989
X147.779 Y54.022
X148.048 Y54.077
X148.312 Y54.15
X148.572 Y54.239
X148.826 Y54.342
X149.075 Y54.458
X149.319 Y54.585
X149.556 Y54.722
X149.789 Y54.868
X150.015 Y55.023
X150.237 Y55.185
X150.453 Y55.354
G3 X151.27 Y56.087 I-6.725 J8.313
X152.194 Y57.102 I-9.798 J9.855
X153.34 Y58.644 I-14.535 J11.994
X154.746 Y61 I-22.379 J14.951
X156.06 Y63.718 I-33.24 J17.749
X157.644 Y67.814 I-46.486 J20.329
X159.115 Y72.816 I-58.668 J19.979
X160.827 Y82.542 I-67.55 J16.9
X160.179 Y102.235 I-71.68 J7.499
X154.584 Y120.276 I-71.171 J-12.183
X153.744 Y122.004 I-45.81 J-21.22
X153.216 Y122.966 I-17.677 J-9.07
G1 X153.072 Y123.201
X152.914 Y123.443
X152.763 Y123.627
X152.585 Y123.784
X152.384 Y123.91
X152.165 Y124.003
X151.934 Y124.06
X151.697 Y124.079
X149.137
X149.054 Y124.071
X148.973 Y124.052
X148.895 Y124.022
X148.805 Y123.981 Z-0.992
X148.717 Y123.941 Z-0.969
X148.633 Y123.903 Z-0.931
X148.556 Y123.867 Z-0.879
X148.487 Y123.836 Z-0.814
X148.428 Y123.809 Z-0.738
X148.381 Y123.788 Z-0.653
X148.346 Y123.772 Z-0.561
X148.325 Y123.762 Z-0.464
X148.318 Y123.759 Z-0.365
G0 Z5
X146.931 Y54.763
Z0.27
G1 Z-0.365 F1000
X146.933 Y54.756 Z-0.464
X146.937 Y54.733 Z-0.561
X146.944 Y54.695 Z-0.653
X146.953 Y54.644 Z-0.738
X146.964 Y54.58 Z-0.814
X146.978 Y54.506 Z-0.879
X146.993 Y54.422 Z-0.931
X147.009 Y54.331 Z-0.969
X147.026 Y54.236 Z-0.992
X147.043 Y54.138 Z-1
X147.06 Y54.087
X147.09 Y54.042
X147.13 Y54.007
X147.179 Y53.984
X147.232 Y53.975
X149.898
X150.173 Y53.989
X150.442 Y54.015
X150.712 Y54.064
X150.978 Y54.132
X151.239 Y54.217
X151.495 Y54.317
X151.745 Y54.43
X151.99 Y54.555
X152.229 Y54.69
X152.462 Y54.835
X152.689 Y54.989
X152.912 Y55.15
X153.128 Y55.318
X153.34 Y55.493
G3 X154.139 Y56.246 I-7.174 J8.408
X155.21 Y57.496 I-10.573 J10.142
X156.449 Y59.308 I-16.329 J12.5
X157.77 Y61.713 I-25.053 J15.326
X159.108 Y64.723 I-36.724 J18.123
X160.571 Y68.864 I-50.239 J20.079
X162.094 Y74.706 I-62.644 J19.445
X163.511 Y84.756 I-70.894 J15.125
X159.849 Y113.711 I-74.491 J5.287
X157.267 Y120.362 I-69.513 J-23.156
X156.444 Y122.099 I-40.808 J-18.264
X155.919 Y123.063 I-14.936 J-7.506
G1 X155.775 Y123.296
X155.698 Y123.413
X155.548 Y123.605
X155.368 Y123.769
X155.163 Y123.902
X154.94 Y123.999
X154.704 Y124.059
X154.461 Y124.079
X151.803
X151.721 Y124.071
X151.64 Y124.052
X151.562 Y124.022
X151.472 Y123.981 Z-0.992
X151.383 Y123.941 Z-0.969
X151.3 Y123.903 Z-0.931
X151.222 Y123.867 Z-0.879
X151.153 Y123.836 Z-0.814
X151.095 Y123.809 Z-0.738
X151.047 Y123.788 Z-0.653
X151.012 Y123.772 Z-0.561
X150.991 Y123.762 Z-0.464
X150.984 Y123.759 Z-0.365
G0 Z5
X149.598 Y54.763
Z0.27
G1 Z-0.365 F1000
X149.599 Y54.756 Z-0.464
X149.603 Y54.733 Z-0.561
X149.61 Y54.695 Z-0.653
X149.619 Y54.644 Z-0.738
X149.631 Y54.58 Z-0.814
X149.644 Y54.506 Z-0.879
X149.659 Y54.422 Z-0.931
X149.675 Y54.331 Z-0.969
X149.693 Y54.236 Z-0.992
X149.71 Y54.138 Z-1
X149.727 Y54.087
X149.756 Y54.042
X149.797 Y54.007
X149.846 Y53.984
X149.898 Y53.975
X152.756
X152.979 Y53.986
X153.251 Y54.022
X153.52 Y54.079
X153.784 Y54.154
X154.043 Y54.245
X154.296 Y54.351
X154.544 Y54.469
X154.786 Y54.599
X155.022 Y54.739
X155.252 Y54.888
X155.477 Y55.045
X155.697 Y55.21
X155.911 Y55.382
X156.12 Y55.56
G3 X156.907 Y56.325 I-7.414 J8.423
X157.962 Y57.589 I-10.814 J10.09
X159.178 Y59.416 I-16.596 J12.369
X160.471 Y61.837 I-25.406 J15.117
X161.774 Y64.862 I-37.123 J17.783
X163.192 Y69.018 I-51.094 J19.753
X164.659 Y74.875 I-64.062 J19.165
X165.885 Y83.292 I-72.54 J14.859
X164.348 Y106.759 I-76.732 J6.76
X160.309 Y119.572 I-75.103 J-16.634
X159.423 Y121.582 I-50.225 J-20.919
X158.936 Y122.565 I-23.459 J-11.015
G1 X158.805 Y122.807
X158.669 Y123.045
X158.527 Y123.28
X158.447 Y123.403
X158.296 Y123.598
X158.116 Y123.764
X157.911 Y123.899
X157.686 Y123.998
X157.448 Y124.059
X157.203 Y124.079
X154.66
X154.578 Y124.071
X154.497 Y124.052
X154.419 Y124.022
X154.329 Y123.981 Z-0.992
X154.241 Y123.941 Z-0.969
X154.157 Y123.903 Z-0.931
X154.079 Y123.867 Z-0.879
X154.011 Y123.836 Z-0.814
X153.952 Y123.809 Z-0.738
X153.904 Y123.788 Z-0.653
X153.87 Y123.772 Z-0.561
X153.848 Y123.762 Z-0.464
X153.841 Y123.759 Z-0.365
G0 Z5
X152.455 Y54.763
Z0.27
G1 Z-0.365 F1000
X152.456 Y54.756 Z-0.464
X152.461 Y54.733 Z-0.561
X152.467 Y54.695 Z-0.653
X152.476 Y54.644 Z-0.738
X152.488 Y54.58 Z-0.814
X152.501 Y54.506 Z-0.879
X152.516 Y54.422 Z-0.931
X152.533 Y54.331 Z-0.969
X152.55 Y54.236 Z-0.992
X152.567 Y54.138 Z-1
X152.584 Y54.087
X152.613 Y54.042
X152.654 Y54.007
X152.703 Y53.984
X152.756 Y53.975
X155.422
X155.676 Y53.988
X155.948 Y54.023
X156.217 Y54.08
X156.481 Y54.156
X156.739 Y54.248
X156.993 Y54.354
X157.24 Y54.473
X157.482 Y54.603
X157.717 Y54.744
X157.947 Y54.894
X158.172 Y55.052
X158.39 Y55.218
X158.604 Y55.391
X158.812 Y55.57
G3 X159.595 Y56.339 I-7.384 J8.304
X160.641 Y57.61 I-10.791 J9.947
X161.844 Y59.446 I-16.555 J12.162
X163.117 Y61.878 I-25.296 J14.79
X164.394 Y64.913 I-37.216 J17.442
X165.778 Y69.081 I-51.496 J19.405
X167.148 Y74.679 I-65.108 J18.909
X168.257 Y82.005 I-73.906 J14.931
X167.845 Y101.443 I-78.869 J8.054
X163.245 Y118.928 I-78.745 J-11.372
X162.298 Y121.21 I-55.363 J-21.633
X161.712 Y122.451 I-26.38 J-11.697
G1 X161.585 Y122.694
X161.453 Y122.935
X161.315 Y123.173
X161.17 Y123.406
X161.159 Y123.422
X161.009 Y123.611
X160.829 Y123.773
X160.626 Y123.904
X160.404 Y124.001
X160.169 Y124.059
X159.928 Y124.079
X157.327
X157.244 Y124.071
X157.163 Y124.052
X157.086 Y124.022
X156.995 Y123.981 Z-0.992
X156.907 Y123.941 Z-0.969
X156.823 Y123.903 Z-0.931
X156.746 Y123.867 Z-0.879
X156.677 Y123.836 Z-0.814
X156.618 Y123.809 Z-0.738
X156.571 Y123.788 Z-0.653
X156.536 Y123.772 Z-0.561
X156.515 Y123.762 Z-0.464
X156.508 Y123.759 Z-0.365
G0 Z5
X155.122 Y54.763
Z0.27
G1 Z-0.365 F1000
X155.123 Y54.756 Z-0.464
X155.127 Y54.733 Z-0.561
X155.134 Y54.695 Z-0.653
X155.143 Y54.644 Z-0.738
X155.155 Y54.58 Z-0.814
X155.168 Y54.506 Z-0.879
X155.183 Y54.422 Z-0.931
X155.199 Y54.331 Z-0.969
X155.216 Y54.236 Z-0.992
X155.234 Y54.138 Z-1
X155.25 Y54.087
X155.28 Y54.042
X155.321 Y54.007
X155.369 Y53.984
X155.422 Y53.975
X158.089
X158.354 Y53.988
X158.626 Y54.024
X158.894 Y54.081
X159.158 Y54.157
X159.417 Y54.249
X159.67 Y54.356
X159.917 Y54.476
X160.158 Y54.607
X160.393 Y54.748
X160.623 Y54.899
X160.846 Y55.058
X161.064 Y55.225
X161.277 Y55.398
X161.484 Y55.578
G3 X162.264 Y56.351 I-7.368 J8.214
X163.303 Y57.628 I-10.756 J9.814
X164.495 Y59.472 I-16.478 J11.955
X165.75 Y61.912 I-25.232 J14.518
X167.003 Y64.958 I-37.242 J17.113
X168.355 Y69.136 I-51.858 J19.083
X169.635 Y74.474 I-65.933 J18.633
X170.813 Y82.621 I-76.119 J15.166
X170.347 Y101.515 I-81.351 J7.446
X166.059 Y118.519 I-81.202 J-11.436
X165.046 Y121.071 I-56.904 J-21.11
X164.477 Y122.32 I-28.007 J-12.003
G1 X164.354 Y122.565
X164.227 Y122.808
X164.093 Y123.048
X163.953 Y123.284
X163.884 Y123.393
X163.734 Y123.59
X163.553 Y123.76
X163.347 Y123.896
X163.12 Y123.997
X162.881 Y124.058
X162.634 Y124.079
X160.184
X160.101 Y124.071
X160.021 Y124.052
X159.943 Y124.022
X159.852 Y123.981 Z-0.992
X159.764 Y123.941 Z-0.969
X159.681 Y123.903 Z-0.931
X159.603 Y123.867 Z-0.879
X159.534 Y123.836 Z-0.814
X159.475 Y123.809 Z-0.738
X159.428 Y123.788 Z-0.653
X159.393 Y123.772 Z-0.561
X159.372 Y123.762 Z-0.464
X159.365 Y123.759 Z-0.365
G0 Z5
X157.788 Y54.763
Z0.27
G1 Z-0.365 F1000
X157.79 Y54.756 Z-0.464
X157.794 Y54.733 Z-0.561
X157.801 Y54.695 Z-0.653
X157.81 Y54.644 Z-0.738
X157.821 Y54.58 Z-0.814
X157.835 Y54.506 Z-0.879
X157.85 Y54.422 Z-0.931
X157.866 Y54.331 Z-0.969
X157.883 Y54.236 Z-0.992
X157.9 Y54.138 Z-1
X157.917 Y54.087
X157.947 Y54.042
X157.987 Y54.007
X158.036 Y53.984
X158.089 Y53.975
X160.755
X161.014 Y53.988
X161.286 Y54.024
X161.555 Y54.081
X161.818 Y54.157
X162.077 Y54.25
X162.33 Y54.357
X162.577 Y54.477
X162.817 Y54.609
X163.052 Y54.751
X163.281 Y54.902
X163.505 Y55.062
X163.722 Y55.229
X163.934 Y55.404
X164.141 Y55.584
G3 X164.917 Y56.36 I-7.347 J8.129
X165.95 Y57.642 I-10.716 J9.69
X167.131 Y59.493 I-16.404 J11.769
X168.37 Y61.942 I-25.166 J14.274
X169.603 Y64.996 I-37.218 J16.798
X170.852 Y68.918 I-51.726 J18.634
X172.066 Y73.99 I-66.074 J18.501
X173.211 Y81.588 I-77.2 J15.514
X173.262 Y98.033 I-83.368 J8.484
X169.037 Y117.575 I-84.164 J-7.969
X167.99 Y120.408 I-63.949 J-22.03
X167.347 Y121.924 I-34.247 J-13.627
X166.861 Y122.908 I-14.623 J-6.609
G1 X166.726 Y123.147
X166.584 Y123.382
X166.566 Y123.408
X166.416 Y123.601
X166.236 Y123.767
X166.031 Y123.901
X165.807 Y123.999
X165.57 Y124.059
X165.326 Y124.079
X162.851
X162.768 Y124.071
X162.687 Y124.052
X162.609 Y124.022
X162.519 Y123.981 Z-0.992
X162.431 Y123.941 Z-0.969
X162.347 Y123.903 Z-0.931
X162.27 Y123.867 Z-0.879
X162.201 Y123.836 Z-0.814
X162.142 Y123.809 Z-0.738
X162.095 Y123.788 Z-0.653
X162.06 Y123.772 Z-0.561
X162.039 Y123.762 Z-0.464
X162.032 Y123.759 Z-0.365
G0 Z5
X160.455 Y54.763
Z0.27
G1 Z-0.365 F1000
X160.456 Y54.756 Z-0.464
X160.46 Y54.733 Z-0.561
X160.467 Y54.695 Z-0.653
X160.476 Y54.644 Z-0.738
X160.488 Y54.58 Z-0.814
X160.501 Y54.506 Z-0.879
X160.516 Y54.422 Z-0.931
X160.532 Y54.331 Z-0.969
X160.549 Y54.236 Z-0.992
X160.567 Y54.138 Z-1
X160.584 Y54.087
X160.613 Y54.042
X160.654 Y54.007
X160.702 Y53.984
X160.755 Y53.975
X163.422
X163.66 Y53.987
X163.932 Y54.023
X164.2 Y54.08
X164.464 Y54.156
X164.722 Y54.249
X164.975 Y54.357
X165.221 Y54.477
X165.462 Y54.609
X165.697 Y54.752
X165.925 Y54.904
X166.148 Y55.064
X166.365 Y55.232
X166.577 Y55.407
X166.783 Y55.589
G3 X167.556 Y56.368 I-7.324 J8.049
X168.584 Y57.654 I-10.685 J9.585
X169.755 Y59.511 I-16.337 J11.603
X170.98 Y61.966 I-25.091 J14.048
X172.193 Y65.028 I-37.184 J16.51
X173.418 Y68.959 I-52.016 J18.363
X174.55 Y73.768 I-66.469 J18.184
X175.631 Y80.821 I-78.211 J15.593
X175.951 Y95.624 I-85.325 J9.252
X171.812 Y117.133 I-86.841 J-5.56
X170.906 Y119.725 I-68.94 J-22.627
X170.089 Y121.763 I-38.502 J-14.263
X169.619 Y122.755 I-16.839 J-7.371
G1 X169.489 Y122.997
X169.352 Y123.235
X169.265 Y123.376
X169.115 Y123.577
X168.934 Y123.751
X168.726 Y123.891
X168.497 Y123.995
X168.254 Y124.058
X168.004 Y124.079
X165.517
X165.435 Y124.071
X165.354 Y124.052
X165.276 Y124.022
X165.186 Y123.981 Z-0.992
X165.098 Y123.941 Z-0.969
X165.014 Y123.903 Z-0.931
X164.936 Y123.867 Z-0.879
X164.867 Y123.836 Z-0.814
X164.809 Y123.809 Z-0.738
X164.761 Y123.788 Z-0.653
X164.727 Y123.772 Z-0.561
X164.705 Y123.762 Z-0.464
X164.698 Y123.759 Z-0.365
G0 Z5
X163.122 Y54.763
Z0.27
G1 Z-0.365 F1000
X163.123 Y54.756 Z-0.464
X163.127 Y54.733 Z-0.561
X163.134 Y54.695 Z-0.653
X163.143 Y54.644 Z-0.738
X163.154 Y54.58 Z-0.814
X163.168 Y54.506 Z-0.879
X163.183 Y54.422 Z-0.931
X163.199 Y54.331 Z-0.969
X163.216 Y54.236 Z-0.992
X163.234 Y54.138 Z-1
X163.25 Y54.087
X163.28 Y54.042
X163.32 Y54.007
X163.369 Y53.984
X163.422 Y53.975
X166.089
X166.294 Y53.985
X166.564 Y54.021
X166.832 Y54.078
X167.096 Y54.155
X167.354 Y54.248
X167.606 Y54.355
X167.853 Y54.476
X168.093 Y54.609
X168.328 Y54.752
X168.556 Y54.904
X168.778 Y55.065
X168.995 Y55.234
X169.206 Y55.409
X169.412 Y55.591
G3 X170.183 Y56.373 I-7.307 J7.984
X171.205 Y57.663 I-10.648 J9.485
X172.368 Y59.525 I-16.269 J11.452
X173.58 Y61.987 I-25.005 J13.838
X174.776 Y65.056 I-37.127 J16.241
X175.978 Y68.993 I-52.248 J18.105
X177.085 Y73.808 I-67.24 J17.992
X178.137 Y80.866 I-79.818 J15.511
X178.477 Y95.121 I-87.528 J9.215
X174.571 Y116.678 I-89.327 J-5.051
X173.613 Y119.541 I-71.117 J-22.209
X172.82 Y121.589 I-40.216 J-14.395
X172.366 Y122.589 I-18.814 J-7.954
G1 X172.241 Y122.833
X172.11 Y123.074
X171.971 Y123.311
X171.924 Y123.387
X171.774 Y123.586
X171.593 Y123.756
X171.386 Y123.895
X171.159 Y123.996
X170.918 Y124.058
X170.67 Y124.079
X168.184
X168.101 Y124.071
X168.02 Y124.052
X167.943 Y124.022
X167.852 Y123.981 Z-0.992
X167.764 Y123.941 Z-0.969
X167.68 Y123.903 Z-0.931
X167.603 Y123.867 Z-0.879
X167.534 Y123.836 Z-0.814
X167.475 Y123.809 Z-0.738
X167.428 Y123.788 Z-0.653
X167.393 Y123.772 Z-0.561
X167.372 Y123.762 Z-0.464
X167.365 Y123.759 Z-0.365
G0 Z5
X165.788 Y54.763
Z0.27
G1 Z-0.365 F1000
X165.79 Y54.756 Z-0.464
X165.794 Y54.733 Z-0.561
X165.8 Y54.695 Z-0.653
X165.81 Y54.644 Z-0.738
X165.821 Y54.58 Z-0.814
X165.834 Y54.506 Z-0.879
X165.849 Y54.422 Z-0.931
X165.866 Y54.331 Z-0.969
X165.883 Y54.236 Z-0.992
X165.9 Y54.138 Z-1
X165.917 Y54.087
X165.946 Y54.042
X165.987 Y54.007
X166.036 Y53.984
X166.089 Y53.975
X168.565
X168.839 Y53.989
X169.097 Y54.015
X169.367 Y54.065
X169.633 Y54.135
X169.893 Y54.222
X170.148 Y54.325
X170.396 Y54.442
X170.639 Y54.571
X170.875 Y54.711
X171.105 Y54.86
X171.329 Y55.019
X171.547 Y55.185
X171.76 Y55.359
X171.967 Y55.54
G3 X172.742 Y56.316 I-7.05 J7.815
X173.608 Y57.381 I-10.079 J9.072
X174.659 Y58.989 I-14.755 J10.803
X175.801 Y61.179 I-22.149 J12.933
X177.051 Y64.226 I-33.325 J15.454
X178.072 Y67.357 I-46.908 J17.028
X179.275 Y72.149 I-62.862 J18.333
X180.272 Y77.826 I-77.064 J16.452
X181.092 Y88.219 I-87.307 J12.123
X179.096 Y109.217 I-91.716 J1.872
X176.857 Y117.708 I-87.942 J-18.644
X175.968 Y120.305 I-61.752 J-19.675
X175.361 Y121.836 I-32.07 J-11.837
X174.896 Y122.831 I-14.347 J-6.112
G1 X174.765 Y123.072
X174.627 Y123.31
X174.581 Y123.383
X174.432 Y123.583
X174.25 Y123.755
X174.043 Y123.894
X173.815 Y123.996
X173.574 Y124.058
X173.325 Y124.079
X170.85
X170.768 Y124.071
X170.687 Y124.052
X170.609 Y124.022
X170.519 Y123.981 Z-0.992
X170.431 Y123.941 Z-0.969
X170.347 Y123.903 Z-0.931
X170.27 Y123.867 Z-0.879
X170.201 Y123.836 Z-0.814
X170.142 Y123.809 Z-0.738
X170.094 Y123.788 Z-0.653
X170.06 Y123.772 Z-0.561
X170.039 Y123.762 Z-0.464
X170.031 Y123.759 Z-0.365
G0 Z5
X168.264 Y54.763
Z0.27
G1 Z-0.365 F1000
X168.266 Y54.756 Z-0.464
X168.27 Y54.733 Z-0.561
X168.277 Y54.695 Z-0.653
X168.286 Y54.644 Z-0.738
X168.297 Y54.58 Z-0.814
X168.311 Y54.506 Z-0.879
X168.326 Y54.422 Z-0.931
X168.342 Y54.331 Z-0.969
X168.359 Y54.236 Z-0.992
X168.376 Y54.138 Z-1
X168.393 Y54.087
X168.423 Y54.042
X168.463 Y54.007
X168.512 Y53.984
X168.565 Y53.975
X171.231
X171.506 Y53.989
X171.77 Y54.021
X172.039 Y54.076
X172.303 Y54.15
X172.562 Y54.242
X172.815 Y54.349
X173.062 Y54.469
X173.303 Y54.6
X173.537 Y54.743
X173.766 Y54.895
X173.988 Y55.056
X174.205 Y55.225
X174.416 Y55.401
X174.621 Y55.583
G3 X175.39 Y56.366 I-7.189 J7.827
X176.247 Y57.438 I-10.236 J9.067
X177.288 Y59.052 I-14.903 J10.75
X178.415 Y61.25 I-22.286 J12.815
X179.646 Y64.304 I-33.577 J15.308
X180.723 Y67.706 I-47.795 J17.006
X181.825 Y72.24 I-63.955 J17.946
X182.832 Y78.194 I-78.706 J16.367
X183.592 Y88.592 I-89.528 J11.775
X181.272 Y110.93 I-94.198 J1.507
X179.347 Y118.086 I-87.401 J-19.676
X178.553 Y120.425 I-58.002 J-18.377
X177.948 Y121.957 I-29.547 J-10.791
X177.477 Y122.949 I-12.785 J-5.465
G1 X177.344 Y123.189
X177.243 Y123.357
X177.094 Y123.564
X176.912 Y123.742
X176.702 Y123.886
X176.471 Y123.992
X176.225 Y124.057
X175.971 Y124.079
X173.517
X173.434 Y124.071
X173.354 Y124.052
X173.276 Y124.022
X173.186 Y123.981 Z-0.992
X173.097 Y123.941 Z-0.969
X173.014 Y123.903 Z-0.931
X172.936 Y123.867 Z-0.879
X172.867 Y123.836 Z-0.814
X172.808 Y123.809 Z-0.738
X172.761 Y123.788 Z-0.653
X172.726 Y123.772 Z-0.561
X172.705 Y123.762 Z-0.464
X172.698 Y123.759 Z-0.365
G0 Z5
X170.931 Y54.763
Z0.27
G1 Z-0.365 F1000
X170.932 Y54.756 Z-0.464
X170.936 Y54.733 Z-0.561
X170.943 Y54.695 Z-0.653
X170.952 Y54.644 Z-0.738
X170.964 Y54.58 Z-0.814
X170.977 Y54.506 Z-0.879
X170.992 Y54.422 Z-0.931
X171.008 Y54.331 Z-0.969
X171.025 Y54.236 Z-0.992
X171.043 Y54.138 Z-1
X171.06 Y54.087
X171.089 Y54.042
X171.13 Y54.007
X171.178 Y53.984
X171.231 Y53.975
X173.898
X174.135 Y53.987
X174.402 Y54.022
X174.67 Y54.079
X174.934 Y54.156
X175.192 Y54.25
X175.444 Y54.358
X175.69 Y54.48
X175.93 Y54.613
X176.164 Y54.757
X176.391 Y54.911
X176.613 Y55.073
X176.829 Y55.243
X177.038 Y55.42
X177.243 Y55.603
G3 X178.008 Y56.39 I-7.257 J7.817
X179.017 Y57.691 I-10.557 J9.242
X180.027 Y59.325 I-15.769 J10.869
X181.23 Y61.791 I-23.831 J13.151
X182.314 Y64.609 I-35.254 J15.186
X183.498 Y68.552 I-50.553 J17.321
X184.525 Y73.104 I-66.976 J17.511
X185.513 Y79.616 I-82.143 J15.791
X186.097 Y90.575 I-92.597 J10.429
X182.624 Y115.795 I-96.724 J-0.473
X181.763 Y118.689 I-77.73 J-21.538
X180.955 Y121.023 I-46.336 J-14.737
X180.432 Y122.293 I-23.062 J-8.753
G1 X180.316 Y122.541
X180.195 Y122.788
X180.068 Y123.031
X179.933 Y123.27
X179.871 Y123.37
X179.722 Y123.573
X179.54 Y123.748
X179.332 Y123.89
X179.102 Y123.994
X178.858 Y124.058
X178.607 Y124.079
X176.184
X176.101 Y124.071
X176.02 Y124.052
X175.943 Y124.022
X175.852 Y123.981 Z-0.992
X175.764 Y123.941 Z-0.969
X175.68 Y123.903 Z-0.931
X175.603 Y123.867 Z-0.879
X175.534 Y123.836 Z-0.814
X175.475 Y123.809 Z-0.738
X175.428 Y123.788 Z-0.653
X175.393 Y123.772 Z-0.561
X175.372 Y123.762 Z-0.464
X175.365 Y123.759 Z-0.365
G0 Z5
X173.598 Y54.763
Z0.27
G1 Z-0.365 F1000
X173.599 Y54.756 Z-0.464
X173.603 Y54.733 Z-0.561
X173.61 Y54.695 Z-0.653
X173.619 Y54.644 Z-0.738
X173.63 Y54.58 Z-0.814
X173.644 Y54.506 Z-0.879
X173.659 Y54.422 Z-0.931
X173.675 Y54.331 Z-0.969
X173.692 Y54.236 Z-0.992
X173.71 Y54.138 Z-1
X173.726 Y54.087
X173.756 Y54.042
X173.796 Y54.007
X173.845 Y53.984
X173.898 Y53.975
X176.374
X176.648 Y53.989
X176.903 Y54.014
X177.173 Y54.064
X177.439 Y54.133
X177.699 Y54.221
X177.953 Y54.324
X178.202 Y54.441
X178.444 Y54.571
X178.68 Y54.711
X178.909 Y54.862
X179.133 Y55.021
X179.35 Y55.189
X179.562 Y55.364
X179.768 Y55.545
X179.968 Y55.733
G3 X180.718 Y56.534 I-7.655 J7.918
X181.708 Y57.849 I-11.028 J9.329
X182.827 Y59.738 I-16.702 J11.162
X183.981 Y62.228 I-25.396 J13.292
X185.107 Y65.323 I-37.751 J15.487
X186.223 Y69.286 I-53.616 J17.24
X187.089 Y73.311 I-68.859 J16.91
X188.1 Y80.375 I-84.531 J15.704
X188.577 Y91.888 I-95.265 J9.718
X185.361 Y115.221 I-99.138 J-1.776
X184.461 Y118.39 I-80.841 J-21.269
X183.68 Y120.734 I-49.549 J-15.19
X183.07 Y122.264 I-24.294 J-8.803
G1 X182.955 Y122.513
X182.836 Y122.761
X182.71 Y123.004
X182.576 Y123.244
X182.505 Y123.362
X182.356 Y123.568
X182.174 Y123.744
X181.964 Y123.887
X181.734 Y123.993
X181.488 Y124.057
X181.236 Y124.079
X178.85
X178.768 Y124.071
X178.687 Y124.052
X178.609 Y124.022
X178.519 Y123.981 Z-0.992
X178.431 Y123.941 Z-0.969
X178.347 Y123.903 Z-0.931
X178.27 Y123.867 Z-0.879
X178.201 Y123.836 Z-0.814
X178.142 Y123.809 Z-0.738
X178.094 Y123.788 Z-0.653
X178.06 Y123.772 Z-0.561
X178.038 Y123.762 Z-0.464
X178.031 Y123.759 Z-0.365
G0 Z5
X176.074 Y54.763
Z0.27
G1 Z-0.365 F1000
X176.075 Y54.756 Z-0.464
X176.079 Y54.733 Z-0.561
X176.086 Y54.695 Z-0.653
X176.095 Y54.644 Z-0.738
X176.107 Y54.58 Z-0.814
X176.12 Y54.506 Z-0.879
X176.135 Y54.422 Z-0.931
X176.151 Y54.331 Z-0.969
X176.168 Y54.236 Z-0.992
X176.186 Y54.138 Z-1
X176.202 Y54.087
X176.232 Y54.042
X176.273 Y54.007
X176.321 Y53.984
X176.374 Y53.975
X179.041
X179.315 Y53.989
X179.579 Y54.023
X179.848 Y54.079
X180.112 Y54.156
X180.37 Y54.249
X180.622 Y54.357
X180.868 Y54.479
X181.108 Y54.613
X181.341 Y54.757
X181.569 Y54.911
X181.79 Y55.074
X182.005 Y55.244
X182.215 Y55.421
X182.418 Y55.605
G3 X183.181 Y56.395 I-7.212 J7.721
X184.028 Y57.475 I-10.236 J8.904
X185.051 Y59.1 I-14.848 J10.49
X186.153 Y61.31 I-22.187 J12.436
X187.257 Y64.12 I-32.948 J14.563
X188.38 Y67.795 I-47.624 J16.564
X189.374 Y72.073 I-64.386 J17.211
X190.269 Y77.489 I-80.446 J16.08
X191.033 Y86.788 I-93.886 J12.392
X190.204 Y103.494 I-100.749 J3.378
X187.907 Y115.346 I-99.907 J-13.218
X187.098 Y118.255 I-80.794 J-20.88
X186.245 Y120.864 I-48.239 J-14.344
X185.741 Y122.141 I-24.641 J-8.975
G1 X185.63 Y122.392
X185.514 Y122.641
X185.392 Y122.887
X185.262 Y123.129
X185.125 Y123.366
X185.112 Y123.386
X184.962 Y123.585
X184.782 Y123.756
X184.575 Y123.894
X184.347 Y123.996
X184.106 Y124.058
X183.858 Y124.079
X181.326
X181.244 Y124.071
X181.163 Y124.052
X181.085 Y124.022
X180.995 Y123.981 Z-0.992
X180.907 Y123.941 Z-0.969
X180.823 Y123.903 Z-0.931
X180.746 Y123.867 Z-0.879
X180.677 Y123.836 Z-0.814
X180.618 Y123.809 Z-0.738
X180.57 Y123.788 Z-0.653
X180.536 Y123.772 Z-0.561
X180.515 Y123.762 Z-0.464
X180.507 Y123.759 Z-0.365
G0 Z5
X178.74 Y54.763
Z0.27
G1 Z-0.365 F1000
X178.742 Y54.756 Z-0.464
X178.746 Y54.733 Z-0.561
X178.753 Y54.695 Z-0.653
X178.762 Y54.644 Z-0.738
X178.773 Y54.58 Z-0.814
X178.787 Y54.506 Z-0.879
X178.802 Y54.422 Z-0.931
X178.818 Y54.331 Z-0.969
X178.835 Y54.236 Z-0.992
X178.852 Y54.138 Z-1
X178.869 Y54.087
X178.899 Y54.042
X178.939 Y54.007
X178.988 Y53.984
X179.041 Y53.975
X181.707
X181.902 Y53.985
X182.167 Y54.019
X182.435 Y54.077
X182.699 Y54.154
X182.957 Y54.248
X183.209 Y54.357
X183.455 Y54.479
X183.694 Y54.613
X183.927 Y54.758
X184.154 Y54.913
X184.375 Y55.076
X184.59 Y55.247
X184.799 Y55.425
X185.002 Y55.609
G3 X185.763 Y56.401 I-7.218 J7.691
X186.607 Y57.482 I-10.215 J8.841
X187.626 Y59.111 I-14.848 J10.425
X188.72 Y61.325 I-22.178 J12.342
X189.814 Y64.138 I-32.854 J14.395
X190.924 Y67.817 I-47.705 J16.401
X191.904 Y72.098 I-64.674 J17.045
X192.783 Y77.517 I-81.383 J15.989
X193.531 Y86.817 I-95.521 J12.36
X192.855 Y102.436 I-102.918 J3.372
X190.605 Y114.854 I-102.569 J-12.176
X189.754 Y118.037 I-83.142 J-20.505
X188.925 Y120.653 I-50.015 J-14.409
X188.438 Y121.936 I-26.336 J-9.264
G1 X188.331 Y122.189
X188.22 Y122.44
X188.104 Y122.689
X187.981 Y122.935
X187.85 Y123.176
X187.752 Y123.345
X187.603 Y123.555
X187.421 Y123.736
X187.21 Y123.882
X186.977 Y123.991
X186.728 Y124.057
X186.472 Y124.079
X183.993
X183.91 Y124.071
X183.83 Y124.052
X183.752 Y124.022
X183.662 Y123.981 Z-0.992
X183.573 Y123.941 Z-0.969
X183.49 Y123.903 Z-0.931
X183.412 Y123.867 Z-0.879
X183.343 Y123.836 Z-0.814
X183.284 Y123.809 Z-0.738
X183.237 Y123.788 Z-0.653
X183.202 Y123.772 Z-0.561
X183.181 Y123.762 Z-0.464
X183.174 Y123.759 Z-0.365
G0 Z5
X181.407 Y54.763
Z0.27
G1 Z-0.365 F1000
X181.408 Y54.756 Z-0.464
X181.412 Y54.733 Z-0.561
X181.419 Y54.695 Z-0.653
X181.428 Y54.644 Z-0.738
X181.44 Y54.58 Z-0.814
X181.453 Y54.506 Z-0.879
X181.468 Y54.422 Z-0.931
X181.484 Y54.331 Z-0.969
X181.501 Y54.236 Z-0.992
X181.519 Y54.138 Z-1
X181.536 Y54.087
X181.565 Y54.042
X181.606 Y54.007
X181.654 Y53.984
X181.707 Y53.975
X184.184
X184.458 Y53.989
X184.594 Y54.005
X184.865 Y54.05
X185.131 Y54.116
X185.393 Y54.2
X185.648 Y54.301
X185.897 Y54.416
X186.14 Y54.544
X186.377 Y54.683
X186.607 Y54.832
X186.832 Y54.991
X187.05 Y55.157
X187.262 Y55.332
X187.468 Y55.513
X187.668 Y55.7
G3 X188.418 Y56.502 I-7.49 J7.756
X189.404 Y57.82 I-10.81 J9.115
X190.513 Y59.715 I-16.366 J10.844
X191.649 Y62.213 I-25.01 J12.884
X192.665 Y65.056 I-36.773 J14.749
X193.763 Y69.024 I-52.573 J16.678
X194.507 Y72.514 I-67.729 J16.271
X195.474 Y79.03 I-85.246 J15.98
X196.067 Y88.341 I-98.876 J10.973
X194.958 Y105.582 I-105.734 J1.852
X193.07 Y115.279 I-103.029 J-15.021
X192.295 Y118.198 I-80.74 J-19.885
X191.468 Y120.815 I-47.189 J-13.467
X190.977 Y122.096 I-24.385 J-8.621
G1 X190.867 Y122.348
X190.754 Y122.598
X190.634 Y122.845
X190.506 Y123.088
X190.371 Y123.327
X190.342 Y123.374
X190.193 Y123.576
X190.011 Y123.75
X189.803 Y123.891
X189.574 Y123.994
X189.331 Y124.058
X189.081 Y124.079
X186.66
X186.577 Y124.071
X186.496 Y124.052
X186.419 Y124.022
X186.328 Y123.981 Z-0.992
X186.24 Y123.941 Z-0.969
X186.156 Y123.903 Z-0.931
X186.079 Y123.867 Z-0.879
X186.01 Y123.836 Z-0.814
X185.951 Y123.809 Z-0.738
X185.904 Y123.788 Z-0.653
X185.869 Y123.772 Z-0.561
X185.848 Y123.762 Z-0.464
X185.841 Y123.759 Z-0.365
G0 Z5
X183.883 Y54.763
Z0.27
G1 Z-0.365 F1000
X183.884 Y54.756 Z-0.464
X183.889 Y54.733 Z-0.561
X183.895 Y54.695 Z-0.653
X183.904 Y54.644 Z-0.738
X183.916 Y54.58 Z-0.814
X183.929 Y54.506 Z-0.879
X183.944 Y54.422 Z-0.931
X183.961 Y54.331 Z-0.969
X183.978 Y54.236 Z-0.992
X183.995 Y54.138 Z-1
X184.012 Y54.087
X184.041 Y54.042
X184.082 Y54.007
X184.131 Y53.984
X184.184 Y53.975
X186.85
X187.049 Y53.985
X187.313 Y54.02
X187.581 Y54.077
X187.845 Y54.154
X188.103 Y54.248
X188.355 Y54.357
X188.6 Y54.48
X188.84 Y54.614
X189.073 Y54.759
X189.299 Y54.914
X189.52 Y55.078
X189.734 Y55.249
X189.943 Y55.428
X190.146 Y55.613
G3 X190.904 Y56.407 I-7.194 J7.623
X191.744 Y57.492 I-10.196 J8.763
X192.756 Y59.124 I-14.787 J10.295
X193.839 Y61.344 I-22.046 J12.131
X194.916 Y64.164 I-32.776 J14.141
X195.935 Y67.584 I-47.057 J15.878
X196.905 Y71.867 I-64.33 J16.827
X197.774 Y77.287 I-82.136 J15.949
X198.5 Y86.039 I-98.039 J12.535
X198.159 Y99.752 I-106.903 J4.201
X196.091 Y113.312 I-108.009 J-9.535
X195.122 Y117.314 I-90.081 J-19.694
X194.268 Y120.211 I-55.609 J-14.815
X193.712 Y121.761 I-28.882 J-9.476
G1 X193.609 Y122.016
X193.503 Y122.269
X193.391 Y122.519
X193.274 Y122.768
X193.15 Y123.012
X193.017 Y123.253
X192.956 Y123.356
X192.807 Y123.563
X192.625 Y123.741
X192.415 Y123.886
X192.183 Y123.992
X191.937 Y124.057
X191.683 Y124.079
X189.326
X189.244 Y124.071
X189.163 Y124.052
X189.085 Y124.022
X188.995 Y123.981 Z-0.992
X188.907 Y123.941 Z-0.969
X188.823 Y123.903 Z-0.931
X188.746 Y123.867 Z-0.879
X188.677 Y123.836 Z-0.814
X188.618 Y123.809 Z-0.738
X188.57 Y123.788 Z-0.653
X188.536 Y123.772 Z-0.561
X188.514 Y123.762 Z-0.464
X188.507 Y123.759 Z-0.365
G0 Z5
X186.55 Y54.763
Z0.27
G1 Z-0.365 F1000
X186.551 Y54.756 Z-0.464
X186.555 Y54.733 Z-0.561
X186.562 Y54.695 Z-0.653
X186.571 Y54.644 Z-0.738
X186.583 Y54.58 Z-0.814
X186.596 Y54.506 Z-0.879
X186.611 Y54.422 Z-0.931
X186.627 Y54.331 Z-0.969
X186.644 Y54.236 Z-0.992
X186.662 Y54.138 Z-1
X186.678 Y54.087
X186.708 Y54.042
X186.749 Y54.007
X186.797 Y53.984
X186.85 Y53.975
X189.326
X189.601 Y53.989
X189.861 Y54.021
X190.129 Y54.076
X190.393 Y54.151
X190.652 Y54.244
X190.904 Y54.352
X191.15 Y54.474
X191.39 Y54.608
X191.624 Y54.752
X191.851 Y54.906
X192.071 Y55.069
X192.286 Y55.24
X192.495 Y55.419
X192.698 Y55.603
X192.896 Y55.794
G3 X193.633 Y56.607 I-7.788 J7.809
X194.602 Y57.938 I-11.142 J9.133
X195.69 Y59.845 I-16.77 J10.828
X196.803 Y62.353 I-25.418 J12.773
X197.874 Y65.467 I-37.823 J14.758
X198.86 Y69.181 I-53.735 J16.251
X199.579 Y72.677 I-69.06 J16.03
X200.019 Y75.351 I-77.079 J14.035
G1 X200.023 Y75.425
X200.025 Y75.498
Y102.852
X200.011 Y103.126
G3 X199.897 Y105.319 I-28.359 J-0.378
X199.538 Y108.317 I-49.126 J-4.355
X198.988 Y111.564 I-73.605 J-10.812
X197.588 Y117.72 I-85.537 J-16.215
X196.894 Y120.091 I-54.288 J-14.6
X196.351 Y121.646 I-29.261 J-9.354
X195.923 Y122.657 I-14.54 J-5.549
G1 X195.802 Y122.904
X195.674 Y123.146
X195.567 Y123.333
X195.419 Y123.546
X195.236 Y123.73
X195.024 Y123.879
X194.789 Y123.989
X194.539 Y124.056
X194.281 Y124.079
X191.802
G3 X191.229 Y123.225 I0.022 J-0.635
G1 X198.794 Y102.655
G3 X200.025 Y102.852 I0.596 J0.219
G1 Y115.423
X200.011 Y115.697
G3 X199.951 Y116.793 I-12.689 J-0.152
X199.661 Y118.692 I-18.351 J-1.827
X198.871 Y121.604 I-22.216 J-4.467
G1 X198.777 Y121.862
X198.68 Y122.119
X198.577 Y122.374
X198.469 Y122.626
X198.354 Y122.875
X198.23 Y123.12
X198.098 Y123.361
X198.088 Y123.378
X197.931 Y123.591
X197.738 Y123.773
X197.516 Y123.918
X197.272 Y124.021
X197.013 Y124.079
X196.749 Y124.09
X196.564 Y124.081
X196.374 Y124.079
X194.469
G3 X193.95 Y123.113 I0.022 J-0.635
G1 X198.849 Y115.113
G3 X200.025 Y115.423 I0.542 J0.332
G1 Y120.375
X200.026 Y120.566
X200.032 Y120.756
X200.045 Y120.947
X200.061 Y121.137
X200.085 Y121.328
X200.12 Y121.518
X200.129 Y121.569
X200.153 Y121.842
X200.158 Y122.117
X200.146 Y122.391
X200.115 Y122.664
X200.065 Y122.934
X199.996 Y123.199
X199.907 Y123.459
X199.888 Y123.503
X199.776 Y123.716
X199.63 Y123.908
X199.455 Y124.074
X199.255 Y124.209
X199.036 Y124.31
X198.804 Y124.374
X198.564 Y124.4
X198.323 Y124.386
X198.088 Y124.334
X197.898 Y124.275
X197.707 Y124.228
X197.517 Y124.187
G3 X197.216 Y123.129 I0.156 J-0.616
G1 X199.049 Y121.235
G3 X200.12 Y121.518 I0.456 J0.442
G1 X200.183 Y121.801
X200.208 Y121.899
X200.262 Y122.089
X200.329 Y122.28
X200.401 Y122.47
X200.479 Y122.661
X200.57 Y122.851
X200.613 Y122.943
X200.655 Y123.051
X200.689 Y123.17
X200.713 Y123.288
X200.73 Y123.425
X200.736 Y123.559
X200.73 Y123.702
X200.678 Y123.943
X200.579 Y124.168
X200.439 Y124.37
X200.262 Y124.542
X200.056 Y124.675
X199.828 Y124.767
X199.586 Y124.812
X199.34 Y124.809
X199.099 Y124.759
X198.872 Y124.664
G3 X198.717 Y123.698 I0.322 J-0.547
G1 X199.544 Y122.753
G3 X200.57 Y122.851 I0.478 J0.418
G1 X200.672 Y123.042
X200.755 Y123.188
X200.781 Y123.232
X200.899 Y123.423
X200.945 Y123.488
X201.038 Y123.613
X201.058 Y123.642
X201.097 Y123.71
X201.131 Y123.783
X201.159 Y123.857
X201.185 Y123.947
X201.204 Y124.043
Y124.293
X201.147 Y124.537
X201.035 Y124.762
X200.874 Y124.954
X200.673 Y125.105
X200.443 Y125.205
X200.196 Y125.249
X199.946 Y125.235
X199.705 Y125.164
X199.487 Y125.04
X199.43 Y124.989
X199.378 Y124.933
X199.332 Y124.871
X199.322 Y124.855
G3 X201.038 Y123.613 I0.894 J-0.571
G2 X201.344 Y123.994 I4.708 J-3.461
G1 X201.43 Y124.084
G3 X201.579 Y124.303 I-0.594 J0.562
G1 X201.611 Y124.379
X201.636 Y124.457
X201.654 Y124.534
X201.661 Y124.781
X201.609 Y125.023
X201.498 Y125.244
X201.338 Y125.432
X201.136 Y125.575
X200.906 Y125.665
X200.661 Y125.697
X200.415 Y125.667
X200.184 Y125.579
X199.982 Y125.438
X199.914 Y125.377
X199.872 Y125.331
X199.836 Y125.28
X199.807 Y125.225
G3 X201.43 Y124.084 I0.92 J-0.416
G1 X201.528 Y124.185
X201.723 Y124.375
X201.858 Y124.492
G3 X202.055 Y124.753 I-0.539 J0.611
X202.147 Y125.069 I-0.928 J0.444
G1 X202.156 Y125.169
X202.127 Y125.413
X202.04 Y125.644
X201.9 Y125.846
X201.715 Y126.009
X201.497 Y126.123
X201.258 Y126.18
X201.011 Y126.178
X200.773 Y126.117
X200.556 Y126
X200.374 Y125.834
G3 X200.484 Y124.932 I0.495 J-0.397
G1 X201.075 Y124.482
G3 X201.858 Y124.492 I0.385 J0.505
G1 X201.898 Y124.526
G2 X202.278 Y124.816 I6.635 J-8.331
G3 X202.496 Y125.008 I-0.372 J0.641
G1 X202.535 Y125.062
G3 X202.667 Y125.358 I-0.865 J0.564
G1 X202.688 Y125.451
X202.702 Y125.55
X202.708 Y125.647
X202.707 Y125.746
X202.695 Y125.86
X202.675 Y125.969
X202.648 Y126.073
X202.641 Y126.092
X202.524 Y126.325
X202.354 Y126.523
X202.141 Y126.673
X201.898 Y126.767
X201.639 Y126.799
X201.38 Y126.766
X201.137 Y126.672
X200.924 Y126.521
X200.755 Y126.322
G3 X200.89 Y125.47 I0.528 J-0.353
G1 X201.617 Y124.899
G3 X202.336 Y124.853 I0.392 J0.499
G1 X202.481 Y124.947
X202.659 Y125.049
X202.85 Y125.153
G3 X203.057 Y125.309 I-0.396 J0.741
G1 X203.109 Y125.366
X203.159 Y125.43
X203.212 Y125.511
X203.257 Y125.594
X203.294 Y125.677
X203.329 Y125.775
X203.357 Y125.882
X203.376 Y125.988
X203.387 Y126.094
X203.389 Y126.219
X203.381 Y126.341
X203.365 Y126.457
X203.336 Y126.582
X203.296 Y126.712
X203.247 Y126.833
X203.189 Y126.949
X203.112 Y127.075
X202.933 Y127.272
X202.714 Y127.424
X202.466 Y127.522
X202.203 Y127.563
X201.937 Y127.543
X201.682 Y127.464
X201.452 Y127.33
X201.258 Y127.147
X201.11 Y126.926
X201.108 Y126.923
G3 X202.85 Y125.153 I1.198 J-0.563
G1 X203.04 Y125.247
X203.231 Y125.328
X203.421 Y125.4
X203.453 Y125.412
X203.506 Y125.434
X203.57 Y125.467
X203.637 Y125.508
X203.706 Y125.559
X203.775 Y125.619
X203.843 Y125.689
X203.91 Y125.769
X203.975 Y125.862
X204.036 Y125.964
X204.09 Y126.076
X204.138 Y126.197
X204.174 Y126.317
X204.203 Y126.452
X204.222 Y126.595
X204.229 Y126.732
X204.224 Y126.876
X204.207 Y127.031
X204.18 Y127.176
X204.139 Y127.322
X204.082 Y127.477
X204.017 Y127.62
X203.94 Y127.757
X203.843 Y127.902
X203.741 Y128.03
X203.628 Y128.15
X203.495 Y128.271
X203.36 Y128.375
X203.129 Y128.495
X202.878 Y128.566
X202.618 Y128.585
X202.359 Y128.551
X202.113 Y128.466
X201.888 Y128.333
X201.695 Y128.158
X201.541 Y127.948
X201.432 Y127.711
X201.399 Y127.613
X201.327 Y127.423
G3 X201.503 Y126.749 I0.602 J-0.203
G1 X202.834 Y125.545
G3 X203.453 Y125.412 I0.426 J0.471
G1 X203.752 Y125.518
X203.802 Y125.537
X203.993 Y125.616
X204.161 Y125.708
X204.183 Y125.724
X204.374 Y125.864
X204.415 Y125.899
X204.564 Y126.05
X204.598 Y126.089
X204.736 Y126.28
X204.755 Y126.31
X204.841 Y126.47
X204.92 Y126.661
X204.945 Y126.735
X204.975 Y126.851
X205.008 Y127.042
X205.019 Y127.232
X205.011 Y127.423
X204.984 Y127.613
X204.945 Y127.772
X204.935 Y127.804
X204.863 Y127.994
X204.764 Y128.185
X204.755 Y128.199
X204.633 Y128.375
X204.564 Y128.46
X204.461 Y128.566
X204.374 Y128.644
X204.229 Y128.756
X204.183 Y128.786
X203.993 Y128.892
X203.868 Y128.946
X203.802 Y128.971
X203.612 Y129.026
X203.421 Y129.06
X203.231 Y129.073
X203.04 Y129.067
X202.85 Y129.04
X202.659 Y128.991
X202.53 Y128.946
X202.469 Y128.92
X202.278 Y128.823
X202.172 Y128.756
X202.088 Y128.695
X201.938 Y128.566
X201.898 Y128.524
X201.766 Y128.375
X201.707 Y128.295
X201.637 Y128.185
X201.537 Y127.994
X201.517 Y127.945
X201.464 Y127.804
X201.432 Y127.711
X201.413 Y127.63
X201.405 Y127.548
X201.408 Y127.465
X201.418 Y127.366 Z-0.992
X201.427 Y127.269 Z-0.969
X201.436 Y127.178 Z-0.931
X201.444 Y127.093 Z-0.879
X201.452 Y127.018 Z-0.814
X201.458 Y126.953 Z-0.738
X201.463 Y126.902 Z-0.653
X201.467 Y126.864 Z-0.561
X201.469 Y126.841 Z-0.464
X201.47 Y126.833 Z-0.365
G0 Z5
X189.026 Y54.763
Z0.27
G1 Z-0.365 F1000
X189.027 Y54.756 Z-0.464
X189.031 Y54.733 Z-0.561
X189.038 Y54.695 Z-0.653
X189.047 Y54.644 Z-0.738
X189.059 Y54.58 Z-0.814
X189.072 Y54.506 Z-0.879
X189.087 Y54.422 Z-0.931
X189.103 Y54.331 Z-0.969
X189.12 Y54.236 Z-0.992
X189.138 Y54.138 Z-1
X189.154 Y54.087
X189.184 Y54.042
X189.225 Y54.007
X189.273 Y53.984
X189.326 Y53.975
X191.993
X192.18 Y53.984
X192.442 Y54.019
X192.711 Y54.076
X192.974 Y54.153
X193.232 Y54.248
X193.484 Y54.357
X193.729 Y54.48
X193.969 Y54.615
X194.201 Y54.761
X194.428 Y54.916
X194.648 Y55.08
X194.862 Y55.252
X195.07 Y55.431
X195.272 Y55.616
X195.469 Y55.808
G3 X196.204 Y56.623 I-7.842 J7.809
X197.169 Y57.957 I-11.189 J9.113
X198.251 Y59.867 I-16.808 J10.784
X199.357 Y62.378 I-25.465 J12.705
X199.948 Y64.011 I-33.567 J13.075
G1 X199.991 Y64.165
X200.016 Y64.323
X200.025 Y64.483
Y75.233
G3 X198.793 Y75.425 I-0.635 J-0.022
G1 X191.417 Y54.824
G3 X191.993 Y53.975 I0.598 J-0.214
G1 X194.469
X194.743 Y53.989
X195.005 Y54.023
X195.274 Y54.08
X195.537 Y54.158
X195.795 Y54.252
X196.047 Y54.362
X196.292 Y54.485
X196.531 Y54.62
X196.763 Y54.766
X196.99 Y54.921
X197.21 Y55.085
X197.424 Y55.258
X197.631 Y55.437
X197.834 Y55.623
X198.03 Y55.814
G3 X198.764 Y56.631 I-7.835 J7.778
X199.796 Y58.077 I-11.238 J9.117
G1 X199.895 Y58.26
X199.967 Y58.456
X200.01 Y58.659
X200.025 Y58.867
Y64.376
G3 X198.823 Y64.639 I-0.635 J-0.022
G1 X193.924 Y54.895
G3 X194.469 Y53.975 I0.567 J-0.285
G1 X196.374
X196.564 Y53.973
X196.755 Y53.964
X196.86 Y53.957
X197.056 Y53.952
X197.292 Y53.965
X197.558 Y54.002
X197.826 Y54.061
X198.089 Y54.139
X198.346 Y54.235
X198.598 Y54.346
X198.843 Y54.47
X199.081 Y54.605
X199.313 Y54.752
X199.539 Y54.908
X199.583 Y54.941
X199.763 Y55.1
X199.915 Y55.287
X200.035 Y55.495
X200.119 Y55.72
X200.166 Y55.956
X200.174 Y56.196
X200.143 Y56.435
X200.115 Y56.567
X200.081 Y56.757
X200.058 Y56.948
X200.043 Y57.138
X200.031 Y57.329
X200.026 Y57.519
X200.025 Y58.091
Y58.662
G3 X198.848 Y58.97 I-0.635 J-0.022
G1 X196.386 Y54.918
G3 X196.294 Y54.589 I0.543 J-0.33
G1 Y54.588
G3 X196.86 Y53.957 I0.635 J0
G1 X196.945 Y53.95
X197.136 Y53.933
X197.326 Y53.906
X197.363 Y53.9
X197.517 Y53.868
X197.707 Y53.826
X197.898 Y53.779
X198.088 Y53.721
X198.121 Y53.71
X198.279 Y53.651
X198.427 Y53.604
X198.595 Y53.564
X198.766 Y53.538
X198.954 Y53.525
X199.133 Y53.526
X199.328 Y53.544
X199.513 Y53.576
X199.601 Y53.599
X199.842 Y53.686
X200.061 Y53.818
X200.25 Y53.99
X200.402 Y54.196
X200.511 Y54.427
X200.573 Y54.675
X200.586 Y54.93
X200.55 Y55.183
X200.465 Y55.424
X200.388 Y55.614
X200.318 Y55.805
G3 X199.26 Y55.992 I-0.588 J-0.24
G1 X198.054 Y54.664
G3 X198.279 Y53.651 I0.47 J-0.427
G1 X198.469 Y53.579
X198.659 Y53.499
X198.85 Y53.403
X199.04 Y53.298
X199.231 Y53.189
G3 X199.5 Y53.054 I0.614 J0.89
G1 X199.602 Y53.025
X199.704 Y53.003
X199.808 Y52.99
X199.929 Y52.985
X200.189 Y53.024
X200.432 Y53.123
X200.646 Y53.275
X200.819 Y53.472
X200.942 Y53.704
X201.009 Y53.958
X201.015 Y54.22
X200.96 Y54.477
X200.848 Y54.714
X200.755 Y54.864
X200.656 Y55.043
G3 X200.254 Y55.338 I-0.551 J-0.33
X199.274 Y53.161 I-0.282 J-1.182
G1 X199.421 Y53.063
X199.612 Y52.922
X199.802 Y52.776
X199.824 Y52.757
X199.852 Y52.732
X199.893 Y52.7
G3 X200.228 Y52.548 I0.55 J0.767
G1 X200.479 Y52.53
X200.727 Y52.573
X200.956 Y52.675
X201.154 Y52.83
X201.308 Y53.029
X201.41 Y53.259
X201.452 Y53.506
X201.433 Y53.757
X201.354 Y53.996
X201.219 Y54.208
X201.179 Y54.248
X201.134 Y54.284
G3 X199.852 Y52.732 I-0.586 J-0.822
G1 X199.993 Y52.608
X200.035 Y52.567
X200.226 Y52.376
X200.271 Y52.329
X200.328 Y52.274
X200.377 Y52.234
X200.428 Y52.199
G3 X200.788 Y52.066 I0.511 J0.829
G1 X201.036 Y52.067
X201.277 Y52.128
X201.496 Y52.247
X201.678 Y52.416
X201.814 Y52.625
X201.895 Y52.86
X201.915 Y53.108
X201.873 Y53.353
X201.773 Y53.581
X201.62 Y53.777
X201.517 Y53.88
X201.455 Y53.929
X201.386 Y53.968
X201.312 Y53.995
X201.3 Y53.998
G3 X200.271 Y52.329 I-0.259 J-0.992
G1 X200.374 Y52.22
X200.404 Y52.186
X200.564 Y51.987
X200.639 Y51.887
G3 X200.828 Y51.708 I0.615 J0.462
G1 X200.891 Y51.669
X200.956 Y51.636
G3 X201.284 Y51.545 I0.451 J0.991
G1 X201.382 Y51.538
X201.487 Y51.539
X201.733 Y51.591
X201.96 Y51.7
X202.154 Y51.859
X202.305 Y52.06
X202.404 Y52.291
X202.445 Y52.539
X202.426 Y52.79
X202.348 Y53.029
X202.216 Y53.243
X202.037 Y53.419
G3 X201.165 Y53.293 I-0.37 J-0.516
G1 X200.658 Y52.64
G3 X200.639 Y51.887 I0.502 J-0.389
G1 X200.701 Y51.805
X200.755 Y51.729
X200.834 Y51.615
X200.949 Y51.424
G3 X201.174 Y51.16 I0.699 J0.366
G1 X201.242 Y51.111
X201.311 Y51.07
X201.383 Y51.035
X201.473 Y51
X201.566 Y50.971
X201.658 Y50.951
X201.758 Y50.938
X201.871 Y50.931
X201.98 Y50.934
X202.087 Y50.946
X202.209 Y50.969
X202.328 Y51.001
X202.439 Y51.042
X202.655 Y51.17
X202.837 Y51.343
X202.978 Y51.551
X203.069 Y51.784
X203.108 Y52.032
X203.092 Y52.283
X203.021 Y52.524
X202.9 Y52.744
X202.734 Y52.932
X202.53 Y53.079
G3 X201.749 Y52.924 I-0.294 J-0.563
G1 X201.047 Y52.086
G3 X200.967 Y51.392 I0.487 J-0.408
G1 X201.054 Y51.234
X201.155 Y51.043
X201.242 Y50.853
X201.245 Y50.843
X201.263 Y50.802
X201.295 Y50.745
X201.333 Y50.685
X201.382 Y50.623
X201.44 Y50.559
X201.506 Y50.497
X201.581 Y50.438
X201.658 Y50.386
X201.749 Y50.335
X201.851 Y50.289
X201.952 Y50.252
X202.06 Y50.222
X202.184 Y50.198
X202.305 Y50.185
X202.427 Y50.182
X202.565 Y50.189
X202.697 Y50.207
X202.825 Y50.235
X202.967 Y50.278
X203.101 Y50.33
X203.227 Y50.392
X203.363 Y50.472
X203.487 Y50.56
X203.601 Y50.655
X203.72 Y50.771
X203.869 Y50.986
X203.97 Y51.227
X204.018 Y51.485
X204.01 Y51.746
X203.946 Y52
X203.831 Y52.235
X203.668 Y52.44
X203.466 Y52.606
X203.234 Y52.726
G3 X202.598 Y52.595 I-0.208 J-0.6
G1 X201.418 Y51.52
G3 X201.245 Y50.843 I0.427 J-0.47
G1 X201.326 Y50.632
X201.386 Y50.472
X201.452 Y50.281
X201.517 Y50.117
X201.556 Y50.032
X201.596 Y49.96
X201.646 Y49.886
X201.707 Y49.809
X201.778 Y49.733
X201.86 Y49.658
X201.953 Y49.586
X202.059 Y49.517
X202.176 Y49.454
X202.304 Y49.397
X202.442 Y49.349
X202.591 Y49.31
X202.751 Y49.281
X202.919 Y49.265
X203.088 Y49.263
X203.252 Y49.273
X203.433 Y49.3
X203.602 Y49.339
X203.767 Y49.391
X203.941 Y49.462
X204.099 Y49.541
X204.256 Y49.637
X204.41 Y49.749
X204.546 Y49.865
X204.567 Y49.886
X204.721 Y50.068
X204.844 Y50.273
X204.932 Y50.495
X204.984 Y50.728
X204.998 Y50.966
X204.973 Y51.203
G3 X204.155 Y51.668 I-0.62 J-0.139
G1 X203.058 Y51.308
X201.917 Y50.934
G3 X201.517 Y50.117 I0.198 J-0.603
G1 X201.527 Y50.091
X201.619 Y49.9
X201.707 Y49.761
X201.743 Y49.71
X201.898 Y49.528
X201.906 Y49.519
X202.088 Y49.359
X202.13 Y49.329
X202.278 Y49.231
X202.458 Y49.138
X202.469 Y49.133
X202.659 Y49.062
X202.85 Y49.014
X203.04 Y48.986
X203.231 Y48.98
X203.421 Y48.995
X203.612 Y49.027
X203.802 Y49.082
X203.943 Y49.138
X203.993 Y49.161
X204.183 Y49.269
X204.27 Y49.329
X204.374 Y49.411
X204.493 Y49.519
X204.564 Y49.595
X204.657 Y49.71
X204.755 Y49.854
X204.781 Y49.9
X204.875 Y50.091
X204.945 Y50.283
X204.99 Y50.472
X205.015 Y50.662
X205.019 Y50.853
X205.003 Y51.043
X204.967 Y51.234
X204.945 Y51.321
X204.907 Y51.424
X204.827 Y51.615
X204.755 Y51.748
X204.717 Y51.805
X204.57 Y51.996
X204.374 Y52.189
X204.183 Y52.331
X204.109 Y52.376
X203.993 Y52.438
X203.802 Y52.515
X203.66 Y52.567
X203.612 Y52.584
X203.421 Y52.653
X203.341 Y52.674
X203.258 Y52.684
X203.175 Y52.682
X203.076 Y52.675 Z-0.992
X202.98 Y52.667 Z-0.969
X202.888 Y52.66 Z-0.931
X202.803 Y52.653 Z-0.879
X202.728 Y52.648 Z-0.814
X202.663 Y52.643 Z-0.738
X202.611 Y52.639 Z-0.653
X202.573 Y52.636 Z-0.561
X202.55 Y52.634 Z-0.464
X202.542 Y52.633 Z-0.365
G0 Z15

(Bolt Holes)
X75.843 Y74.405
Z15
Z-2
G1 Z-3.365 F500
G18 G2 X76.478 Z-4 I0.635 K0
G1 X76.795
G17 G3 X77.391 Y75 I0 J0.595
X75.009 Y75 I-1.191 J0
X77.391 Y75 I1.191 J0
X76.795 Y75.595 I-0.595 J0
G1 X76.478
G18 G3 X75.843 Z-3.365 I0 K0.635
G0 Z5
Y74.405
Z-6
G1 Z-7.365 F500
G2 X76.478 Z-8 I0.635 K0
G1 X76.795
G17 G3 X77.391 Y75 I0 J0.595
X75.009 Y75 I-1.191 J0
X77.391 Y75 I1.191 J0
X76.795 Y75.595 I-0.595 J0
G1 X76.478
G18 G3 X75.843 Z-7.365 I0 K0.635
G0 Z5
Y74.405
Z-9.5
G1 Z-10.865 F500
G2 X76.478 Z-11.5 I0.635 K0
G1 X76.795
G17 G3 X77.391 Y75 I0 J0.595
X75.009 Y75 I-1.191 J0
X77.391 Y75 I1.191 J0
X76.795 Y75.595 I-0.595 J0
G1 X76.478
G18 G3 X75.843 Z-10.865 I0 K0.635
G0 Z5
Y74.405
Z-13
G1 Z-14.365 F500
G2 X76.478 Z-15 I0.635 K0
G1 X76.795
G17 G3 X77.391 Y75 I0 J0.595
X75.009 Y75 I-1.191 J0
X77.391 Y75 I1.191 J0
X76.795 Y75.595 I-0.595 J0
G1 X76.478
G18 G3 X75.843 Z-14.365 I0 K0.635
G0 Z5
X60.533 Y89.007
Z-2
G1 Z-3.365 F500
X60.539 Y89.002 Z-3.464
X60.556 Y88.986 Z-3.561
X60.584 Y88.96 Z-3.653
X60.622 Y88.924 Z-3.738
X60.669 Y88.88 Z-3.814
X60.725 Y88.829 Z-3.879
X60.787 Y88.771 Z-3.931
X60.855 Y88.708 Z-3.969
X60.926 Y88.642 Z-3.992
X60.998 Y88.575 Z-4
X61.231 Y88.359
G17 G3 X62.072 Y88.39 I0.405 J0.436
X60.328 Y90.01 I-0.872 J0.81
X62.072 Y88.39 I0.872 J-0.81
X62.041 Y89.231 I-0.436 J0.405
G1 X61.809 Y89.447
X61.736 Y89.515 Z-3.992
X61.665 Y89.581 Z-3.969
X61.598 Y89.643 Z-3.931
X61.535 Y89.701 Z-3.879
X61.48 Y89.753 Z-3.814
X61.432 Y89.797 Z-3.738
X61.394 Y89.832 Z-3.653
X61.366 Y89.858 Z-3.561
X61.349 Y89.874 Z-3.464
X61.344 Y89.879 Z-3.365
G0 Z5
X60.533 Y89.007
Z-6
G1 Z-7.365 F500
X60.539 Y89.002 Z-7.464
X60.556 Y88.986 Z-7.561
X60.584 Y88.96 Z-7.653
X60.622 Y88.924 Z-7.738
X60.669 Y88.88 Z-7.814
X60.725 Y88.829 Z-7.879
X60.787 Y88.771 Z-7.931
X60.855 Y88.708 Z-7.969
X60.926 Y88.642 Z-7.992
X60.998 Y88.575 Z-8
X61.231 Y88.359
G3 X62.072 Y88.39 I0.405 J0.436
X60.328 Y90.01 I-0.872 J0.81
X62.072 Y88.39 I0.872 J-0.81
X62.041 Y89.231 I-0.436 J0.405
G1 X61.809 Y89.447
X61.736 Y89.515 Z-7.992
X61.665 Y89.581 Z-7.969
X61.598 Y89.643 Z-7.931
X61.535 Y89.701 Z-7.879
X61.48 Y89.753 Z-7.814
X61.432 Y89.797 Z-7.738
X61.394 Y89.832 Z-7.653
X61.366 Y89.858 Z-7.561
X61.349 Y89.874 Z-7.464
X61.344 Y89.879 Z-7.365
G0 Z5
X60.533 Y89.007
Z-9.5
G1 Z-10.865 F500
X60.539 Y89.002 Z-10.964
X60.556 Y88.986 Z-11.061
X60.584 Y88.96 Z-11.153
X60.622 Y88.924 Z-11.238
X60.669 Y88.88 Z-11.314
X60.725 Y88.829 Z-11.379
X60.787 Y88.771 Z-11.431
X60.855 Y88.708 Z-11.469
X60.926 Y88.642 Z-11.492
X60.998 Y88.575 Z-11.5
X61.231 Y88.359
G3 X62.072 Y88.39 I0.405 J0.436
X60.328 Y90.01 I-0.872 J0.81
X62.072 Y88.39 I0.872 J-0.81
X62.041 Y89.231 I-0.436 J0.405
G1 X61.809 Y89.447
X61.736 Y89.515 Z-11.492
X61.665 Y89.581 Z-11.469
X61.598 Y89.643 Z-11.431
X61.535 Y89.701 Z-11.379
X61.48 Y89.753 Z-11.314
X61.432 Y89.797 Z-11.238
X61.394 Y89.832 Z-11.153
X61.366 Y89.858 Z-11.061
X61.349 Y89.874 Z-10.964
X61.344 Y89.879 Z-10.865
G0 Z5
X60.533 Y89.007
Z-13
G1 Z-14.365 F500
X60.539 Y89.002 Z-14.464
X60.556 Y88.986 Z-14.561
X60.584 Y88.96 Z-14.653
X60.622 Y88.924 Z-14.738
X60.669 Y88.88 Z-14.814
X60.725 Y88.829 Z-14.879
X60.787 Y88.771 Z-14.931
X60.855 Y88.708 Z-14.969
X60.926 Y88.642 Z-14.992
X60.998 Y88.575 Z-15
X61.231 Y88.359
G3 X62.072 Y88.39 I0.405 J0.436
X60.328 Y90.01 I-0.872 J0.81
X62.072 Y88.39 I0.872 J-0.81
X62.041 Y89.231 I-0.436 J0.405
G1 X61.809 Y89.447
X61.736 Y89.515 Z-14.992
X61.665 Y89.581 Z-14.969
X61.598 Y89.643 Z-14.931
X61.535 Y89.701 Z-14.879
X61.48 Y89.753 Z-14.814
X61.432 Y89.797 Z-14.738
X61.394 Y89.832 Z-14.653
X61.366 Y89.858 Z-14.561
X61.349 Y89.874 Z-14.464
X61.344 Y89.879 Z-14.365
G0 Z5
X76.069 Y103.882
Z-2
G1 Z-3.365 F500
X76.063 Y103.876 Z-3.464
X76.045 Y103.861 Z-3.561
X76.017 Y103.835 Z-3.653
X75.978 Y103.801 Z-3.738
X75.93 Y103.758 Z-3.814
X75.874 Y103.707 Z-3.879
X75.81 Y103.65 Z-3.931
X75.742 Y103.589 Z-3.969
X75.67 Y103.524 Z-3.992
X75.596 Y103.458 Z-4
X75.359 Y103.246
G3 X75.314 Y102.405 I0.397 J-0.443
X77.086 Y103.995 I0.886 J0.795
X75.314 Y102.405 I-0.886 J-0.795
X76.154 Y102.359 I0.443 J0.397
G1 X76.391 Y102.571
X76.465 Y102.638 Z-3.992
X76.537 Y102.702 Z-3.969
X76.605 Y102.764 Z-3.931
X76.668 Y102.82 Z-3.879
X76.725 Y102.871 Z-3.814
X76.773 Y102.914 Z-3.738
X76.812 Y102.949 Z-3.653
X76.84 Y102.974 Z-3.561
X76.858 Y102.99 Z-3.464
X76.863 Y102.995 Z-3.365
G0 Z5
X76.069 Y103.882
Z-6
G1 Z-7.365 F500
X76.063 Y103.876 Z-7.464
X76.045 Y103.861 Z-7.561
X76.017 Y103.835 Z-7.653
X75.978 Y103.801 Z-7.738
X75.93 Y103.758 Z-7.814
X75.874 Y103.707 Z-7.879
X75.81 Y103.65 Z-7.931
X75.742 Y103.589 Z-7.969
X75.67 Y103.524 Z-7.992
X75.596 Y103.458 Z-8
X75.359 Y103.246
G3 X75.314 Y102.405 I0.397 J-0.443
X77.086 Y103.995 I0.886 J0.795
X75.314 Y102.405 I-0.886 J-0.795
X76.154 Y102.359 I0.443 J0.397
G1 X76.391 Y102.571
X76.465 Y102.638 Z-7.992
X76.537 Y102.702 Z-7.969
X76.605 Y102.764 Z-7.931
X76.668 Y102.82 Z-7.879
X76.725 Y102.871 Z-7.814
X76.773 Y102.914 Z-7.738
X76.812 Y102.949 Z-7.653
X76.84 Y102.974 Z-7.561
X76.858 Y102.99 Z-7.464
X76.863 Y102.995 Z-7.365
G0 Z5
X76.069 Y103.882
Z-9.5
G1 Z-10.865 F500
X76.063 Y103.876 Z-10.964
X76.045 Y103.861 Z-11.061
X76.017 Y103.835 Z-11.153
X75.978 Y103.801 Z-11.238
X75.93 Y103.758 Z-11.314
X75.874 Y103.707 Z-11.379
X75.81 Y103.65 Z-11.431
X75.742 Y103.589 Z-11.469
X75.67 Y103.524 Z-11.492
X75.596 Y103.458 Z-11.5
X75.359 Y103.246
G3 X75.314 Y102.405 I0.397 J-0.443
X77.086 Y103.995 I0.886 J0.795
X75.314 Y102.405 I-0.886 J-0.795
X76.154 Y102.359 I0.443 J0.397
G1 X76.391 Y102.571
X76.465 Y102.638 Z-11.492
X76.537 Y102.702 Z-11.469
X76.605 Y102.764 Z-11.431
X76.668 Y102.82 Z-11.379
X76.725 Y102.871 Z-11.314
X76.773 Y102.914 Z-11.238
X76.812 Y102.949 Z-11.153
X76.84 Y102.974 Z-11.061
X76.858 Y102.99 Z-10.964
X76.863 Y102.995 Z-10.865
G0 Z5
X76.069 Y103.882
Z-13
G1 Z-14.365 F500
X76.063 Y103.876 Z-14.464
X76.045 Y103.861 Z-14.561
X76.017 Y103.835 Z-14.653
X75.978 Y103.801 Z-14.738
X75.93 Y103.758 Z-14.814
X75.874 Y103.707 Z-14.879
X75.81 Y103.65 Z-14.931
X75.742 Y103.589 Z-14.969
X75.67 Y103.524 Z-14.992
X75.596 Y103.458 Z-15
X75.359 Y103.246
G3 X75.314 Y102.405 I0.397 J-0.443
X77.086 Y103.995 I0.886 J0.795
X75.314 Y102.405 I-0.886 J-0.795
X76.154 Y102.359 I0.443 J0.397
G1 X76.391 Y102.571
X76.465 Y102.638 Z-14.992
X76.537 Y102.702 Z-14.969
X76.605 Y102.764 Z-14.931
X76.668 Y102.82 Z-14.879
X76.725 Y102.871 Z-14.814
X76.773 Y102.914 Z-14.738
X76.812 Y102.949 Z-14.653
X76.84 Y102.974 Z-14.561
X76.858 Y102.99 Z-14.464
X76.863 Y102.995 Z-14.365
G0 Z5
X92.069 Y89.386
Z-2
G1 Z-3.365 F500
X92.063 Y89.391 Z-3.464
X92.046 Y89.407 Z-3.561
X92.019 Y89.434 Z-3.653
X91.981 Y89.469 Z-3.738
X91.934 Y89.514 Z-3.814
X91.879 Y89.566 Z-3.879
X91.817 Y89.625 Z-3.931
X91.751 Y89.688 Z-3.969
X91.68 Y89.755 Z-3.992
X91.608 Y89.823 Z-4
X91.378 Y90.042
G3 X90.536 Y90.02 I-0.41 J-0.432
X92.264 Y88.38 I0.864 J-0.82
X90.536 Y90.02 I-0.864 J0.82
X90.558 Y89.178 I0.432 J-0.41
G1 X90.789 Y88.959
X90.861 Y88.891 Z-3.992
X90.931 Y88.824 Z-3.969
X90.998 Y88.761 Z-3.931
X91.059 Y88.702 Z-3.879
X91.114 Y88.65 Z-3.814
X91.161 Y88.606 Z-3.738
X91.199 Y88.57 Z-3.653
X91.227 Y88.544 Z-3.561
X91.244 Y88.528 Z-3.464
X91.249 Y88.522 Z-3.365
G0 Z5
X92.069 Y89.386
Z-6
G1 Z-7.365 F500
X92.063 Y89.391 Z-7.464
X92.046 Y89.407 Z-7.561
X92.019 Y89.434 Z-7.653
X91.981 Y89.469 Z-7.738
X91.934 Y89.514 Z-7.814
X91.879 Y89.566 Z-7.879
X91.817 Y89.625 Z-7.931
X91.751 Y89.688 Z-7.969
X91.68 Y89.755 Z-7.992
X91.608 Y89.823 Z-8
X91.378 Y90.042
G3 X90.536 Y90.02 I-0.41 J-0.432
X92.264 Y88.38 I0.864 J-0.82
X90.536 Y90.02 I-0.864 J0.82
X90.558 Y89.178 I0.432 J-0.41
G1 X90.789 Y88.959
X90.861 Y88.891 Z-7.992
X90.931 Y88.824 Z-7.969
X90.998 Y88.761 Z-7.931
X91.059 Y88.702 Z-7.879
X91.114 Y88.65 Z-7.814
X91.161 Y88.606 Z-7.738
X91.199 Y88.57 Z-7.653
X91.227 Y88.544 Z-7.561
X91.244 Y88.528 Z-7.464
X91.249 Y88.522 Z-7.365
G0 Z5
X92.069 Y89.386
Z-9.5
G1 Z-10.865 F500
X92.063 Y89.391 Z-10.964
X92.046 Y89.407 Z-11.061
X92.019 Y89.434 Z-11.153
X91.981 Y89.469 Z-11.238
X91.934 Y89.514 Z-11.314
X91.879 Y89.566 Z-11.379
X91.817 Y89.625 Z-11.431
X91.751 Y89.688 Z-11.469
X91.68 Y89.755 Z-11.492
X91.608 Y89.823 Z-11.5
X91.378 Y90.042
G3 X90.536 Y90.02 I-0.41 J-0.432
X92.264 Y88.38 I0.864 J-0.82
X90.536 Y90.02 I-0.864 J0.82
X90.558 Y89.178 I0.432 J-0.41
G1 X90.789 Y88.959
X90.861 Y88.891 Z-11.492
X90.931 Y88.824 Z-11.469
X90.998 Y88.761 Z-11.431
X91.059 Y88.702 Z-11.379
X91.114 Y88.65 Z-11.314
X91.161 Y88.606 Z-11.238
X91.199 Y88.57 Z-11.153
X91.227 Y88.544 Z-11.061
X91.244 Y88.528 Z-10.964
X91.249 Y88.522 Z-10.865
G0 Z5
X92.069 Y89.386
Z-13
G1 Z-14.365 F500
X92.063 Y89.391 Z-14.464
X92.046 Y89.407 Z-14.561
X92.019 Y89.434 Z-14.653
X91.981 Y89.469 Z-14.738
X91.934 Y89.514 Z-14.814
X91.879 Y89.566 Z-14.879
X91.817 Y89.625 Z-14.931
X91.751 Y89.688 Z-14.969
X91.68 Y89.755 Z-14.992
X91.608 Y89.823 Z-15
X91.378 Y90.042
G3 X90.536 Y90.02 I-0.41 J-0.432
X92.264 Y88.38 I0.864 J-0.82
X90.536 Y90.02 I-0.864 J0.82
X90.558 Y89.178 I0.432 J-0.41
G1 X90.789 Y88.959
X90.861 Y88.891 Z-14.992
X90.931 Y88.824 Z-14.969
X90.998 Y88.761 Z-14.931
X91.059 Y88.702 Z-14.879
X91.114 Y88.65 Z-14.814
X91.161 Y88.606 Z-14.738
X91.199 Y88.57 Z-14.653
X91.227 Y88.544 Z-14.561
X91.244 Y88.528 Z-14.464
X91.249 Y88.522 Z-14.365
G0 Z15
G28 G91 Z0
G90
G28 G91 X0 Y0
G90
M5
M30
