(waste_board)
(Facing waste board)
(Machine)
(  vendor: Carbide 3D)
(  model: 3)
(  description: Shapeoko)
(T1  D=6.35 CR=0 - ZMIN=-1 - flat end mill)
G90 G94
G17
G21
G28 G91 Z0
G90

(Face1)
T1 M6
(3 Flute)
S10000 M3
G54
G0 X400.367 Y0.828
Z15
Z5
G1 Z-0.365 F3500
G18 G3 X399.733 Z-1 I-0.635 K0
G1 X396.24
X0
G17 G2 X0 Y4.791 I0 J1.982
G1 X396.24
G3 X396.24 Y8.755 I0 J1.982
G1 X0
G2 X0 Y12.718 I0 J1.982
G1 X396.24
G3 X396.24 Y16.681 I0 J1.982
G1 X0
G2 X0 Y20.644 I0 J1.982
G1 X396.24
G3 X396.24 Y24.607 I0 J1.982
G1 X0
G2 X0 Y28.57 I0 J1.982
G1 X396.24
G3 X396.24 Y32.534 I0 J1.982
G1 X0
G2 X0 Y36.497 I0 J1.982
G1 X396.24
G3 X396.24 Y40.46 I0 J1.982
G1 X0
G2 X0 Y44.423 I0 J1.982
G1 X396.24
G3 X396.24 Y48.386 I0 J1.982
G1 X0
G2 X0 Y52.35 I0 J1.982
G1 X396.24
G3 X396.24 Y56.313 I0 J1.982
G1 X0
G2 X0 Y60.276 I0 J1.982
G1 X396.24
G3 X396.24 Y64.239 I0 J1.982
G1 X0
G2 X0 Y68.202 I0 J1.982
G1 X396.24
G3 X396.24 Y72.166 I0 J1.982
G1 X0
G2 X0 Y76.129 I0 J1.982
G1 X396.24
G3 X396.24 Y80.092 I0 J1.982
G1 X0
G2 X0 Y84.055 I0 J1.982
G1 X396.24
G3 X396.24 Y88.018 I0 J1.982
G1 X0
G2 X0 Y91.981 I0 J1.982
G1 X396.24
G3 X396.24 Y95.945 I0 J1.982
G1 X0
G2 X0 Y99.908 I0 J1.982
G1 X396.24
G3 X396.24 Y103.871 I0 J1.982
G1 X0
G2 X0 Y107.834 I0 J1.982
G1 X396.24
G3 X396.24 Y111.797 I0 J1.982
G1 X0
G2 X0 Y115.761 I0 J1.982
G1 X396.24
G3 X396.24 Y119.724 I0 J1.982
G1 X0
G2 X0 Y123.687 I0 J1.982
G1 X396.24
G3 X396.24 Y127.65 I0 J1.982
G1 X0
G2 X0 Y131.613 I0 J1.982
G1 X396.24
G3 X396.24 Y135.577 I0 J1.982
G1 X0
G2 X0 Y139.54 I0 J1.982
G1 X396.24
G3 X396.24 Y143.503 I0 J1.982
G1 X0
G2 X0 Y147.466 I0 J1.982
G1 X396.24
G3 X396.24 Y151.429 I0 J1.982
G1 X0
G2 X0 Y155.393 I0 J1.982
G1 X396.24
G3 X396.24 Y159.356 I0 J1.982
G1 X0
G2 X0 Y163.319 I0 J1.982
G1 X396.24
G3 X396.24 Y167.282 I0 J1.982
G1 X0
G2 X0 Y171.245 I0 J1.982
G1 X396.24
G3 X396.24 Y175.208 I0 J1.982
G1 X0
G2 X0 Y179.172 I0 J1.982
G1 X396.24
G3 X396.24 Y183.135 I0 J1.982
G1 X0
G2 X0 Y187.098 I0 J1.982
G1 X396.24
G3 X396.24 Y191.061 I0 J1.982
G1 X0
G2 X0 Y195.024 I0 J1.982
G1 X396.24
G3 X396.24 Y198.988 I0 J1.982
G1 X0
G2 X0 Y202.951 I0 J1.982
G1 X396.24
G3 X396.24 Y206.914 I0 J1.982
G1 X0
G2 X0 Y210.877 I0 J1.982
G1 X396.24
G3 X396.24 Y214.84 I0 J1.982
G1 X0
G2 X0 Y218.803 I0 J1.982
G1 X396.24
G3 X396.24 Y222.767 I0 J1.982
G1 X0
G2 X0 Y226.73 I0 J1.982
G1 X396.24
G3 X396.24 Y230.693 I0 J1.982
G1 X0
G2 X0 Y234.656 I0 J1.982
G1 X396.24
G3 X396.24 Y238.619 I0 J1.982
G1 X0
G2 X0 Y242.583 I0 J1.982
G1 X396.24
G3 X396.24 Y246.546 I0 J1.982
G1 X0
G2 X0 Y250.509 I0 J1.982
G1 X396.24
G3 X396.24 Y254.472 I0 J1.982
G1 X0
G2 X0 Y258.435 I0 J1.982
G1 X396.24
G3 X396.24 Y262.399 I0 J1.982
G1 X0
G2 X0 Y266.362 I0 J1.982
G1 X396.24
G3 X396.24 Y270.325 I0 J1.982
G1 X0
G2 X0 Y274.288 I0 J1.982
G1 X396.24
G3 X396.24 Y278.251 I0 J1.982
G1 X0
G2 X0 Y282.215 I0 J1.982
G1 X396.24
G3 X396.24 Y286.178 I0 J1.982
G1 X0
G2 X0 Y290.141 I0 J1.982
G1 X396.24
G3 X396.24 Y294.104 I0 J1.982
G1 X0
G2 X0 Y298.067 I0 J1.982
G1 X396.24
G3 X396.24 Y302.03 I0 J1.982
G1 X0
G2 X0 Y305.994 I0 J1.982
G1 X396.24
G3 X396.24 Y309.957 I0 J1.982
G1 X0
G2 X0 Y313.92 I0 J1.982
G1 X396.24
G3 X396.24 Y317.883 I0 J1.982
G1 X0
G2 X0 Y321.846 I0 J1.982
G1 X396.24
G3 X396.24 Y325.81 I0 J1.982
G1 X0
G2 X0 Y329.773 I0 J1.982
G1 X396.24
G3 X396.24 Y333.736 I0 J1.982
G1 X0
G2 X0 Y337.699 I0 J1.982
G1 X396.24
G3 X396.24 Y341.662 I0 J1.982
G1 X0
G2 X0 Y345.625 I0 J1.982
G1 X396.24
G3 X396.24 Y349.589 I0 J1.982
G1 X0
G2 X0 Y353.552 I0 J1.982
G1 X396.24
G3 X396.24 Y357.515 I0 J1.982
G1 X0
G2 X0 Y361.478 I0 J1.982
G1 X396.24
G3 X396.24 Y365.441 I0 J1.982
G1 X0
G2 X0 Y369.405 I0 J1.982
G1 X396.24
G3 X396.24 Y373.368 I0 J1.982
G1 X0
G2 X0 Y377.331 I0 J1.982
G1 X396.24
G3 X396.24 Y381.294 I0 J1.982
G1 X0
G2 X0 Y385.257 I0 J1.982
G1 X396.24
G3 X396.24 Y389.221 I0 J1.982
G1 X0
G2 X0 Y393.184 I0 J1.982
G1 X396.24
G18 G2 X396.875 Z-0.365 I0 K0.635
G0 Z15
G17
G28 G91 Z0
G90
G28 G91 X0 Y0
G90
M5
M30
