; G-Code generated by Simplify3D(R) Version 4.0.0
; Jan 13, 2018 at 5:49:03 PM
; Settings Summary
;   processName,Normal ABS-1
;   applyToModels,AlteredPlatform
;   profileName,MakerBot Replicator 2X (modified)
;   profileVersion,2015-05-01 08:00:00
;   baseProfile,
;   printMaterial,ABS
;   printQuality,Medium
;   printExtruders,Left Extruder Only
;   extruderName,Left Extruder
;   extruderToolheadNumber,1
;   extruderDiameter,0.4
;   extruderAutoWidth,0
;   extruderWidth,0.4
;   extrusionMultiplier,1
;   extruderUseRetract,1
;   extruderRetractionDistance,0.75
;   extruderExtraRestartDistance,0
;   extruderRetractionZLift,0
;   extruderRetractionSpeed,1200
;   extruderUseCoasting,0
;   extruderCoastingDistance,0.2
;   extruderUseWipe,0
;   extruderWipeDistance,5
;   primaryExtruder,0
;   layerHeight,0.2
;   topSolidLayers,4
;   bottomSolidLayers,4
;   perimeterOutlines,3
;   printPerimetersInsideOut,1
;   startPointOption,2
;   startPointOriginX,0
;   startPointOriginY,0
;   sequentialIslands,0
;   spiralVaseMode,0
;   firstLayerHeightPercentage,100
;   firstLayerWidthPercentage,100
;   firstLayerUnderspeed,0.33
;   useRaft,0
;   raftExtruder,0
;   raftTopLayers,3
;   raftBaseLayers,2
;   raftOffset,3
;   raftSeparationDistance,0.14
;   raftTopInfill,100
;   aboveRaftSpeedMultiplier,0.3
;   useSkirt,1
;   skirtExtruder,0
;   skirtLayers,1
;   skirtOutlines,2
;   skirtOffset,4
;   usePrimePillar,0
;   primePillarExtruder,999
;   primePillarWidth,12
;   primePillarLocation,7
;   primePillarSpeedMultiplier,1
;   useOozeShield,0
;   oozeShieldExtruder,999
;   oozeShieldOffset,2
;   oozeShieldOutlines,1
;   oozeShieldSidewallShape,1
;   oozeShieldSidewallAngle,30
;   oozeShieldSpeedMultiplier,1
;   infillExtruder,0
;   internalInfillPattern,Rectilinear
;   externalInfillPattern,Rectilinear
;   infillPercentage,20
;   outlineOverlapPercentage,20
;   infillExtrusionWidthPercentage,100
;   minInfillLength,5
;   infillLayerInterval,1
;   internalInfillAngles,45,-45
;   overlapInternalInfillAngles,0
;   externalInfillAngles,45,-45
;   generateSupport,0
;   supportExtruder,0
;   supportInfillPercentage,30
;   supportExtraInflation,1
;   supportBaseLayers,2
;   denseSupportExtruder,0
;   denseSupportLayers,0
;   denseSupportInfillPercentage,70
;   supportLayerInterval,1
;   supportHorizontalPartOffset,0.3
;   supportUpperSeparationLayers,1
;   supportLowerSeparationLayers,1
;   supportType,0
;   supportGridSpacing,3
;   maxOverhangAngle,45
;   supportAngles,0
;   temperatureName,Right Extruder,Left Extruder,Heated Build Platform
;   temperatureNumber,0,1,0
;   temperatureSetpointCount,1,1,3
;   temperatureSetpointLayers,1,1,1,1,3
;   temperatureSetpointTemperatures,0,230,100,95,90
;   temperatureStabilizeAtStartup,0,0,1
;   temperatureHeatedBed,0,0,1
;   temperatureRelayBetweenLayers,0,0,0
;   temperatureRelayBetweenLoops,0,0,0
;   fanLayers,1
;   fanSpeeds,0
;   blipFanToFullPower,0
;   adjustSpeedForCooling,1
;   minSpeedLayerTime,15
;   minCoolingSpeedSlowdown,20
;   increaseFanForCooling,0
;   minFanLayerTime,45
;   maxCoolingFanSpeed,100
;   increaseFanForBridging,0
;   bridgingFanSpeed,100
;   use5D,1
;   relativeEdistances,1
;   allowEaxisZeroing,0
;   independentExtruderAxes,1
;   includeM10123,0
;   stickySupport,1
;   applyToolheadOffsets,0
;   gcodeXoffset,0
;   gcodeYoffset,0
;   gcodeZoffset,0
;   overrideMachineDefinition,1
;   machineTypeOverride,0
;   strokeXoverride,250
;   strokeYoverride,150
;   strokeZoverride,150
;   originOffsetXoverride,125
;   originOffsetYoverride,75
;   originOffsetZoverride,0
;   homeXdirOverride,1
;   homeYdirOverride,1
;   homeZdirOverride,-1
;   flipXoverride,1
;   flipYoverride,-1
;   flipZoverride,1
;   toolheadOffsets,0,0|33,0|0,0|0,0|0,0|0,0
;   overrideFirmwareConfiguration,1
;   firmwareTypeOverride,MakerBot/Sailfish Firmware
;   GPXconfigOverride,r2x
;   baudRateOverride,115200
;   overridePrinterModels,1
;   printerModelsOverride,MakerBot_Replicator2X.stl
;   startingGcode,; **** Replicator 2X start.gcode ****,M73 P0 ; Enable build progress,G162 X Y F3000 ; Home XY maximum,G161 Z F1200 ; Home Z minimum,G92 Z-5 ; Set Z to -5,G1 Z0 ; Move Z to 0,G161 Z F100 ; Home Z slowly,M132 X Y Z A B ; Recall home offsets,M135 T0 ; Load right extruder offsets,G1 X-130 Y-75 Z30 F9000 ; Move to wait position off table,G130 X20 Y20 Z20 A20 B20 ; Lower stepper Vrefs while heating,M126 S[fan_speed_pwm] ; Set fan speed,M140 S[bed0_temperature] T0 ; Heat buildplate,M134 T0 ; Stabilize bed temperature,M104 S[extruder1_temperature] T1 ; Heat left extruder,M133 T1 ; Stabilize left extruder temperature,G130 X127 Y127 Z40 A127 B127 ; Default stepper Vrefs,G92 A0 B0 ; Zero extruders,M135 T1 ; Load left extruder offsets,G1 X-100 Y-65 F9000 ; Move to front left corner of bed,G1 Z0.3 F6000 ; Move down to purge,G1 X90 Y-65 E24 F2000 ; Extrude a line of filament across the front edge of the bed,G1 X100 Y-65 F180 ; Wait for ooze,G1 X110 Y-65 F5000 ; Fast wipe,G1 Z1 F100 ; Lift,G92 A0 B0 ; zero extruders,M73 P1 ;@body (notify GPX body has started),; **** end of start.gcode ****
;   layerChangeGcode,
;   retractionGcode,
;   toolChangeGcode,
;   endingGcode,; **** Replicator 2X end.gcode ****,M73 P100 ; end build progress,G1 Z155 F1000 ; send Z axis to bottom of machine,M140 S0 T0 ; cool down HBP,M104 S0 T0 ; cool down right extruder,M104 S0 T1 ; cool down left extruder,M127 ; stop blower fan,G162 X Y F3000 ; home XY maximum,M18 ; disable stepper,M72 P1 ; play Ta-Da song,; **** end of end.gcode ****
;   exportFileFormat,x3g
;   celebration,0
;   celebrationSong,Random Song
;   postProcessing,
;   defaultSpeed,6000
;   outlineUnderspeed,0.5
;   solidInfillUnderspeed,0.8
;   supportUnderspeed,0.8
;   rapidXYspeed,9000
;   rapidZspeed,1200
;   minBridgingArea,50
;   bridgingExtraInflation,0
;   bridgingExtrusionMultiplier,1
;   bridgingSpeedMultiplier,0.8
;   useFixedBridgingAngle,0
;   fixedBridgingAngle,0
;   applyBridgingToPerimeters,0
;   filamentDiameters,1.75|1.75|1.75|1.75|1.75|1.75
;   filamentPricesPerKg,16|16|16|16|16|16
;   filamentDensities,1.25|1.25|1.25|1.25|1.25|1.25
;   useMinPrintHeight,0
;   minPrintHeight,19.9
;   useMaxPrintHeight,0
;   maxPrintHeight,60.28
;   useDiaphragm,1
;   diaphragmLayerInterval,25
;   robustSlicing,1
;   mergeAllIntoSolid,0
;   onlyRetractWhenCrossingOutline,1
;   retractBetweenLayers,1
;   useRetractionMinTravel,0
;   retractionMinTravel,3
;   retractWhileWiping,0
;   onlyWipeOutlines,1
;   avoidCrossingOutline,0
;   maxMovementDetourFactor,3
;   toolChangeRetractionDistance,12
;   toolChangeExtraRestartDistance,-0.5
;   toolChangeRetractionSpeed,600
;   externalThinWallType,1
;   internalThinWallType,1
;   thinWallAllowedOverlapPercentage,30
;   singleExtrusionMinLength,0.2
;   singleExtrusionMinPrintingWidthPercentage,50
;   singleExtrusionMaxPrintingWidthPercentage,200
;   singleExtrusionEndpointExtension,0.2
;   horizontalSizeCompensation,0
G90
M83
; **** Replicator 2X start.gcode ****
M73 P0 ; Enable build progress
G162 X Y F3000 ; Home XY maximum
G161 Z F1200 ; Home Z minimum
G92 Z-5 ; Set Z to -5
G1 Z0 ; Move Z to 0
G161 Z F100 ; Home Z slowly
M132 X Y Z A B ; Recall home offsets
M135 T0 ; Load right extruder offsets
G1 X-130 Y-75 Z30 F9000 ; Move to wait position off table
G130 X20 Y20 Z20 A20 B20 ; Lower stepper Vrefs while heating
M127 ; Set fan speed
M140 S100 T0 ; Heat buildplate
M134 T0 ; Stabilize bed temperature
M104 S230 T1 ; Heat left extruder
M133 T1 ; Stabilize left extruder temperature
G130 X127 Y127 Z40 A127 B127 ; Default stepper Vrefs
G92 A0 B0 ; Zero extruders
M135 T1 ; Load left extruder offsets
G1 X-100 Y-65 F9000 ; Move to front left corner of bed
G1 Z0.3 F6000 ; Move down to purge
G1 X90 Y-65 E24 F2000 ; Extrude a line of filament across the front edge of the bed
G1 X100 Y-65 F180 ; Wait for ooze
G1 X110 Y-65 F5000 ; Fast wipe
G1 Z1 F100 ; Lift
G92 A0 B0 ; zero extruders
M73 P1 ;@body (notify GPX body has started)
; **** end of start.gcode ****
G1 E-0.7500 F1200
G1 Z0.200 F1200
; process Normal ABS-1
; layer 1, Z = 0.200
M135 T1
; tool H0.200 W0.400
; skirt
G1 X-22.226 Y41.642 F9000
G1 E0.7500 F360
G1 X-27.015 Y41.642 E0.1593 F1980
G1 X-27.026 Y41.674 E0.0011
G1 X-28.416 Y45.158 E0.1248
G1 X-28.432 Y45.192 E0.0013
G1 X-28.696 Y45.669 E0.0181
G1 X-28.717 Y45.701 E0.0013
G1 X-30.935 Y48.725 E0.1247
G1 X-30.959 Y48.754 E0.0013
G1 X-31.334 Y49.149 E0.0181
G1 X-31.362 Y49.175 E0.0013
G1 X-34.259 Y51.543 E0.1244
G1 X-34.290 Y51.565 E0.0013
G1 X-34.754 Y51.855 E0.0182
G1 X-34.787 Y51.873 E0.0013
G1 X-38.225 Y53.454 E0.1258
G1 X-38.260 Y53.468 E0.0013
G1 X-38.780 Y53.631 E0.0181
G1 X-38.817 Y53.640 E0.0013
G1 X-42.487 Y54.300 E0.1240
G1 X-42.525 Y54.305 E0.0013
G1 X-43.068 Y54.333 E0.0181
G1 X-43.106 Y54.332 E0.0013
G1 X-46.850 Y54.052 E0.1249
G1 X-46.888 Y54.047 E0.0013
G1 X-47.422 Y53.938 E0.0181
G1 X-47.459 Y53.928 E0.0013
G1 X-51.012 Y52.718 E0.1248
G1 X-51.047 Y52.704 E0.0013
G1 X-51.534 Y52.466 E0.0180
G1 X-51.567 Y52.447 E0.0013
G1 X-54.652 Y50.426 E0.1227
G1 X-54.682 Y50.404 E0.0013
G1 X-55.093 Y50.054 E0.0180
G1 X-55.120 Y50.028 E0.0013
G1 X-57.684 Y47.219 E0.1265
G1 X-57.708 Y47.189 E0.0013
G1 X-58.025 Y46.738 E0.0183
G1 X-58.045 Y46.705 E0.0013
G1 X-59.792 Y43.380 E0.1249
G1 X-59.808 Y43.345 E0.0013
G1 X-60.000 Y42.830 E0.0183
G1 X-60.011 Y42.793 E0.0013
G1 X-61.374 Y36.932 E0.2001
G1 X-62.269 Y35.174 E0.0656
G1 X-63.558 Y33.690 E0.0654
G1 X-65.169 Y32.561 E0.0654
G1 X-67.005 Y31.856 E0.0654
G1 X-69.238 Y31.582 E0.0748
G1 X-75.565 Y31.582 E0.2104
G1 X-75.582 Y31.581 E0.0006
G1 X-75.823 Y31.568 E0.0080
G1 X-75.840 Y31.566 E0.0006
G1 X-79.025 Y31.207 E0.1066
G1 X-79.059 Y31.202 E0.0011
G1 X-79.529 Y31.094 E0.0161
G1 X-79.562 Y31.085 E0.0011
G1 X-82.702 Y29.986 E0.1107
G1 X-82.733 Y29.973 E0.0011
G1 X-83.168 Y29.764 E0.0161
G1 X-83.198 Y29.748 E0.0011
G1 X-86.015 Y27.978 E0.1107
G1 X-86.042 Y27.958 E0.0011
G1 X-86.420 Y27.657 E0.0161
G1 X-86.445 Y27.635 E0.0011
G1 X-88.797 Y25.282 E0.1107
G1 X-88.820 Y25.257 E0.0011
G1 X-89.121 Y24.879 E0.0161
G1 X-89.140 Y24.852 E0.0011
G1 X-90.910 Y22.035 E0.1107
G1 X-90.926 Y22.006 E0.0011
G1 X-91.136 Y21.570 E0.0161
G1 X-91.149 Y21.539 E0.0011
G1 X-92.248 Y18.399 E0.1107
G1 X-92.257 Y18.367 E0.0011
G1 X-92.364 Y17.896 E0.0161
G1 X-92.370 Y17.863 E0.0011
G1 X-92.729 Y14.677 E0.1066
G1 X-92.730 Y14.660 E0.0006
G1 X-92.744 Y14.419 E0.0080
G1 X-92.744 Y14.402 E0.0006
G1 X-92.744 Y-55.139 E2.3130
G1 X-92.653 Y-55.360 E0.0079
G1 X-90.141 Y-57.872 E0.1182
G1 X-89.921 Y-57.963 E0.0079
G1 X-80.018 Y-57.963 E0.3294
G1 X-79.798 Y-57.872 E0.0079
G1 X-77.286 Y-55.360 E0.1182
G1 X-77.194 Y-55.139 E0.0079
G1 X-77.194 Y0.057 E1.8358
G1 X78.706 Y0.057 E5.1853
G1 X78.706 Y-55.139 E1.8358
G1 X78.797 Y-55.360 E0.0079
G1 X81.309 Y-57.872 E0.1182
G1 X81.529 Y-57.963 E0.0079
G1 X91.432 Y-57.963 E0.3294
G1 X91.652 Y-57.872 E0.0079
G1 X94.164 Y-55.360 E0.1182
G1 X94.256 Y-55.139 E0.0079
G1 X94.256 Y14.403 E2.3130
G1 X94.255 Y14.419 E0.0006
G1 X94.242 Y14.660 E0.0080
G1 X94.240 Y14.677 E0.0006
G1 X93.881 Y17.863 E0.1066
G1 X93.876 Y17.896 E0.0011
G1 X93.768 Y18.367 E0.0161
G1 X93.759 Y18.399 E0.0011
G1 X92.660 Y21.539 E0.1107
G1 X92.647 Y21.570 E0.0011
G1 X92.438 Y22.006 E0.0161
G1 X92.421 Y22.035 E0.0011
G1 X90.651 Y24.852 E0.1107
G1 X90.632 Y24.879 E0.0011
G1 X90.331 Y25.257 E0.0161
G1 X90.308 Y25.282 E0.0011
G1 X87.956 Y27.635 E0.1107
G1 X87.931 Y27.657 E0.0011
G1 X87.553 Y27.958 E0.0161
G1 X87.526 Y27.978 E0.0011
G1 X84.709 Y29.748 E0.1107
G1 X84.679 Y29.764 E0.0011
G1 X84.244 Y29.973 E0.0161
G1 X84.213 Y29.986 E0.0011
G1 X81.073 Y31.085 E0.1107
G1 X81.041 Y31.094 E0.0011
G1 X80.570 Y31.202 E0.0161
G1 X80.537 Y31.207 E0.0011
G1 X77.351 Y31.566 E0.1066
G1 X77.334 Y31.568 E0.0006
G1 X77.093 Y31.581 E0.0080
G1 X77.076 Y31.582 E0.0006
G1 X70.749 Y31.582 E0.2104
G1 X68.516 Y31.856 E0.0748
G1 X66.680 Y32.561 E0.0654
G1 X65.069 Y33.690 E0.0654
G1 X63.780 Y35.174 E0.0654
G1 X62.885 Y36.932 E0.0656
G1 X61.522 Y42.793 E0.2001
G1 X61.511 Y42.830 E0.0013
G1 X61.319 Y43.345 E0.0183
G1 X61.304 Y43.380 E0.0013
G1 X59.558 Y46.702 E0.1248
G1 X59.538 Y46.735 E0.0013
G1 X59.226 Y47.181 E0.0181
G1 X59.202 Y47.211 E0.0013
G1 X56.680 Y49.990 E0.1248
G1 X56.652 Y50.017 E0.0013
G1 X56.235 Y50.373 E0.0183
G1 X56.204 Y50.396 E0.0013
G1 X53.031 Y52.469 E0.1260
G1 X52.998 Y52.488 E0.0013
G1 X52.510 Y52.725 E0.0180
G1 X52.475 Y52.739 E0.0013
G1 X48.961 Y53.930 E0.1234
G1 X48.924 Y53.940 E0.0013
G1 X48.392 Y54.048 E0.0181
G1 X48.355 Y54.053 E0.0013
G1 X44.616 Y54.332 E0.1247
G1 X44.578 Y54.333 E0.0013
G1 X44.036 Y54.305 E0.0181
G1 X43.998 Y54.300 E0.0013
G1 X40.328 Y53.640 E0.1240
G1 X40.291 Y53.631 E0.0013
G1 X39.771 Y53.468 E0.0181
G1 X39.736 Y53.454 E0.0013
G1 X36.299 Y51.873 E0.1258
G1 X36.265 Y51.855 E0.0013
G1 X35.801 Y51.565 E0.0182
G1 X35.770 Y51.543 E0.0013
G1 X32.873 Y49.175 E0.1244
G1 X32.845 Y49.149 E0.0013
G1 X32.471 Y48.754 E0.0181
G1 X32.446 Y48.725 E0.0013
G1 X30.228 Y45.701 E0.1247
G1 X30.208 Y45.669 E0.0013
G1 X29.943 Y45.192 E0.0181
G1 X29.927 Y45.158 E0.0013
G1 X28.537 Y41.674 E0.1248
G1 X28.526 Y41.642 E0.0011
G1 X23.737 Y41.642 E0.1593
G1 X23.735 Y41.664 E0.0007
G1 X23.730 Y41.695 E0.0010
G1 X23.636 Y42.136 E0.0150
G1 X23.628 Y42.166 E0.0010
G1 X22.272 Y46.340 E0.1460
G1 X22.260 Y46.370 E0.0010
G1 X22.077 Y46.782 E0.0150
G1 X22.063 Y46.810 E0.0010
G1 X19.868 Y50.611 E0.1460
G1 X19.851 Y50.637 E0.0010
G1 X19.586 Y51.002 E0.0150
G1 X19.566 Y51.026 E0.0010
G1 X16.629 Y54.288 E0.1460
G1 X16.607 Y54.310 E0.0010
G1 X16.272 Y54.612 E0.0150
G1 X16.248 Y54.632 E0.0010
G1 X12.697 Y57.211 E0.1460
G1 X12.670 Y57.229 E0.0010
G1 X12.280 Y57.454 E0.0150
G1 X12.252 Y57.468 E0.0010
G1 X8.242 Y59.253 E0.1460
G1 X8.213 Y59.265 E0.0010
G1 X7.784 Y59.404 E0.0150
G1 X7.754 Y59.412 E0.0010
G1 X3.461 Y60.325 E0.1460
G1 X3.430 Y60.330 E0.0010
G1 X2.982 Y60.377 E0.0150
G1 X2.950 Y60.378 E0.0010
G1 X-1.439 Y60.378 E0.1460
G1 X-1.470 Y60.377 E0.0010
G1 X-1.919 Y60.330 E0.0150
G1 X-1.950 Y60.325 E0.0010
G1 X-6.243 Y59.412 E0.1460
G1 X-6.273 Y59.404 E0.0010
G1 X-6.702 Y59.265 E0.0150
G1 X-6.731 Y59.253 E0.0010
G1 X-10.741 Y57.468 E0.1460
G1 X-10.769 Y57.454 E0.0010
G1 X-11.159 Y57.229 E0.0150
G1 X-11.186 Y57.211 E0.0010
G1 X-14.737 Y54.632 E0.1460
G1 X-14.761 Y54.612 E0.0010
G1 X-15.096 Y54.310 E0.0150
G1 X-15.118 Y54.288 E0.0010
G1 X-18.055 Y51.026 E0.1460
G1 X-18.075 Y51.002 E0.0010
G1 X-18.340 Y50.637 E0.0150
G1 X-18.357 Y50.611 E0.0010
G1 X-20.552 Y46.810 E0.1460
G1 X-20.566 Y46.782 E0.0010
G1 X-20.749 Y46.370 E0.0150
G1 X-20.760 Y46.340 E0.0010
G1 X-22.117 Y42.166 E0.1460
G1 X-22.125 Y42.136 E0.0010
G1 X-22.219 Y41.695 E0.0150
G1 X-22.223 Y41.664 E0.0010
G1 X-22.226 Y41.642 E0.0007
G1 X-21.827 Y41.612 F9000
G1 X-21.866 Y41.242 E0.0124 F1980
G1 X-27.325 Y41.242 E0.1816
G1 X-27.398 Y41.526 E0.0097
G1 X-27.402 Y41.538 E0.0004
G1 X-28.783 Y44.998 E0.1239
G1 X-28.788 Y45.010 E0.0004
G1 X-29.040 Y45.464 E0.0173
G1 X-29.047 Y45.475 E0.0004
G1 X-31.250 Y48.479 E0.1239
G1 X-31.258 Y48.488 E0.0004
G1 X-31.615 Y48.865 E0.0173
G1 X-31.625 Y48.873 E0.0004
G1 X-34.502 Y51.225 E0.1236
G1 X-34.512 Y51.233 E0.0004
G1 X-34.955 Y51.509 E0.0173
G1 X-34.966 Y51.515 E0.0004
G1 X-38.380 Y53.085 E0.1250
G1 X-38.392 Y53.090 E0.0004
G1 X-38.888 Y53.246 E0.0173
G1 X-38.900 Y53.249 E0.0004
G1 X-42.545 Y53.904 E0.1232
G1 X-42.558 Y53.906 E0.0004
G1 X-43.076 Y53.933 E0.0172
G1 X-43.088 Y53.932 E0.0004
G1 X-46.807 Y53.654 E0.1240
G1 X-46.820 Y53.652 E0.0004
G1 X-47.330 Y53.548 E0.0173
G1 X-47.342 Y53.545 E0.0004
G1 X-50.871 Y52.344 E0.1240
G1 X-50.883 Y52.339 E0.0004
G1 X-51.347 Y52.112 E0.0172
G1 X-51.358 Y52.106 E0.0004
G1 X-54.422 Y50.099 E0.1218
G1 X-54.432 Y50.091 E0.0004
G1 X-54.824 Y49.757 E0.0171
G1 X-54.833 Y49.749 E0.0004
G1 X-57.380 Y46.959 E0.1256
G1 X-57.388 Y46.949 E0.0004
G1 X-57.690 Y46.518 E0.0175
G1 X-57.697 Y46.508 E0.0004
G1 X-59.432 Y43.205 E0.1241
G1 X-59.438 Y43.193 E0.0004
G1 X-59.620 Y42.702 E0.0174
G1 X-59.624 Y42.690 E0.0004
G1 X-60.996 Y36.794 E0.2013
G1 X-61.934 Y34.949 E0.0688
G1 X-63.289 Y33.390 E0.0687
