; G-Code generated by Simplify3D(R) Version 4.0.0
; Jan 13, 2018 at 5:52:35 PM
; Settings Summary
;   processName,Normal ABS-1
;   applyToModels,BoxHolders,BoxHolders(2)
;   profileName,MakerBot Replicator 2X (modified)
;   profileVersion,2015-05-01 08:00:00
;   baseProfile,
;   printMaterial,ABS
;   printQuality,Medium
;   printExtruders,Left Extruder Only
;   extruderName,Left Extruder
;   extruderToolheadNumber,1
;   extruderDiameter,0.4
;   extruderAutoWidth,0
;   extruderWidth,0.4
;   extrusionMultiplier,1
;   extruderUseRetract,1
;   extruderRetractionDistance,0.75
;   extruderExtraRestartDistance,0
;   extruderRetractionZLift,0
;   extruderRetractionSpeed,1200
;   extruderUseCoasting,0
;   extruderCoastingDistance,0.2
;   extruderUseWipe,0
;   extruderWipeDistance,5
;   primaryExtruder,0
;   layerHeight,0.2
;   topSolidLayers,4
;   bottomSolidLayers,4
;   perimeterOutlines,3
;   printPerimetersInsideOut,1
;   startPointOption,2
;   startPointOriginX,0
;   startPointOriginY,0
;   sequentialIslands,0
;   spiralVaseMode,0
;   firstLayerHeightPercentage,100
;   firstLayerWidthPercentage,100
;   firstLayerUnderspeed,0.33
;   useRaft,0
;   raftExtruder,0
;   raftTopLayers,3
;   raftBaseLayers,2
;   raftOffset,3
;   raftSeparationDistance,0.14
;   raftTopInfill,100
;   aboveRaftSpeedMultiplier,0.3
;   useSkirt,1
;   skirtExtruder,0
;   skirtLayers,1
;   skirtOutlines,2
;   skirtOffset,4
;   usePrimePillar,0
;   primePillarExtruder,999
;   primePillarWidth,12
;   primePillarLocation,7
;   primePillarSpeedMultiplier,1
;   useOozeShield,0
;   oozeShieldExtruder,999
;   oozeShieldOffset,2
;   oozeShieldOutlines,1
;   oozeShieldSidewallShape,1
;   oozeShieldSidewallAngle,30
;   oozeShieldSpeedMultiplier,1
;   infillExtruder,0
;   internalInfillPattern,Rectilinear
;   externalInfillPattern,Rectilinear
;   infillPercentage,20
;   outlineOverlapPercentage,20
;   infillExtrusionWidthPercentage,100
;   minInfillLength,5
;   infillLayerInterval,1
;   internalInfillAngles,45,-45
;   overlapInternalInfillAngles,0
;   externalInfillAngles,45,-45
;   generateSupport,0
;   supportExtruder,0
;   supportInfillPercentage,30
;   supportExtraInflation,1
;   supportBaseLayers,2
;   denseSupportExtruder,0
;   denseSupportLayers,0
;   denseSupportInfillPercentage,70
;   supportLayerInterval,1
;   supportHorizontalPartOffset,0.3
;   supportUpperSeparationLayers,1
;   supportLowerSeparationLayers,1
;   supportType,0
;   supportGridSpacing,3
;   maxOverhangAngle,45
;   supportAngles,0
;   temperatureName,Right Extruder,Left Extruder,Heated Build Platform
;   temperatureNumber,0,1,0
;   temperatureSetpointCount,1,1,3
;   temperatureSetpointLayers,1,1,1,1,3
;   temperatureSetpointTemperatures,0,230,100,95,90
;   temperatureStabilizeAtStartup,0,0,1
;   temperatureHeatedBed,0,0,1
;   temperatureRelayBetweenLayers,0,0,0
;   temperatureRelayBetweenLoops,0,0,0
;   fanLayers,1
;   fanSpeeds,0
;   blipFanToFullPower,0
;   adjustSpeedForCooling,1
;   minSpeedLayerTime,15
;   minCoolingSpeedSlowdown,20
;   increaseFanForCooling,0
;   minFanLayerTime,45
;   maxCoolingFanSpeed,100
;   increaseFanForBridging,0
;   bridgingFanSpeed,100
;   use5D,1
;   relativeEdistances,1
;   allowEaxisZeroing,0
;   independentExtruderAxes,1
;   includeM10123,0
;   stickySupport,1
;   applyToolheadOffsets,0
;   gcodeXoffset,0
;   gcodeYoffset,0
;   gcodeZoffset,0
;   overrideMachineDefinition,1
;   machineTypeOverride,0
;   strokeXoverride,250
;   strokeYoverride,150
;   strokeZoverride,150
;   originOffsetXoverride,125
;   originOffsetYoverride,75
;   originOffsetZoverride,0
;   homeXdirOverride,1
;   homeYdirOverride,1
;   homeZdirOverride,-1
;   flipXoverride,1
;   flipYoverride,-1
;   flipZoverride,1
;   toolheadOffsets,0,0|33,0|0,0|0,0|0,0|0,0
;   overrideFirmwareConfiguration,1
;   firmwareTypeOverride,MakerBot/Sailfish Firmware
;   GPXconfigOverride,r2x
;   baudRateOverride,115200
;   overridePrinterModels,1
;   printerModelsOverride,MakerBot_Replicator2X.stl
;   startingGcode,; **** Replicator 2X start.gcode ****,M73 P0 ; Enable build progress,G162 X Y F3000 ; Home XY maximum,G161 Z F1200 ; Home Z minimum,G92 Z-5 ; Set Z to -5,G1 Z0 ; Move Z to 0,G161 Z F100 ; Home Z slowly,M132 X Y Z A B ; Recall home offsets,M135 T0 ; Load right extruder offsets,G1 X-130 Y-75 Z30 F9000 ; Move to wait position off table,G130 X20 Y20 Z20 A20 B20 ; Lower stepper Vrefs while heating,M126 S[fan_speed_pwm] ; Set fan speed,M140 S[bed0_temperature] T0 ; Heat buildplate,M134 T0 ; Stabilize bed temperature,M104 S[extruder1_temperature] T1 ; Heat left extruder,M133 T1 ; Stabilize left extruder temperature,G130 X127 Y127 Z40 A127 B127 ; Default stepper Vrefs,G92 A0 B0 ; Zero extruders,M135 T1 ; Load left extruder offsets,G1 X-100 Y-65 F9000 ; Move to front left corner of bed,G1 Z0.3 F6000 ; Move down to purge,G1 X90 Y-65 E24 F2000 ; Extrude a line of filament across the front edge of the bed,G1 X100 Y-65 F180 ; Wait for ooze,G1 X110 Y-65 F5000 ; Fast wipe,G1 Z1 F100 ; Lift,G92 A0 B0 ; zero extruders,M73 P1 ;@body (notify GPX body has started),; **** end of start.gcode ****
;   layerChangeGcode,
;   retractionGcode,
;   toolChangeGcode,
;   endingGcode,; **** Replicator 2X end.gcode ****,M73 P100 ; end build progress,G1 Z155 F1000 ; send Z axis to bottom of machine,M140 S0 T0 ; cool down HBP,M104 S0 T0 ; cool down right extruder,M104 S0 T1 ; cool down left extruder,M127 ; stop blower fan,G162 X Y F3000 ; home XY maximum,M18 ; disable stepper,M72 P1 ; play Ta-Da song,; **** end of end.gcode ****
;   exportFileFormat,x3g
;   celebration,0
;   celebrationSong,Random Song
;   postProcessing,
;   defaultSpeed,6000
;   outlineUnderspeed,0.5
;   solidInfillUnderspeed,0.8
;   supportUnderspeed,0.8
;   rapidXYspeed,9000
;   rapidZspeed,1200
;   minBridgingArea,50
;   bridgingExtraInflation,0
;   bridgingExtrusionMultiplier,1
;   bridgingSpeedMultiplier,0.8
;   useFixedBridgingAngle,0
;   fixedBridgingAngle,0
;   applyBridgingToPerimeters,0
;   filamentDiameters,1.75|1.75|1.75|1.75|1.75|1.75
;   filamentPricesPerKg,16|16|16|16|16|16
;   filamentDensities,1.25|1.25|1.25|1.25|1.25|1.25
;   useMinPrintHeight,0
;   minPrintHeight,19.9
;   useMaxPrintHeight,0
;   maxPrintHeight,60.28
;   useDiaphragm,1
;   diaphragmLayerInterval,25
;   robustSlicing,1
;   mergeAllIntoSolid,0
;   onlyRetractWhenCrossingOutline,1
;   retractBetweenLayers,1
;   useRetractionMinTravel,0
;   retractionMinTravel,3
;   retractWhileWiping,0
;   onlyWipeOutlines,1
;   avoidCrossingOutline,0
;   maxMovementDetourFactor,3
;   toolChangeRetractionDistance,12
;   toolChangeExtraRestartDistance,-0.5
;   toolChangeRetractionSpeed,600
;   externalThinWallType,1
;   internalThinWallType,1
;   thinWallAllowedOverlapPercentage,30
;   singleExtrusionMinLength,0.2
;   singleExtrusionMinPrintingWidthPercentage,50
;   singleExtrusionMaxPrintingWidthPercentage,200
;   singleExtrusionEndpointExtension,0.2
;   horizontalSizeCompensation,0
G90
M83
; **** Replicator 2X start.gcode ****
M73 P0 ; Enable build progress
G162 X Y F3000 ; Home XY maximum
G161 Z F1200 ; Home Z minimum
G92 Z-5 ; Set Z to -5
G1 Z0 ; Move Z to 0
G161 Z F100 ; Home Z slowly
M132 X Y Z A B ; Recall home offsets
M135 T0 ; Load right extruder offsets
G1 X-130 Y-75 Z30 F9000 ; Move to wait position off table
G130 X20 Y20 Z20 A20 B20 ; Lower stepper Vrefs while heating
M127 ; Set fan speed
M140 S100 T0 ; Heat buildplate
M134 T0 ; Stabilize bed temperature
M104 S230 T1 ; Heat left extruder
M133 T1 ; Stabilize left extruder temperature
G130 X127 Y127 Z40 A127 B127 ; Default stepper Vrefs
G92 A0 B0 ; Zero extruders
M135 T1 ; Load left extruder offsets
G1 X-100 Y-65 F9000 ; Move to front left corner of bed
G1 Z0.3 F6000 ; Move down to purge
G1 X90 Y-65 E24 F2000 ; Extrude a line of filament across the front edge of the bed
G1 X100 Y-65 F180 ; Wait for ooze
G1 X110 Y-65 F5000 ; Fast wipe
G1 Z1 F100 ; Lift
G92 A0 B0 ; zero extruders
M73 P1 ;@body (notify GPX body has started)
; **** end of start.gcode ****
G1 E-0.7500 F1200
G1 Z0.200 F1200
; process Normal ABS-1
; layer 1, Z = 0.200
M135 T1
; tool H0.200 W0.400
; skirt
G1 X-86.784 Y28.940 F9000
G1 E0.7500 F360
G1 X-95.490 Y28.940 E0.2895 F1980
G1 X-95.710 Y28.848 E0.0079
G1 X-98.222 Y26.336 E0.1182
G1 X-98.313 Y26.116 E0.0079
G1 X-98.313 Y-55.135 E2.7024
G1 X-98.222 Y-55.356 E0.0079
G1 X-95.710 Y-57.868 E0.1182
G1 X-95.490 Y-57.959 E0.0079
G1 X85.863 Y-57.959 E6.0318
G1 X86.083 Y-57.868 E0.0079
G1 X88.595 Y-55.356 E0.1182
G1 X88.687 Y-55.135 E0.0079
G1 X88.687 Y-44.993 E0.3373
G1 X97.392 Y-44.993 E0.2895
G1 X97.612 Y-44.902 E0.0079
G1 X100.124 Y-42.390 E0.1182
G1 X100.216 Y-42.169 E0.0079
G1 X100.216 Y39.082 E2.7024
G1 X100.124 Y39.302 E0.0079
G1 X97.612 Y41.814 E0.1182
G1 X97.392 Y41.906 E0.0079
G1 X-83.961 Y41.906 E6.0318
G1 X-84.181 Y41.814 E0.0079
G1 X-86.693 Y39.302 E0.1182
G1 X-86.784 Y39.082 E0.0079
G1 X-86.784 Y28.940 E0.3373
G1 X-86.384 Y28.540 F9000
G1 X-95.410 Y28.540 E0.3002 F1980
G1 X-95.483 Y28.509 E0.0026
G1 X-97.883 Y26.110 E0.1129
G1 X-97.913 Y26.036 E0.0026
G1 X-97.913 Y-55.056 E2.6971
G1 X-97.883 Y-55.129 E0.0026
G1 X-95.483 Y-57.529 E0.1129
G1 X-95.410 Y-57.559 E0.0026
G1 X85.783 Y-57.559 E6.0265
G1 X85.857 Y-57.529 E0.0026
G1 X88.256 Y-55.129 E0.1129
G1 X88.287 Y-55.056 E0.0026
G1 X88.287 Y-44.593 E0.3480
G1 X97.312 Y-44.593 E0.3002
G1 X97.386 Y-44.562 E0.0026
G1 X99.785 Y-42.163 E0.1129
G1 X99.816 Y-42.090 E0.0026
G1 X99.816 Y39.002 E2.6971
G1 X99.785 Y39.076 E0.0026
G1 X97.386 Y41.475 E0.1129
G1 X97.312 Y41.506 E0.0026
G1 X-83.881 Y41.506 E6.0265
G1 X-83.954 Y41.475 E0.0026
G1 X-86.354 Y39.076 E0.1129
G1 X-86.384 Y39.002 E0.0026
G1 X-86.384 Y28.540 E0.3480
G1 E-0.7500 F1200
; inner perimeter
G1 X-88.363 Y23.340 F9000
G1 E0.7500 F1200
G1 X-92.713 Y23.340 E0.1447 F1485
G1 X-92.713 Y-52.359 E2.5177
G1 X83.087 Y-52.359 E5.8471
G1 X83.087 Y23.340 E2.5177
G1 X78.737 Y23.340 E0.1447
G1 X78.737 Y-47.374 E2.3519
G1 X-88.363 Y-47.374 E5.5578
G1 X-88.363 Y23.340 E2.3519
G1 X-87.963 Y23.740 F9000
G1 X-93.113 Y23.740 E0.1713 F1485
G1 X-93.113 Y-52.759 E2.5444
G1 X83.487 Y-52.759 E5.8737
G1 X83.487 Y23.740 E2.5444
G1 X78.337 Y23.740 E0.1713
G1 X78.337 Y-46.974 E2.3519
G1 X-87.963 Y-46.974 E5.5312
G1 X-87.963 Y23.740 E2.3519
; outer perimeter
G1 X-87.563 Y24.140 F9000
G1 X-93.513 Y24.140 E0.1979 F990
G1 X-93.513 Y-53.159 E2.5710
G1 X83.887 Y-53.159 E5.9003
G1 X83.887 Y24.140 E2.5710
G1 X77.937 Y24.140 E0.1979
G1 X77.937 Y-46.574 E2.3519
G1 X-87.563 Y-46.574 E5.5046
G1 X-87.563 Y24.140 E2.3519
; solid layer
G1 X-92.393 Y22.514 F9000
G1 X-91.888 Y23.020 E0.0238 F1584
G1 X-91.322 Y23.020 E0.0188
G1 X-92.393 Y21.948 E0.0504
G1 X-92.393 Y21.383 E0.0188
G1 X-90.756 Y23.020 E0.0770
G1 X-90.191 Y23.020 E0.0188
G1 X-92.393 Y20.817 E0.1036
G1 X-92.393 Y20.251 E0.0188
G1 X-89.625 Y23.020 E0.1302
G1 X-89.059 Y23.020 E0.0188
G1 X-92.393 Y19.685 E0.1568
G1 X-92.393 Y19.120 E0.0188
G1 X-88.683 Y22.830 E0.1745
G1 X-88.683 Y22.264 E0.0188
G1 X-92.393 Y18.554 E0.1745
G1 X-92.393 Y17.988 E0.0188
G1 X-88.683 Y21.698 E0.1745
G1 X-88.683 Y21.133 E0.0188
G1 X-92.393 Y17.423 E0.1745
G1 X-92.393 Y16.857 E0.0188
G1 X-88.683 Y20.567 E0.1745
G1 X-88.683 Y20.001 E0.0188
G1 X-92.393 Y16.291 E0.1745
G1 X-92.393 Y15.726 E0.0188
G1 X-88.683 Y19.436 E0.1745
G1 X-88.683 Y18.870 E0.0188
G1 X-92.393 Y15.160 E0.1745
G1 X-92.393 Y14.594 E0.0188
G1 X-88.683 Y18.304 E0.1745
G1 X-88.683 Y17.739 E0.0188
G1 X-92.393 Y14.029 E0.1745
G1 X-92.393 Y13.463 E0.0188
G1 X-88.683 Y17.173 E0.1745
G1 X-88.683 Y16.607 E0.0188
G1 X-92.393 Y12.897 E0.1745
G1 X-92.393 Y12.332 E0.0188
G1 X-88.683 Y16.042 E0.1745
G1 X-88.683 Y15.476 E0.0188
G1 X-92.393 Y11.766 E0.1745
G1 X-92.393 Y11.200 E0.0188
G1 X-88.683 Y14.910 E0.1745
G1 X-88.683 Y14.344 E0.0188
G1 X-92.393 Y10.634 E0.1745
G1 X-92.393 Y10.069 E0.0188
G1 X-88.683 Y13.779 E0.1745
G1 X-88.683 Y13.213 E0.0188
G1 X-92.393 Y9.503 E0.1745
G1 X-92.393 Y8.937 E0.0188
G1 X-88.683 Y12.647 E0.1745
G1 X-88.683 Y12.082 E0.0188
G1 X-92.393 Y8.372 E0.1745
G1 X-92.393 Y7.806 E0.0188
G1 X-88.683 Y11.516 E0.1745
G1 X-88.683 Y10.950 E0.0188
G1 X-92.393 Y7.240 E0.1745
G1 X-92.393 Y6.675 E0.0188
G1 X-88.683 Y10.385 E0.1745
G1 X-88.683 Y9.819 E0.0188
G1 X-92.393 Y6.109 E0.1745
G1 X-92.393 Y5.543 E0.0188
G1 X-88.683 Y9.253 E0.1745
G1 X-88.683 Y8.688 E0.0188
G1 X-92.393 Y4.978 E0.1745
G1 X-92.393 Y4.412 E0.0188
G1 X-88.683 Y8.122 E0.1745
G1 X-88.683 Y7.556 E0.0188
G1 X-92.393 Y3.846 E0.1745
G1 X-92.393 Y3.281 E0.0188
G1 X-88.683 Y6.991 E0.1745
G1 X-88.683 Y6.425 E0.0188
G1 X-92.393 Y2.715 E0.1745
G1 X-92.393 Y2.149 E0.0188
G1 X-88.683 Y5.859 E0.1745
G1 X-88.683 Y5.294 E0.0188
G1 X-92.393 Y1.584 E0.1745
G1 X-92.393 Y1.018 E0.0188
G1 X-88.683 Y4.728 E0.1745
G1 X-88.683 Y4.162 E0.0188
G1 X-92.393 Y0.452 E0.1745
G1 X-92.393 Y-0.114 E0.0188
G1 X-88.683 Y3.596 E0.1745
G1 X-88.683 Y3.031 E0.0188
G1 X-92.393 Y-0.679 E0.1745
G1 X-92.393 Y-1.245 E0.0188
G1 X-88.683 Y2.465 E0.1745
G1 X-88.683 Y1.899 E0.0188
G1 X-92.393 Y-1.811 E0.1745
G1 X-92.393 Y-2.376 E0.0188
G1 X-88.683 Y1.334 E0.1745
G1 X-88.683 Y0.768 E0.0188
G1 X-92.393 Y-2.942 E0.1745
G1 X-92.393 Y-3.508 E0.0188
G1 X-88.683 Y0.202 E0.1745
G1 X-88.683 Y-0.363 E0.0188
G1 X-92.393 Y-4.073 E0.1745
G1 X-92.393 Y-4.639 E0.0188
G1 X-88.683 Y-0.929 E0.1745
G1 X-88.683 Y-1.495 E0.0188
G1 X-92.393 Y-5.205 E0.1745
G1 X-92.393 Y-5.770 E0.0188
G1 X-88.683 Y-2.060 E0.1745
G1 X-88.683 Y-2.626 E0.0188
G1 X-92.393 Y-6.336 E0.1745
G1 X-92.393 Y-6.902 E0.0188
G1 X-88.683 Y-3.192 E0.1745
G1 X-88.683 Y-3.757 E0.0188
G1 X-92.393 Y-7.467 E0.1745
G1 X-92.393 Y-8.033 E0.0188
G1 X-88.683 Y-4.323 E0.1745
G1 X-88.683 Y-4.889 E0.0188
G1 X-92.393 Y-8.599 E0.1745
G1 X-92.393 Y-9.164 E0.0188
G1 X-88.683 Y-5.455 E0.1745
G1 X-88.683 Y-6.020 E0.0188
G1 X-92.393 Y-9.730 E0.1745
G1 X-92.393 Y-10.296 E0.0188
G1 X-88.683 Y-6.586 E0.1745
G1 X-88.683 Y-7.152 E0.0188
G1 X-92.393 Y-10.862 E0.1745
G1 X-92.393 Y-11.427 E0.0188
G1 X-88.683 Y-7.717 E0.1745
G1 X-88.683 Y-8.283 E0.0188
G1 X-92.393 Y-11.993 E0.1745
G1 X-92.393 Y-12.559 E0.0188
G1 X-88.683 Y-8.849 E0.1745
G1 X-88.683 Y-9.414 E0.0188
G1 X-92.393 Y-13.124 E0.1745
G1 X-92.393 Y-13.690 E0.0188
G1 X-88.683 Y-9.980 E0.1745
G1 X-88.683 Y-10.546 E0.0188
G1 X-92.393 Y-14.256 E0.1745
G1 X-92.393 Y-14.821 E0.0188
G1 X-88.683 Y-11.111 E0.1745
G1 X-88.683 Y-11.677 E0.0188
G1 X-92.393 Y-15.387 E0.1745
G1 X-92.393 Y-15.953 E0.0188
G1 X-88.683 Y-12.243 E0.1745
G1 X-88.683 Y-12.808 E0.0188
G1 X-92.393 Y-16.518 E0.1745
G1 X-92.393 Y-17.084 E0.0188
G1 X-88.683 Y-13.374 E0.1745
G1 X-88.683 Y-13.940 E0.0188
G1 X-92.393 Y-17.650 E0.1745
G1 X-92.393 Y-18.215 E0.0188
G1 X-88.683 Y-14.505 E0.1745
G1 X-88.683 Y-15.071 E0.0188
G1 X-92.393 Y-18.781 E0.1745
G1 X-92.393 Y-19.347 E0.0188
G1 X-88.683 Y-15.637 E0.1745
G1 X-88.683 Y-16.203 E0.0188
G1 X-92.393 Y-19.913 E0.1745
G1 X-92.393 Y-20.478 E0.0188
G1 X-88.683 Y-16.768 E0.1745
G1 X-88.683 Y-17.334 E0.0188
G1 X-92.393 Y-21.044 E0.1745
G1 X-92.393 Y-21.610 E0.0188
G1 X-88.683 Y-17.900 E0.1745
G1 X-88.683 Y-18.465 E0.0188
G1 X-92.393 Y-22.175 E0.1745
G1 X-92.393 Y-22.741 E0.0188
G1 X-88.683 Y-19.031 E0.1745
G1 X-88.683 Y-19.597 E0.0188
G1 X-92.393 Y-23.307 E0.1745
G1 X-92.393 Y-23.872 E0.0188
G1 X-88.683 Y-20.162 E0.1745
G1 X-88.683 Y-20.728 E0.0188
G1 X-92.393 Y-24.438 E0.1745
G1 X-92.393 Y-25.004 E0.0188
G1 X-88.683 Y-21.294 E0.1745
G1 X-88.683 Y-21.859 E0.0188
G1 X-92.393 Y-25.569 E0.1745
G1 X-92.393 Y-26.135 E0.0188
G1 X-88.683 Y-22.425 E0.1745
G1 X-88.683 Y-22.991 E0.0188
G1 X-92.393 Y-26.701 E0.1745
G1 X-92.393 Y-27.266 E0.0188
G1 X-88.683 Y-23.556 E0.1745
G1 X-88.683 Y-24.122 E0.0188
G1 X-92.393 Y-27.832 E0.1745
G1 X-92.393 Y-28.398 E0.0188
G1 X-88.683 Y-24.688 E0.1745
G1 X-88.683 Y-25.253 E0.0188
G1 X-92.393 Y-28.963 E0.1745
G1 X-92.393 Y-29.529 E0.0188
G1 X-88.683 Y-25.819 E0.1745
G1 X-88.683 Y-26.385 E0.0188
G1 X-92.393 Y-30.095 E0.1745
G1 X-92.393 Y-30.661 E0.0188
G1 X-88.683 Y-26.951 E0.1745
G1 X-88.683 Y-27.516 E0.0188
G1 X-92.393 Y-31.226 E0.1745
G1 X-92.393 Y-31.792 E0.0188
G1 X-88.683 Y-28.082 E0.1745
G1 X-88.683 Y-28.648 E0.0188
