; G-Code generated by Simplify3D(R) Version 4.0.0
; Jan 28, 2018 at 2:29:08 PM
; Settings Summary
;   processName,Normal ABS-1
;   applyToModels,MotorMountA
;   profileName,MakerBot Replicator 2X (modified)
;   profileVersion,2015-05-01 08:00:00
;   baseProfile,
;   printMaterial,ABS
;   printQuality,Medium
;   printExtruders,Left Extruder Only
;   extruderName,Left Extruder
;   extruderToolheadNumber,1
;   extruderDiameter,0.4
;   extruderAutoWidth,0
;   extruderWidth,0.4
;   extrusionMultiplier,1
;   extruderUseRetract,1
;   extruderRetractionDistance,0.75
;   extruderExtraRestartDistance,0
;   extruderRetractionZLift,0
;   extruderRetractionSpeed,1200
;   extruderUseCoasting,0
;   extruderCoastingDistance,0.2
;   extruderUseWipe,0
;   extruderWipeDistance,5
;   primaryExtruder,0
;   layerHeight,0.2
;   topSolidLayers,4
;   bottomSolidLayers,4
;   perimeterOutlines,4
;   printPerimetersInsideOut,1
;   startPointOption,2
;   startPointOriginX,0
;   startPointOriginY,0
;   sequentialIslands,0
;   spiralVaseMode,0
;   firstLayerHeightPercentage,100
;   firstLayerWidthPercentage,100
;   firstLayerUnderspeed,0.33
;   useRaft,0
;   raftExtruder,0
;   raftTopLayers,3
;   raftBaseLayers,2
;   raftOffset,3
;   raftSeparationDistance,0.14
;   raftTopInfill,100
;   aboveRaftSpeedMultiplier,0.3
;   useSkirt,1
;   skirtExtruder,0
;   skirtLayers,1
;   skirtOutlines,2
;   skirtOffset,4
;   usePrimePillar,0
;   primePillarExtruder,999
;   primePillarWidth,12
;   primePillarLocation,7
;   primePillarSpeedMultiplier,1
;   useOozeShield,0
;   oozeShieldExtruder,999
;   oozeShieldOffset,2
;   oozeShieldOutlines,1
;   oozeShieldSidewallShape,1
;   oozeShieldSidewallAngle,30
;   oozeShieldSpeedMultiplier,1
;   infillExtruder,0
;   internalInfillPattern,Rectilinear
;   externalInfillPattern,Rectilinear
;   infillPercentage,25
;   outlineOverlapPercentage,20
;   infillExtrusionWidthPercentage,100
;   minInfillLength,5
;   infillLayerInterval,1
;   internalInfillAngles,45,-45
;   overlapInternalInfillAngles,0
;   externalInfillAngles,45,-45
;   generateSupport,1
;   supportExtruder,0
;   supportInfillPercentage,30
;   supportExtraInflation,0
;   supportBaseLayers,2
;   denseSupportExtruder,0
;   denseSupportLayers,0
;   denseSupportInfillPercentage,70
;   supportLayerInterval,1
;   supportHorizontalPartOffset,0.3
;   supportUpperSeparationLayers,1
;   supportLowerSeparationLayers,1
;   supportType,0
;   supportGridSpacing,2
;   maxOverhangAngle,45
;   supportAngles,0
;   temperatureName,Right Extruder,Left Extruder,Heated Build Platform
;   temperatureNumber,0,1,0
;   temperatureSetpointCount,1,1,3
;   temperatureSetpointLayers,1,1,1,1,3
;   temperatureSetpointTemperatures,0,230,100,95,90
;   temperatureStabilizeAtStartup,0,0,1
;   temperatureHeatedBed,0,0,1
;   temperatureRelayBetweenLayers,0,0,0
;   temperatureRelayBetweenLoops,0,0,0
;   fanLayers,1
;   fanSpeeds,0
;   blipFanToFullPower,0
;   adjustSpeedForCooling,1
;   minSpeedLayerTime,15
;   minCoolingSpeedSlowdown,20
;   increaseFanForCooling,0
;   minFanLayerTime,45
;   maxCoolingFanSpeed,100
;   increaseFanForBridging,0
;   bridgingFanSpeed,100
;   use5D,1
;   relativeEdistances,1
;   allowEaxisZeroing,0
;   independentExtruderAxes,1
;   includeM10123,0
;   stickySupport,1
;   applyToolheadOffsets,0
;   gcodeXoffset,0
;   gcodeYoffset,0
;   gcodeZoffset,0
;   overrideMachineDefinition,1
;   machineTypeOverride,0
;   strokeXoverride,250
;   strokeYoverride,150
;   strokeZoverride,150
;   originOffsetXoverride,125
;   originOffsetYoverride,75
;   originOffsetZoverride,0
;   homeXdirOverride,1
;   homeYdirOverride,1
;   homeZdirOverride,-1
;   flipXoverride,1
;   flipYoverride,-1
;   flipZoverride,1
;   toolheadOffsets,0,0|33,0|0,0|0,0|0,0|0,0
;   overrideFirmwareConfiguration,1
;   firmwareTypeOverride,MakerBot/Sailfish Firmware
;   GPXconfigOverride,r2x
;   baudRateOverride,115200
;   overridePrinterModels,1
;   printerModelsOverride,MakerBot_Replicator2X.stl
;   startingGcode,; **** Replicator 2X start.gcode ****,M73 P0 ; Enable build progress,G162 X Y F3000 ; Home XY maximum,G161 Z F1200 ; Home Z minimum,G92 Z-5 ; Set Z to -5,G1 Z0 ; Move Z to 0,G161 Z F100 ; Home Z slowly,M132 X Y Z A B ; Recall home offsets,M135 T0 ; Load right extruder offsets,G1 X-130 Y-75 Z30 F9000 ; Move to wait position off table,G130 X20 Y20 Z20 A20 B20 ; Lower stepper Vrefs while heating,M126 S[fan_speed_pwm] ; Set fan speed,M140 S[bed0_temperature] T0 ; Heat buildplate,M134 T0 ; Stabilize bed temperature,M104 S[extruder1_temperature] T1 ; Heat left extruder,M133 T1 ; Stabilize left extruder temperature,G130 X127 Y127 Z40 A127 B127 ; Default stepper Vrefs,G92 A0 B0 ; Zero extruders,M135 T1 ; Load left extruder offsets,G1 X-100 Y-65 F9000 ; Move to front left corner of bed,G1 Z0.3 F6000 ; Move down to purge,G1 X90 Y-65 E24 F2000 ; Extrude a line of filament across the front edge of the bed,G1 X100 Y-65 F180 ; Wait for ooze,G1 X110 Y-65 F5000 ; Fast wipe,G1 Z1 F100 ; Lift,G92 A0 B0 ; zero extruders,M73 P1 ;@body (notify GPX body has started),; **** end of start.gcode ****
;   layerChangeGcode,
;   retractionGcode,
;   toolChangeGcode,
;   endingGcode,; **** Replicator 2X end.gcode ****,M73 P100 ; end build progress,G1 Z155 F1000 ; send Z axis to bottom of machine,M140 S0 T0 ; cool down HBP,M104 S0 T0 ; cool down right extruder,M104 S0 T1 ; cool down left extruder,M127 ; stop blower fan,G162 X Y F3000 ; home XY maximum,M18 ; disable stepper,M72 P1 ; play Ta-Da song,; **** end of end.gcode ****
;   exportFileFormat,x3g
;   celebration,0
;   celebrationSong,Random Song
;   postProcessing,
;   defaultSpeed,6000
;   outlineUnderspeed,0.5
;   solidInfillUnderspeed,0.8
;   supportUnderspeed,0.8
;   rapidXYspeed,9000
;   rapidZspeed,1200
;   minBridgingArea,50
;   bridgingExtraInflation,0
;   bridgingExtrusionMultiplier,1
;   bridgingSpeedMultiplier,0.8
;   useFixedBridgingAngle,0
;   fixedBridgingAngle,0
;   applyBridgingToPerimeters,0
;   filamentDiameters,1.75|1.75|1.75|1.75|1.75|1.75
;   filamentPricesPerKg,16|16|16|16|16|16
;   filamentDensities,1.25|1.25|1.25|1.25|1.25|1.25
;   useMinPrintHeight,0
;   minPrintHeight,19.9
;   useMaxPrintHeight,0
;   maxPrintHeight,60.28
;   useDiaphragm,1
;   diaphragmLayerInterval,25
;   robustSlicing,1
;   mergeAllIntoSolid,0
;   onlyRetractWhenCrossingOutline,1
;   retractBetweenLayers,1
;   useRetractionMinTravel,0
;   retractionMinTravel,3
;   retractWhileWiping,0
;   onlyWipeOutlines,1
;   avoidCrossingOutline,0
;   maxMovementDetourFactor,3
;   toolChangeRetractionDistance,12
;   toolChangeExtraRestartDistance,-0.5
;   toolChangeRetractionSpeed,600
;   externalThinWallType,1
;   internalThinWallType,1
;   thinWallAllowedOverlapPercentage,30
;   singleExtrusionMinLength,0.2
;   singleExtrusionMinPrintingWidthPercentage,50
;   singleExtrusionMaxPrintingWidthPercentage,200
;   singleExtrusionEndpointExtension,0.2
;   horizontalSizeCompensation,0
G90
M83
; **** Replicator 2X start.gcode ****
M73 P0 ; Enable build progress
G162 X Y F3000 ; Home XY maximum
G161 Z F1200 ; Home Z minimum
G92 Z-5 ; Set Z to -5
G1 Z0 ; Move Z to 0
G161 Z F100 ; Home Z slowly
M132 X Y Z A B ; Recall home offsets
M135 T0 ; Load right extruder offsets
G1 X-130 Y-75 Z30 F9000 ; Move to wait position off table
G130 X20 Y20 Z20 A20 B20 ; Lower stepper Vrefs while heating
M127 ; Set fan speed
M140 S100 T0 ; Heat buildplate
M134 T0 ; Stabilize bed temperature
M104 S230 T1 ; Heat left extruder
M133 T1 ; Stabilize left extruder temperature
G130 X127 Y127 Z40 A127 B127 ; Default stepper Vrefs
G92 A0 B0 ; Zero extruders
M135 T1 ; Load left extruder offsets
G1 X-100 Y-65 F9000 ; Move to front left corner of bed
G1 Z0.3 F6000 ; Move down to purge
G1 X90 Y-65 E24 F2000 ; Extrude a line of filament across the front edge of the bed
G1 X100 Y-65 F180 ; Wait for ooze
G1 X110 Y-65 F5000 ; Fast wipe
G1 Z1 F100 ; Lift
G92 A0 B0 ; zero extruders
M73 P1 ;@body (notify GPX body has started)
; **** end of start.gcode ****
G1 E-0.7500 F1200
G1 Z0.200 F1200
; process Normal ABS-1
; layer 1, Z = 0.200
M135 T1
; tool H0.200 W0.400
; skirt
G1 X0.815 Y-0.207 F9000
G1 E0.7500 F360
G1 X-2.052 Y-1.118 E0.1000 F1980
G1 X-2.069 Y-1.125 E0.0006
G1 X-2.317 Y-1.220 E0.0088
G1 X-2.334 Y-1.228 E0.0006
G1 X-5.067 Y-2.485 E0.1000
G1 X-5.083 Y-2.493 E0.0006
G1 X-5.317 Y-2.619 E0.0088
G1 X-5.333 Y-2.628 E0.0006
G1 X-7.890 Y-4.213 E0.1000
G1 X-7.906 Y-4.223 E0.0006
G1 X-8.122 Y-4.376 E0.0088
G1 X-8.137 Y-4.388 E0.0006
G1 X-10.479 Y-6.275 E0.1000
G1 X-10.493 Y-6.287 E0.0006
G1 X-10.689 Y-6.466 E0.0088
G1 X-10.703 Y-6.479 E0.0006
G1 X-12.795 Y-8.640 E0.1000
G1 X-12.807 Y-8.654 E0.0006
G1 X-12.980 Y-8.856 E0.0088
G1 X-12.991 Y-8.870 E0.0006
G1 X-14.801 Y-11.273 E0.1000
G1 X-14.812 Y-11.288 E0.0006
G1 X-14.958 Y-11.509 E0.0088
G1 X-14.968 Y-11.525 E0.0006
G1 X-16.468 Y-14.132 E0.1000
G1 X-16.477 Y-14.149 E0.0006
G1 X-16.595 Y-14.387 E0.0088
G1 X-16.603 Y-14.403 E0.0006
G1 X-17.745 Y-17.114 E0.0978
G1 X-17.748 Y-17.123 E0.0003
G1 X-17.796 Y-17.247 E0.0044
G1 X-17.799 Y-17.256 E0.0003
G1 X-23.766 Y-34.287 E0.6002
G1 X-38.731 Y-34.287 E0.4977
G1 X-38.951 Y-34.378 E0.0079
G1 X-41.463 Y-36.890 E0.1182
G1 X-41.555 Y-37.111 E0.0079
G1 X-41.555 Y-50.188 E0.4350
G1 X-41.463 Y-50.409 E0.0079
G1 X-38.951 Y-52.920 E0.1182
G1 X-38.731 Y-53.012 E0.0079
G1 X-26.037 Y-53.012 E0.4222
G1 X-26.026 Y-53.012 E0.0003
G1 X-25.881 Y-53.007 E0.0048
G1 X-25.871 Y-53.006 E0.0003
G1 X-23.942 Y-52.875 E0.0643
G1 X-23.922 Y-52.873 E0.0007
G1 X-23.635 Y-52.834 E0.0096
G1 X-23.615 Y-52.831 E0.0007
G1 X-21.656 Y-52.429 E0.0665
G1 X-21.637 Y-52.424 E0.0007
G1 X-21.358 Y-52.347 E0.0096
G1 X-21.339 Y-52.341 E0.0007
G1 X-19.451 Y-51.680 E0.0665
G1 X-19.432 Y-51.672 E0.0007
G1 X-19.156 Y-51.553 E0.0100
G1 X-19.137 Y-51.544 E0.0007
G1 X-15.408 Y-49.619 E0.1396
G1 X-13.477 Y-48.891 E0.0686
G1 X-11.483 Y-48.399 E0.0683
G1 X-9.436 Y-48.146 E0.0686
G1 X-7.380 Y-48.138 E0.0684
G1 X-5.344 Y-48.373 E0.0681
G1 X-3.344 Y-48.848 E0.0684
G1 X-1.405 Y-49.561 E0.0687
G1 X2.432 Y-51.494 E0.1429
G1 X2.452 Y-51.503 E0.0007
G1 X2.747 Y-51.625 E0.0106
G1 X2.768 Y-51.633 E0.0007
G1 X4.770 Y-52.292 E0.0701
G1 X4.791 Y-52.298 E0.0007
G1 X5.086 Y-52.373 E0.0101
G1 X5.107 Y-52.377 E0.0007
G1 X7.175 Y-52.747 E0.0699
G1 X7.197 Y-52.750 E0.0007
G1 X7.500 Y-52.782 E0.0102
G1 X7.521 Y-52.783 E0.0007
G1 X9.626 Y-52.856 E0.0700
G1 X9.647 Y-52.856 E0.0007
G1 X9.951 Y-52.845 E0.0101
G1 X9.972 Y-52.844 E0.0007
G1 X12.046 Y-52.622 E0.0694
G1 X12.066 Y-52.619 E0.0007
G1 X12.347 Y-52.570 E0.0095
G1 X12.366 Y-52.566 E0.0007
G1 X15.298 Y-51.852 E0.1004
G1 X15.316 Y-51.847 E0.0006
G1 X15.570 Y-51.768 E0.0088
G1 X15.587 Y-51.762 E0.0006
G1 X18.400 Y-50.695 E0.1000
G1 X18.417 Y-50.688 E0.0006
G1 X18.659 Y-50.579 E0.0088
G1 X18.675 Y-50.571 E0.0006
G1 X21.335 Y-49.166 E0.1000
G1 X21.351 Y-49.157 E0.0006
G1 X21.578 Y-49.018 E0.0088
G1 X21.594 Y-49.008 E0.0006
G1 X24.060 Y-47.286 E0.1000
G1 X24.075 Y-47.275 E0.0006
G1 X24.283 Y-47.110 E0.0088
G1 X24.297 Y-47.098 E0.0006
G1 X26.532 Y-45.086 E0.1000
G1 X26.546 Y-45.073 E0.0006
G1 X26.732 Y-44.883 E0.0088
G1 X26.744 Y-44.870 E0.0006
G1 X28.715 Y-42.597 E0.1000
G1 X28.727 Y-42.583 E0.0006
G1 X28.888 Y-42.372 E0.0088
G1 X28.899 Y-42.357 E0.0006
G1 X30.575 Y-39.859 E0.1000
G1 X30.584 Y-39.843 E0.0006
G1 X30.719 Y-39.614 E0.0088
G1 X30.727 Y-39.597 E0.0006
G1 X32.083 Y-36.912 E0.1000
G1 X32.091 Y-36.895 E0.0006
G1 X32.195 Y-36.651 E0.0088
G1 X32.202 Y-36.634 E0.0006
G1 X33.216 Y-33.802 E0.1000
G1 X33.222 Y-33.785 E0.0006
G1 X33.296 Y-33.530 E0.0088
G1 X33.301 Y-33.512 E0.0006
G1 X33.959 Y-30.576 E0.1000
G1 X33.962 Y-30.558 E0.0006
G1 X34.004 Y-30.296 E0.0088
G1 X34.006 Y-30.278 E0.0006
G1 X34.298 Y-27.284 E0.1000
G1 X34.299 Y-27.265 E0.0006
G1 X34.308 Y-27.000 E0.0088
G1 X34.308 Y-26.981 E0.0006
G1 X34.229 Y-23.974 E0.1000
G1 X34.228 Y-23.956 E0.0006
G1 X34.204 Y-23.691 E0.0088
G1 X34.202 Y-23.673 E0.0006
G1 X33.753 Y-20.699 E0.1000
G1 X33.749 Y-20.680 E0.0006
G1 X33.694 Y-20.421 E0.0088
G1 X33.689 Y-20.403 E0.0006
G1 X32.877 Y-17.507 E0.1000
G1 X32.871 Y-17.489 E0.0006
G1 X32.784 Y-17.238 E0.0088
G1 X32.777 Y-17.221 E0.0006
G1 X31.615 Y-14.447 E0.1000
G1 X31.607 Y-14.430 E0.0006
G1 X31.489 Y-14.192 E0.0088
G1 X31.481 Y-14.175 E0.0006
G1 X29.985 Y-11.566 E0.1000
G1 X29.975 Y-11.550 E0.0006
G1 X29.829 Y-11.328 E0.0088
G1 X29.819 Y-11.313 E0.0006
G1 X28.013 Y-8.907 E0.1000
G1 X28.002 Y-8.893 E0.0006
G1 X27.829 Y-8.690 E0.0088
G1 X27.817 Y-8.677 E0.0006
G1 X25.729 Y-6.512 E0.1000
G1 X25.715 Y-6.499 E0.0006
G1 X25.520 Y-6.319 E0.0088
G1 X25.506 Y-6.307 E0.0006
G1 X23.167 Y-4.416 E0.1000
G1 X23.152 Y-4.404 E0.0006
G1 X22.936 Y-4.251 E0.0088
G1 X22.920 Y-4.240 E0.0006
G1 X20.366 Y-2.651 E0.1000
G1 X20.350 Y-2.642 E0.0006
G1 X20.116 Y-2.516 E0.0088
G1 X20.100 Y-2.508 E0.0006
G1 X17.369 Y-1.245 E0.1000
G1 X17.352 Y-1.238 E0.0006
G1 X17.105 Y-1.142 E0.0088
G1 X17.087 Y-1.136 E0.0006
G1 X14.222 Y-0.219 E0.1001
G1 X14.204 Y-0.214 E0.0006
G1 X13.946 Y-0.149 E0.0089
G1 X13.928 Y-0.145 E0.0006
G1 X10.964 Y0.412 E0.1003
G1 X10.946 Y0.415 E0.0006
G1 X10.683 Y0.448 E0.0088
G1 X10.665 Y0.450 E0.0006
G1 X7.671 Y0.637 E0.0998
G1 X7.652 Y0.638 E0.0006
G1 X7.387 Y0.638 E0.0088
G1 X7.368 Y0.638 E0.0006
G1 X4.366 Y0.455 E0.1000
G1 X4.347 Y0.453 E0.0006
G1 X4.084 Y0.421 E0.0088
G1 X4.065 Y0.418 E0.0006
G1 X1.108 Y-0.133 E0.1000
G1 X1.090 Y-0.137 E0.0006
G1 X0.833 Y-0.202 E0.0088
G1 X0.815 Y-0.207 E0.0006
G1 X0.930 Y-0.590 F9000
G1 X-1.925 Y-1.498 E0.0996 F1980
G1 X-1.931 Y-1.500 E0.0002
G1 X-2.167 Y-1.591 E0.0084
G1 X-2.172 Y-1.594 E0.0002
G1 X-4.894 Y-2.846 E0.0996
G1 X-4.899 Y-2.849 E0.0002
G1 X-5.122 Y-2.968 E0.0084
G1 X-5.128 Y-2.972 E0.0002
G1 X-7.674 Y-4.549 E0.0996
G1 X-7.679 Y-4.553 E0.0002
G1 X-7.886 Y-4.699 E0.0084
G1 X-7.891 Y-4.703 E0.0002
G1 X-10.224 Y-6.582 E0.0996
G1 X-10.228 Y-6.586 E0.0002
G1 X-10.415 Y-6.757 E0.0084
G1 X-10.420 Y-6.762 E0.0002
G1 X-12.503 Y-8.914 E0.0996
G1 X-12.507 Y-8.919 E0.0002
G1 X-12.672 Y-9.111 E0.0084
G1 X-12.676 Y-9.116 E0.0002
G1 X-14.478 Y-11.509 E0.0996
G1 X-14.482 Y-11.514 E0.0002
G1 X-14.621 Y-11.725 E0.0084
G1 X-14.625 Y-11.730 E0.0002
G1 X-16.119 Y-14.327 E0.0996
G1 X-16.122 Y-14.332 E0.0002
G1 X-16.234 Y-14.559 E0.0084
G1 X-16.237 Y-14.564 E0.0002
G1 X-17.375 Y-17.267 E0.0975
G1 X-17.376 Y-17.270 E0.0001
G1 X-17.422 Y-17.388 E0.0042
G1 X-17.423 Y-17.391 E0.0001
G1 X-23.482 Y-34.687 E0.6095
G1 X-38.651 Y-34.687 E0.5045
G1 X-38.725 Y-34.717 E0.0026
G1 X-41.124 Y-37.117 E0.1129
G1 X-41.155 Y-37.190 E0.0026
G1 X-41.155 Y-50.108 E0.4297
G1 X-41.124 Y-50.182 E0.0026
G1 X-38.725 Y-52.581 E0.1129
G1 X-38.651 Y-52.612 E0.0026
G1 X-26.040 Y-52.612 E0.4195
G1 X-26.037 Y-52.612 E0.0001
G1 X-25.898 Y-52.607 E0.0046
G1 X-25.894 Y-52.607 E0.0001
G1 X-23.976 Y-52.477 E0.0639
G1 X-23.970 Y-52.476 E0.0002
G1 X-23.696 Y-52.439 E0.0092
G1 X-23.689 Y-52.438 E0.0002
G1 X-21.743 Y-52.038 E0.0661
G1 X-21.737 Y-52.037 E0.0002
G1 X-21.471 Y-51.963 E0.0092
G1 X-21.465 Y-51.961 E0.0002
G1 X-19.590 Y-51.304 E0.0661
G1 X-19.583 Y-51.302 E0.0002
G1 X-19.321 Y-51.189 E0.0095
G1 X-19.314 Y-51.186 E0.0002
G1 X-15.570 Y-49.253 E0.1401
G1 X-13.596 Y-48.508 E0.0702
G1 X-11.555 Y-48.005 E0.0699
G1 X-9.462 Y-47.746 E0.0702
G1 X-7.358 Y-47.738 E0.0700
G1 X-5.275 Y-47.978 E0.0697
G1 X-3.229 Y-48.464 E0.0700
G1 X-1.246 Y-49.194 E0.0703
G1 X2.605 Y-51.133 E0.1434
G1 X2.612 Y-51.136 E0.0002
G1 X2.893 Y-51.252 E0.0101
G1 X2.900 Y-51.255 E0.0002
G1 X4.889 Y-51.910 E0.0696
G1 X4.895 Y-51.912 E0.0002
G1 X5.177 Y-51.983 E0.0097
G1 X5.184 Y-51.985 E0.0002
G1 X7.239 Y-52.352 E0.0694
G1 X7.246 Y-52.353 E0.0002
G1 X7.535 Y-52.383 E0.0097
G1 X7.542 Y-52.384 E0.0002
G1 X9.633 Y-52.456 E0.0696
G1 X9.640 Y-52.456 E0.0002
G1 X9.930 Y-52.446 E0.0096
G1 X9.937 Y-52.445 E0.0002
G1 X11.997 Y-52.225 E0.0689
G1 X12.004 Y-52.224 E0.0002
G1 X12.272 Y-52.177 E0.0090
G1 X12.278 Y-52.176 E0.0002
G1 X15.198 Y-51.465 E0.0999
G1 X15.204 Y-51.463 E0.0002
G1 X15.445 Y-51.388 E0.0084
G1 X15.451 Y-51.386 E0.0002
G1 X18.252 Y-50.323 E0.0996
G1 X18.258 Y-50.321 E0.0002
G1 X18.489 Y-50.217 E0.0084
