; G-Code generated by Simplify3D(R) Version 4.0.0
; Feb 8, 2018 at 10:59:02 PM
; Settings Summary
;   processName,Normal ABS-1
;   applyToModels,Stop Switch Piece
;   profileName,MakerBot Replicator 2X (modified)
;   profileVersion,2015-05-01 08:00:00
;   baseProfile,
;   printMaterial,ABS
;   printQuality,Medium
;   printExtruders,Left Extruder Only
;   extruderName,Left Extruder
;   extruderToolheadNumber,1
;   extruderDiameter,0.4
;   extruderAutoWidth,0
;   extruderWidth,0.4
;   extrusionMultiplier,1
;   extruderUseRetract,1
;   extruderRetractionDistance,0.75
;   extruderExtraRestartDistance,0
;   extruderRetractionZLift,0
;   extruderRetractionSpeed,1200
;   extruderUseCoasting,0
;   extruderCoastingDistance,0.2
;   extruderUseWipe,0
;   extruderWipeDistance,5
;   primaryExtruder,0
;   layerHeight,0.2
;   topSolidLayers,4
;   bottomSolidLayers,4
;   perimeterOutlines,2
;   printPerimetersInsideOut,1
;   startPointOption,2
;   startPointOriginX,0
;   startPointOriginY,0
;   sequentialIslands,0
;   spiralVaseMode,0
;   firstLayerHeightPercentage,100
;   firstLayerWidthPercentage,100
;   firstLayerUnderspeed,0.33
;   useRaft,0
;   raftExtruder,0
;   raftTopLayers,3
;   raftBaseLayers,2
;   raftOffset,3
;   raftSeparationDistance,0.14
;   raftTopInfill,100
;   aboveRaftSpeedMultiplier,0.3
;   useSkirt,1
;   skirtExtruder,0
;   skirtLayers,1
;   skirtOutlines,2
;   skirtOffset,4
;   usePrimePillar,0
;   primePillarExtruder,999
;   primePillarWidth,12
;   primePillarLocation,7
;   primePillarSpeedMultiplier,1
;   useOozeShield,0
;   oozeShieldExtruder,999
;   oozeShieldOffset,2
;   oozeShieldOutlines,1
;   oozeShieldSidewallShape,1
;   oozeShieldSidewallAngle,30
;   oozeShieldSpeedMultiplier,1
;   infillExtruder,0
;   internalInfillPattern,Rectilinear
;   externalInfillPattern,Rectilinear
;   infillPercentage,20
;   outlineOverlapPercentage,20
;   infillExtrusionWidthPercentage,100
;   minInfillLength,5
;   infillLayerInterval,1
;   internalInfillAngles,45,-45
;   overlapInternalInfillAngles,0
;   externalInfillAngles,45,-45
;   generateSupport,1
;   supportExtruder,0
;   supportInfillPercentage,30
;   supportExtraInflation,0
;   supportBaseLayers,2
;   denseSupportExtruder,0
;   denseSupportLayers,0
;   denseSupportInfillPercentage,70
;   supportLayerInterval,1
;   supportHorizontalPartOffset,0.3
;   supportUpperSeparationLayers,1
;   supportLowerSeparationLayers,1
;   supportType,0
;   supportGridSpacing,1
;   maxOverhangAngle,45
;   supportAngles,0
;   temperatureName,Right Extruder,Left Extruder,Heated Build Platform
;   temperatureNumber,0,1,0
;   temperatureSetpointCount,1,1,3
;   temperatureSetpointLayers,1,1,1,1,3
;   temperatureSetpointTemperatures,0,230,100,95,90
;   temperatureStabilizeAtStartup,0,0,1
;   temperatureHeatedBed,0,0,1
;   temperatureRelayBetweenLayers,0,0,0
;   temperatureRelayBetweenLoops,0,0,0
;   fanLayers,1
;   fanSpeeds,0
;   blipFanToFullPower,0
;   adjustSpeedForCooling,1
;   minSpeedLayerTime,15
;   minCoolingSpeedSlowdown,20
;   increaseFanForCooling,0
;   minFanLayerTime,45
;   maxCoolingFanSpeed,100
;   increaseFanForBridging,0
;   bridgingFanSpeed,100
;   use5D,1
;   relativeEdistances,1
;   allowEaxisZeroing,0
;   independentExtruderAxes,1
;   includeM10123,0
;   stickySupport,1
;   applyToolheadOffsets,0
;   gcodeXoffset,0
;   gcodeYoffset,0
;   gcodeZoffset,0
;   overrideMachineDefinition,1
;   machineTypeOverride,0
;   strokeXoverride,250
;   strokeYoverride,150
;   strokeZoverride,150
;   originOffsetXoverride,125
;   originOffsetYoverride,75
;   originOffsetZoverride,0
;   homeXdirOverride,1
;   homeYdirOverride,1
;   homeZdirOverride,-1
;   flipXoverride,1
;   flipYoverride,-1
;   flipZoverride,1
;   toolheadOffsets,0,0|33,0|0,0|0,0|0,0|0,0
;   overrideFirmwareConfiguration,1
;   firmwareTypeOverride,MakerBot/Sailfish Firmware
;   GPXconfigOverride,r2x
;   baudRateOverride,115200
;   overridePrinterModels,1
;   printerModelsOverride,MakerBot_Replicator2X.stl
;   startingGcode,; **** Replicator 2X start.gcode ****,M73 P0 ; Enable build progress,G162 X Y F3000 ; Home XY maximum,G161 Z F1200 ; Home Z minimum,G92 Z-5 ; Set Z to -5,G1 Z0 ; Move Z to 0,G161 Z F100 ; Home Z slowly,M132 X Y Z A B ; Recall home offsets,M135 T0 ; Load right extruder offsets,G1 X-130 Y-75 Z30 F9000 ; Move to wait position off table,G130 X20 Y20 Z20 A20 B20 ; Lower stepper Vrefs while heating,M126 S[fan_speed_pwm] ; Set fan speed,M140 S[bed0_temperature] T0 ; Heat buildplate,M134 T0 ; Stabilize bed temperature,M104 S[extruder1_temperature] T1 ; Heat left extruder,M133 T1 ; Stabilize left extruder temperature,G130 X127 Y127 Z40 A127 B127 ; Default stepper Vrefs,G92 A0 B0 ; Zero extruders,M135 T1 ; Load left extruder offsets,G1 X-100 Y-65 F9000 ; Move to front left corner of bed,G1 Z0.3 F6000 ; Move down to purge,G1 X90 Y-65 E24 F2000 ; Extrude a line of filament across the front edge of the bed,G1 X100 Y-65 F180 ; Wait for ooze,G1 X110 Y-65 F5000 ; Fast wipe,G1 Z1 F100 ; Lift,G92 A0 B0 ; zero extruders,M73 P1 ;@body (notify GPX body has started),; **** end of start.gcode ****
;   layerChangeGcode,
;   retractionGcode,
;   toolChangeGcode,
;   endingGcode,; **** Replicator 2X end.gcode ****,M73 P100 ; end build progress,G1 Z155 F1000 ; send Z axis to bottom of machine,M140 S0 T0 ; cool down HBP,M104 S0 T0 ; cool down right extruder,M104 S0 T1 ; cool down left extruder,M127 ; stop blower fan,G162 X Y F3000 ; home XY maximum,M18 ; disable stepper,M72 P1 ; play Ta-Da song,; **** end of end.gcode ****
;   exportFileFormat,x3g
;   celebration,0
;   celebrationSong,Random Song
;   postProcessing,
;   defaultSpeed,5100
;   outlineUnderspeed,0.5
;   solidInfillUnderspeed,0.8
;   supportUnderspeed,0.8
;   rapidXYspeed,9000
;   rapidZspeed,1200
;   minBridgingArea,50
;   bridgingExtraInflation,0
;   bridgingExtrusionMultiplier,1
;   bridgingSpeedMultiplier,0.8
;   useFixedBridgingAngle,0
;   fixedBridgingAngle,0
;   applyBridgingToPerimeters,0
;   filamentDiameters,1.75|1.75|1.75|1.75|1.75|1.75
;   filamentPricesPerKg,16|16|16|16|16|16
;   filamentDensities,1.25|1.25|1.25|1.25|1.25|1.25
;   useMinPrintHeight,0
;   minPrintHeight,19.9
;   useMaxPrintHeight,0
;   maxPrintHeight,60.28
;   useDiaphragm,1
;   diaphragmLayerInterval,25
;   robustSlicing,1
;   mergeAllIntoSolid,0
;   onlyRetractWhenCrossingOutline,1
;   retractBetweenLayers,1
;   useRetractionMinTravel,0
;   retractionMinTravel,3
;   retractWhileWiping,0
;   onlyWipeOutlines,1
;   avoidCrossingOutline,0
;   maxMovementDetourFactor,3
;   toolChangeRetractionDistance,12
;   toolChangeExtraRestartDistance,-0.5
;   toolChangeRetractionSpeed,600
;   externalThinWallType,1
;   internalThinWallType,1
;   thinWallAllowedOverlapPercentage,30
;   singleExtrusionMinLength,0.2
;   singleExtrusionMinPrintingWidthPercentage,50
;   singleExtrusionMaxPrintingWidthPercentage,200
;   singleExtrusionEndpointExtension,0.2
;   horizontalSizeCompensation,0
G90
M83
; **** Replicator 2X start.gcode ****
M73 P0 ; Enable build progress
G162 X Y F3000 ; Home XY maximum
G161 Z F1200 ; Home Z minimum
G92 Z-5 ; Set Z to -5
G1 Z0 ; Move Z to 0
G161 Z F100 ; Home Z slowly
M132 X Y Z A B ; Recall home offsets
M135 T0 ; Load right extruder offsets
G1 X-130 Y-75 Z30 F9000 ; Move to wait position off table
G130 X20 Y20 Z20 A20 B20 ; Lower stepper Vrefs while heating
M127 ; Set fan speed
M140 S100 T0 ; Heat buildplate
M134 T0 ; Stabilize bed temperature
M104 S230 T1 ; Heat left extruder
M133 T1 ; Stabilize left extruder temperature
G130 X127 Y127 Z40 A127 B127 ; Default stepper Vrefs
G92 A0 B0 ; Zero extruders
M135 T1 ; Load left extruder offsets
G1 X-100 Y-65 F9000 ; Move to front left corner of bed
G1 Z0.3 F6000 ; Move down to purge
G1 X90 Y-65 E24 F2000 ; Extrude a line of filament across the front edge of the bed
G1 X100 Y-65 F180 ; Wait for ooze
G1 X110 Y-65 F5000 ; Fast wipe
G1 Z1 F100 ; Lift
G92 A0 B0 ; zero extruders
M73 P1 ;@body (notify GPX body has started)
; **** end of start.gcode ****
G1 E-0.7500 F1200
G1 Z0.200 F1200
; process Normal ABS-1
; layer 1, Z = 0.200
M135 T1
; tool H0.200 W0.400
; skirt
G1 X37.473 Y-25.400 F9000
G1 E0.7500 F360
G1 X-50.779 Y-25.400 E2.9353 F1683
G1 X-51.000 Y-25.492 E0.0079
G1 X-53.512 Y-28.004 E0.1182
G1 X-53.603 Y-28.224 E0.0079
G1 X-53.603 Y-34.277 E0.2013
G1 X-53.512 Y-34.497 E0.0079
G1 X-51.000 Y-37.009 E0.1182
G1 X-50.779 Y-37.100 E0.0079
G1 X-32.903 Y-37.100 E0.5946
G1 X-32.903 Y-50.477 E0.4449
G1 X-32.812 Y-50.697 E0.0079
G1 X-30.300 Y-53.209 E0.1182
G1 X-30.079 Y-53.300 E0.0079
G1 X37.473 Y-53.300 E2.2468
G1 X37.694 Y-53.209 E0.0079
G1 X40.206 Y-50.697 E0.1182
G1 X40.297 Y-50.477 E0.0079
G1 X40.297 Y-28.224 E0.7401
G1 X40.206 Y-28.004 E0.0079
G1 X37.694 Y-25.492 E0.1182
G1 X37.473 Y-25.400 E0.0079
G1 X37.394 Y-25.800 F9000
G1 X-50.700 Y-25.800 E2.9300 F1683
G1 X-50.773 Y-25.831 E0.0026
G1 X-53.173 Y-28.230 E0.1129
G1 X-53.203 Y-28.304 E0.0026
G1 X-53.203 Y-34.197 E0.1960
G1 X-53.173 Y-34.270 E0.0026
G1 X-50.773 Y-36.670 E0.1129
G1 X-50.700 Y-36.700 E0.0026
G1 X-32.503 Y-36.700 E0.6052
G1 X-32.503 Y-50.397 E0.4556
G1 X-32.473 Y-50.471 E0.0026
G1 X-30.073 Y-52.870 E0.1129
G1 X-30.000 Y-52.900 E0.0026
G1 X37.394 Y-52.900 E2.2415
G1 X37.467 Y-52.870 E0.0026
G1 X39.867 Y-50.471 E0.1129
G1 X39.897 Y-50.397 E0.0026
G1 X39.897 Y-28.304 E0.7348
G1 X39.867 Y-28.230 E0.0026
G1 X37.467 Y-25.831 E0.1129
G1 X37.394 Y-25.800 E0.0026
G1 E-0.7500 F1200
; inner perimeter
G1 X35.097 Y-30.600 F9000
G1 E0.7500 F1200
G1 X-48.403 Y-30.600 E2.7772 F1262
G1 X-48.403 Y-31.900 E0.0432
G1 X-27.703 Y-31.900 E0.6885
G1 X-27.703 Y-48.100 E0.5388
G1 X-14.661 Y-48.100 E0.4338
G1 X-14.981 Y-47.473 E0.0234
G1 X-15.110 Y-46.652 E0.0276
G1 X-14.981 Y-45.831 E0.0276
G1 X-14.602 Y-45.090 E0.0277
G1 X-14.015 Y-44.503 E0.0276
G1 X-13.274 Y-44.125 E0.0277
G1 X-12.453 Y-43.994 E0.0277
G1 X-11.632 Y-44.125 E0.0277
G1 X-10.891 Y-44.503 E0.0277
G1 X-10.304 Y-45.090 E0.0276
G1 X-9.925 Y-45.831 E0.0277
G1 X-9.794 Y-46.652 E0.0277
G1 X-9.925 Y-47.474 E0.0277
G1 X-10.245 Y-48.100 E0.0234
G1 X17.639 Y-48.100 E0.9274
G1 X17.319 Y-47.473 E0.0234
G1 X17.189 Y-46.652 E0.0276
G1 X17.319 Y-45.832 E0.0276
G1 X17.698 Y-45.090 E0.0277
G1 X18.285 Y-44.503 E0.0276
G1 X19.026 Y-44.125 E0.0277
G1 X19.847 Y-43.994 E0.0277
G1 X20.668 Y-44.125 E0.0277
G1 X21.409 Y-44.503 E0.0277
G1 X21.996 Y-45.090 E0.0276
G1 X22.376 Y-45.831 E0.0277
G1 X22.505 Y-46.652 E0.0277
G1 X22.376 Y-47.474 E0.0277
G1 X22.055 Y-48.100 E0.0234
G1 X35.097 Y-48.100 E0.4338
G1 X35.097 Y-30.600 E0.5821
; outer perimeter
G1 X35.497 Y-30.200 F9000
G1 X-48.803 Y-30.200 E2.8038 F842
G1 X-48.803 Y-32.300 E0.0698
G1 X-28.103 Y-32.300 E0.6885
G1 X-28.103 Y-48.500 E0.5388
G1 X-13.995 Y-48.500 E0.4692
G1 X-13.924 Y-48.328 E0.0062
G1 X-14.275 Y-47.976 E0.0165
G1 X-14.596 Y-47.348 E0.0235
G1 X-14.706 Y-46.652 E0.0234
G1 X-14.596 Y-45.957 E0.0234
G1 X-14.275 Y-45.328 E0.0235
G1 X-13.777 Y-44.831 E0.0234
G1 X-13.149 Y-44.510 E0.0235
G1 X-12.453 Y-44.399 E0.0234
G1 X-11.757 Y-44.510 E0.0234
G1 X-11.129 Y-44.831 E0.0235
G1 X-10.631 Y-45.328 E0.0234
G1 X-10.311 Y-45.957 E0.0235
G1 X-10.200 Y-46.652 E0.0234
G1 X-10.311 Y-47.348 E0.0234
G1 X-10.631 Y-47.976 E0.0235
G1 X-10.982 Y-48.328 E0.0165
G1 X-10.911 Y-48.500 E0.0062
G1 X18.305 Y-48.500 E0.9717
G1 X18.376 Y-48.328 E0.0062
G1 X18.025 Y-47.976 E0.0165
G1 X17.704 Y-47.348 E0.0235
G1 X17.594 Y-46.652 E0.0234
G1 X17.704 Y-45.957 E0.0234
G1 X18.025 Y-45.328 E0.0235
G1 X18.523 Y-44.831 E0.0234
G1 X19.151 Y-44.510 E0.0235
G1 X19.847 Y-44.399 E0.0234
G1 X20.543 Y-44.510 E0.0234
G1 X21.171 Y-44.831 E0.0235
G1 X21.669 Y-45.328 E0.0234
G1 X21.991 Y-45.957 E0.0235
G1 X22.100 Y-46.652 E0.0234
G1 X21.991 Y-47.348 E0.0234
G1 X21.669 Y-47.977 E0.0235
G1 X21.318 Y-48.328 E0.0165
G1 X21.389 Y-48.500 E0.0062
G1 X35.497 Y-48.500 E0.4692
G1 X35.497 Y-30.200 E0.6087
; inner perimeter
G1 X28.231 Y-31.900 F9000
G1 X28.231 Y-33.236 E0.0444 F1262
G1 X27.974 Y-34.028 E0.0277
G1 X27.485 Y-34.700 E0.0276
G1 X26.813 Y-35.189 E0.0277
G1 X26.021 Y-35.445 E0.0277
G1 X25.191 Y-35.445 E0.0276
G1 X24.398 Y-35.189 E0.0277
G1 X23.726 Y-34.700 E0.0276
G1 X23.238 Y-34.028 E0.0276
G1 X22.981 Y-33.236 E0.0277
G1 X22.981 Y-31.900 E0.0444
G1 X28.231 Y-31.900 E0.1746
; outer perimeter
G1 X27.831 Y-32.300 F9000
G1 X27.831 Y-33.173 E0.0290 F842
G1 X27.613 Y-33.844 E0.0235
G1 X27.199 Y-34.414 E0.0234
G1 X26.629 Y-34.828 E0.0234
G1 X25.958 Y-35.045 E0.0235
G1 X25.254 Y-35.045 E0.0234
G1 X24.582 Y-34.828 E0.0235
G1 X24.013 Y-34.414 E0.0234
G1 X23.599 Y-33.844 E0.0234
G1 X23.381 Y-33.173 E0.0235
G1 X23.381 Y-32.300 E0.0290
G1 X27.831 Y-32.300 E0.1480
; inner perimeter
G1 X27.749 Y-35.792 F9000
G1 X28.570 Y-35.922 E0.0277 F1262
G1 X29.311 Y-36.301 E0.0277
G1 X29.898 Y-36.888 E0.0276
G1 X30.277 Y-37.630 E0.0277
G1 X30.406 Y-38.450 E0.0276
G1 X30.277 Y-39.271 E0.0276
G1 X29.898 Y-40.013 E0.0277
G1 X29.311 Y-40.600 E0.0276
G1 X28.570 Y-40.978 E0.0277
G1 X27.749 Y-41.108 E0.0276
G1 X26.928 Y-40.978 E0.0276
G1 X26.187 Y-40.600 E0.0277
G1 X25.600 Y-40.013 E0.0276
G1 X25.220 Y-39.272 E0.0277
G1 X25.090 Y-38.450 E0.0277
G1 X25.220 Y-37.629 E0.0277
G1 X25.600 Y-36.888 E0.0277
G1 X26.186 Y-36.301 E0.0276
G1 X26.928 Y-35.922 E0.0277
G1 X27.749 Y-35.792 E0.0277
; outer perimeter
G1 X27.749 Y-36.197 F9000
G1 X28.445 Y-36.307 E0.0234 F842
G1 X29.073 Y-36.629 E0.0235
G1 X29.571 Y-37.126 E0.0234
G1 X29.892 Y-37.755 E0.0235
G1 X30.001 Y-38.450 E0.0234
G1 X29.892 Y-39.146 E0.0234
G1 X29.571 Y-39.774 E0.0235
G1 X29.073 Y-40.272 E0.0234
G1 X28.445 Y-40.593 E0.0235
G1 X27.749 Y-40.703 E0.0234
G1 X27.053 Y-40.593 E0.0234
G1 X26.425 Y-40.272 E0.0235
G1 X25.927 Y-39.775 E0.0234
G1 X25.605 Y-39.146 E0.0235
G1 X25.495 Y-38.450 E0.0234
G1 X25.605 Y-37.755 E0.0234
G1 X25.927 Y-37.126 E0.0235
G1 X26.425 Y-36.629 E0.0234
G1 X27.053 Y-36.307 E0.0235
G1 X27.749 Y-36.197 E0.0234
G1 E-0.7500 F1200
; inner perimeter
G1 X24.499 Y-37.828 F9000
G1 E0.7500 F1200
G1 X24.498 Y-39.373 E0.0514 F1262
G1 X24.052 Y-40.743 E0.0479
G1 X23.206 Y-41.910 E0.0480
G1 X22.039 Y-42.757 E0.0480
G1 X20.667 Y-43.202 E0.0480
G1 X19.025 Y-43.201 E0.0546
G1 X18.427 Y-43.008 E0.0209
G1 X18.273 Y-42.983 E0.0052
G1 X18.131 Y-42.911 E0.0053
G1 X17.654 Y-42.756 E0.0167
G1 X17.250 Y-42.462 E0.0166
G1 X16.988 Y-42.329 E0.0098
G1 X16.781 Y-42.122 E0.0097
G1 X16.487 Y-41.909 E0.0121
G1 X16.274 Y-41.615 E0.0121
G1 X15.969 Y-41.310 E0.0144
G1 X15.769 Y-40.918 E0.0146
G1 X15.641 Y-40.742 E0.0073
G1 X15.572 Y-40.530 E0.0074
G1 X15.316 Y-40.028 E0.0187
G1 X15.202 Y-39.370 E0.0222
G1 X15.096 Y-38.644 E0.0244
G1 X15.096 Y-38.453 E0.0064
G1 X15.314 Y-37.077 E0.0463
G1 X15.576 Y-36.561 E0.0192
G1 X15.642 Y-36.359 E0.0071
G1 X15.769 Y-36.183 E0.0072
G1 X15.968 Y-35.791 E0.0146
G1 X16.278 Y-35.482 E0.0146
G1 X16.488 Y-35.192 E0.0119
G1 X16.779 Y-34.981 E0.0119
G1 X16.988 Y-34.772 E0.0098
G1 X17.253 Y-34.637 E0.0099
G1 X17.655 Y-34.345 E0.0165
G1 X18.131 Y-34.190 E0.0167
G1 X18.273 Y-34.118 E0.0053
G1 X18.433 Y-34.092 E0.0054
G1 X19.027 Y-33.899 E0.0208
G1 X20.469 Y-33.899 E0.0480
G1 X21.840 Y-34.345 E0.0479
G1 X21.924 Y-34.407 E0.0035
G1 X22.040 Y-34.444 E0.0040
G1 X23.207 Y-35.291 E0.0480
G1 X24.053 Y-36.458 E0.0480
G1 X24.499 Y-37.828 E0.0479
; outer perimeter
G1 X24.099 Y-37.892 F9000
G1 X24.098 Y-39.309 E0.0471 F842
G1 X23.691 Y-40.559 E0.0437
G1 X22.919 Y-41.624 E0.0437
G1 X21.855 Y-42.396 E0.0437
G1 X20.604 Y-42.802 E0.0438
G1 X19.088 Y-42.801 E0.0504
G1 X18.521 Y-42.617 E0.0198
G1 X18.398 Y-42.598 E0.0041
G1 X18.285 Y-42.540 E0.0043
G1 X17.838 Y-42.395 E0.0156
G1 X17.459 Y-42.120 E0.0156
G1 X17.226 Y-42.001 E0.0087
G1 X17.042 Y-41.817 E0.0087
G1 X16.774 Y-41.623 E0.0110
G1 X16.579 Y-41.355 E0.0110
G1 X16.296 Y-41.072 E0.0133
G1 X16.111 Y-40.709 E0.0136
G1 X16.002 Y-40.558 E0.0062
G1 X15.942 Y-40.377 E0.0064
G1 X15.700 Y-39.900 E0.0178
G1 X15.597 Y-39.307 E0.0200
G1 X15.496 Y-38.615 E0.0233
G1 X15.496 Y-38.485 E0.0043
G1 X15.699 Y-37.202 E0.0432
G1 X15.947 Y-36.714 E0.0182
G1 X16.003 Y-36.542 E0.0060
G1 X16.111 Y-36.393 E0.0062
G1 X16.296 Y-36.029 E0.0136
G1 X16.583 Y-35.743 E0.0135
