; G-Code generated by Simplify3D(R) Version 4.0.0
; Feb 19, 2018 at 9:03:32 PM
; Settings Summary
;   processName,Normal ABS-1
;   applyToModels,u-thing2
;   profileName,MakerBot Replicator 2X (modified)
;   profileVersion,2015-05-01 08:00:00
;   baseProfile,
;   printMaterial,ABS
;   printQuality,Medium
;   printExtruders,Left Extruder Only
;   extruderName,Left Extruder
;   extruderToolheadNumber,1
;   extruderDiameter,0.4
;   extruderAutoWidth,0
;   extruderWidth,0.4
;   extrusionMultiplier,0.99
;   extruderUseRetract,1
;   extruderRetractionDistance,0.75
;   extruderExtraRestartDistance,0
;   extruderRetractionZLift,0
;   extruderRetractionSpeed,1200
;   extruderUseCoasting,0
;   extruderCoastingDistance,0.2
;   extruderUseWipe,0
;   extruderWipeDistance,5
;   primaryExtruder,0
;   layerHeight,0.2
;   topSolidLayers,4
;   bottomSolidLayers,4
;   perimeterOutlines,2
;   printPerimetersInsideOut,1
;   startPointOption,2
;   startPointOriginX,0
;   startPointOriginY,0
;   sequentialIslands,0
;   spiralVaseMode,0
;   firstLayerHeightPercentage,100
;   firstLayerWidthPercentage,100
;   firstLayerUnderspeed,0.4
;   useRaft,0
;   raftExtruder,0
;   raftTopLayers,3
;   raftBaseLayers,2
;   raftOffset,3
;   raftSeparationDistance,0.14
;   raftTopInfill,100
;   aboveRaftSpeedMultiplier,0.3
;   useSkirt,1
;   skirtExtruder,0
;   skirtLayers,1
;   skirtOutlines,2
;   skirtOffset,4
;   usePrimePillar,0
;   primePillarExtruder,999
;   primePillarWidth,12
;   primePillarLocation,7
;   primePillarSpeedMultiplier,1
;   useOozeShield,0
;   oozeShieldExtruder,999
;   oozeShieldOffset,2
;   oozeShieldOutlines,1
;   oozeShieldSidewallShape,1
;   oozeShieldSidewallAngle,30
;   oozeShieldSpeedMultiplier,1
;   infillExtruder,0
;   internalInfillPattern,Rectilinear
;   externalInfillPattern,Rectilinear
;   infillPercentage,20
;   outlineOverlapPercentage,20
;   infillExtrusionWidthPercentage,100
;   minInfillLength,5
;   infillLayerInterval,1
;   internalInfillAngles,45,-45
;   overlapInternalInfillAngles,0
;   externalInfillAngles,45,-45
;   generateSupport,0
;   supportExtruder,0
;   supportInfillPercentage,30
;   supportExtraInflation,0
;   supportBaseLayers,2
;   denseSupportExtruder,0
;   denseSupportLayers,0
;   denseSupportInfillPercentage,70
;   supportLayerInterval,1
;   supportHorizontalPartOffset,0.3
;   supportUpperSeparationLayers,1
;   supportLowerSeparationLayers,1
;   supportType,0
;   supportGridSpacing,1
;   maxOverhangAngle,30
;   supportAngles,0
;   temperatureName,Right Extruder,Left Extruder,Heated Build Platform
;   temperatureNumber,0,1,0
;   temperatureSetpointCount,1,1,3
;   temperatureSetpointLayers,1,1,1,1,3
;   temperatureSetpointTemperatures,0,230,100,95,90
;   temperatureStabilizeAtStartup,0,0,1
;   temperatureHeatedBed,0,0,1
;   temperatureRelayBetweenLayers,0,0,0
;   temperatureRelayBetweenLoops,0,0,0
;   fanLayers,1
;   fanSpeeds,0
;   blipFanToFullPower,0
;   adjustSpeedForCooling,1
;   minSpeedLayerTime,15
;   minCoolingSpeedSlowdown,20
;   increaseFanForCooling,0
;   minFanLayerTime,45
;   maxCoolingFanSpeed,100
;   increaseFanForBridging,0
;   bridgingFanSpeed,100
;   use5D,1
;   relativeEdistances,1
;   allowEaxisZeroing,0
;   independentExtruderAxes,1
;   includeM10123,0
;   stickySupport,1
;   applyToolheadOffsets,0
;   gcodeXoffset,0
;   gcodeYoffset,0
;   gcodeZoffset,0
;   overrideMachineDefinition,1
;   machineTypeOverride,0
;   strokeXoverride,250
;   strokeYoverride,150
;   strokeZoverride,150
;   originOffsetXoverride,125
;   originOffsetYoverride,75
;   originOffsetZoverride,0
;   homeXdirOverride,1
;   homeYdirOverride,1
;   homeZdirOverride,-1
;   flipXoverride,1
;   flipYoverride,-1
;   flipZoverride,1
;   toolheadOffsets,0,0|33,0|0,0|0,0|0,0|0,0
;   overrideFirmwareConfiguration,1
;   firmwareTypeOverride,MakerBot/Sailfish Firmware
;   GPXconfigOverride,r2x
;   baudRateOverride,115200
;   overridePrinterModels,1
;   printerModelsOverride,MakerBot_Replicator2X.stl
;   startingGcode,; **** Replicator 2X start.gcode ****,M73 P0 ; Enable build progress,G162 X Y F3000 ; Home XY maximum,G161 Z F1200 ; Home Z minimum,G92 Z-5 ; Set Z to -5,G1 Z0 ; Move Z to 0,G161 Z F100 ; Home Z slowly,M132 X Y Z A B ; Recall home offsets,M135 T0 ; Load right extruder offsets,G1 X-130 Y-75 Z30 F9000 ; Move to wait position off table,G130 X20 Y20 Z20 A20 B20 ; Lower stepper Vrefs while heating,M126 S[fan_speed_pwm] ; Set fan speed,M140 S[bed0_temperature] T0 ; Heat buildplate,M134 T0 ; Stabilize bed temperature,M104 S[extruder1_temperature] T1 ; Heat left extruder,M133 T1 ; Stabilize left extruder temperature,G130 X127 Y127 Z40 A127 B127 ; Default stepper Vrefs,G92 A0 B0 ; Zero extruders,M135 T1 ; Load left extruder offsets,G1 X-100 Y-65 F9000 ; Move to front left corner of bed,G1 Z0.3 F6000 ; Move down to purge,G1 X90 Y-65 E24 F2000 ; Extrude a line of filament across the front edge of the bed,G1 X100 Y-65 F180 ; Wait for ooze,G1 X110 Y-65 F5000 ; Fast wipe,G1 Z1 F100 ; Lift,G92 A0 B0 ; zero extruders,M73 P1 ;@body (notify GPX body has started),; **** end of start.gcode ****
;   layerChangeGcode,
;   retractionGcode,
;   toolChangeGcode,
;   endingGcode,; **** Replicator 2X end.gcode ****,M73 P100 ; end build progress,G1 Z155 F1000 ; send Z axis to bottom of machine,M140 S0 T0 ; cool down HBP,M104 S0 T0 ; cool down right extruder,M104 S0 T1 ; cool down left extruder,M127 ; stop blower fan,G162 X Y F3000 ; home XY maximum,M18 ; disable stepper,M72 P1 ; play Ta-Da song,; **** end of end.gcode ****
;   exportFileFormat,x3g
;   celebration,0
;   celebrationSong,Random Song
;   postProcessing,
;   defaultSpeed,6000
;   outlineUnderspeed,0.5
;   solidInfillUnderspeed,0.8
;   supportUnderspeed,0.8
;   rapidXYspeed,9000
;   rapidZspeed,1200
;   minBridgingArea,50
;   bridgingExtraInflation,0
;   bridgingExtrusionMultiplier,1
;   bridgingSpeedMultiplier,0.8
;   useFixedBridgingAngle,0
;   fixedBridgingAngle,0
;   applyBridgingToPerimeters,0
;   filamentDiameters,1.75|1.75|1.75|1.75|1.75|1.75
;   filamentPricesPerKg,16|16|16|16|16|16
;   filamentDensities,1.25|1.25|1.25|1.25|1.25|1.25
;   useMinPrintHeight,0
;   minPrintHeight,19.9
;   useMaxPrintHeight,0
;   maxPrintHeight,18.92
;   useDiaphragm,0
;   diaphragmLayerInterval,20
;   robustSlicing,1
;   mergeAllIntoSolid,0
;   onlyRetractWhenCrossingOutline,1
;   retractBetweenLayers,1
;   useRetractionMinTravel,0
;   retractionMinTravel,3
;   retractWhileWiping,0
;   onlyWipeOutlines,1
;   avoidCrossingOutline,0
;   maxMovementDetourFactor,3
;   toolChangeRetractionDistance,12
;   toolChangeExtraRestartDistance,-0.5
;   toolChangeRetractionSpeed,600
;   externalThinWallType,1
;   internalThinWallType,1
;   thinWallAllowedOverlapPercentage,30
;   singleExtrusionMinLength,0.2
;   singleExtrusionMinPrintingWidthPercentage,50
;   singleExtrusionMaxPrintingWidthPercentage,200
;   singleExtrusionEndpointExtension,0.2
;   horizontalSizeCompensation,0
G90
M83
; **** Replicator 2X start.gcode ****
M73 P0 ; Enable build progress
G162 X Y F3000 ; Home XY maximum
G161 Z F1200 ; Home Z minimum
G92 Z-5 ; Set Z to -5
G1 Z0 ; Move Z to 0
G161 Z F100 ; Home Z slowly
M132 X Y Z A B ; Recall home offsets
M135 T0 ; Load right extruder offsets
G1 X-130 Y-75 Z30 F9000 ; Move to wait position off table
G130 X20 Y20 Z20 A20 B20 ; Lower stepper Vrefs while heating
M127 ; Set fan speed
M140 S100 T0 ; Heat buildplate
M134 T0 ; Stabilize bed temperature
M104 S230 T1 ; Heat left extruder
M133 T1 ; Stabilize left extruder temperature
G130 X127 Y127 Z40 A127 B127 ; Default stepper Vrefs
G92 A0 B0 ; Zero extruders
M135 T1 ; Load left extruder offsets
G1 X-100 Y-65 F9000 ; Move to front left corner of bed
G1 Z0.3 F6000 ; Move down to purge
G1 X90 Y-65 E24 F2000 ; Extrude a line of filament across the front edge of the bed
G1 X100 Y-65 F180 ; Wait for ooze
G1 X110 Y-65 F5000 ; Fast wipe
G1 Z1 F100 ; Lift
G92 A0 B0 ; zero extruders
M73 P1 ;@body (notify GPX body has started)
; **** end of start.gcode ****
G1 E-0.7500 F1200
G1 Z0.200 F1200
; process Normal ABS-1
; layer 1, Z = 0.200
M135 T1
; tool H0.200 W0.400
; skirt
G1 X-95.609 Y6.439 F9000
G1 E0.7500 F360
G1 X-95.829 Y6.348 E0.0079 F2400
G1 X-98.341 Y3.836 E0.1170
G1 X-98.433 Y3.615 E0.0079
G1 X-98.433 Y-50.737 E1.7897
G1 X-98.341 Y-50.958 E0.0079
G1 X-95.829 Y-53.470 E0.1170
G1 X-95.609 Y-53.561 E0.0079
G1 X102.094 Y-53.561 E6.5099
G1 X102.314 Y-53.470 E0.0079
G1 X104.826 Y-50.958 E0.1170
G1 X104.917 Y-50.737 E0.0079
G1 X104.917 Y3.615 E1.7897
G1 X104.826 Y3.836 E0.0079
G1 X102.314 Y6.348 E0.1170
G1 X102.094 Y6.439 E0.0079
G1 X-95.609 Y6.439 E6.5099
G1 X-95.529 Y6.039 F9000
G1 X-95.603 Y6.009 E0.0026 F2400
G1 X-98.002 Y3.609 E0.1117
G1 X-98.033 Y3.536 E0.0026
G1 X-98.033 Y-50.657 E1.7845
G1 X-98.002 Y-50.731 E0.0026
G1 X-95.603 Y-53.130 E0.1117
G1 X-95.529 Y-53.161 E0.0026
G1 X102.014 Y-53.161 E6.5046
G1 X102.088 Y-53.130 E0.0026
G1 X104.487 Y-50.731 E0.1117
G1 X104.517 Y-50.657 E0.0026
G1 X104.517 Y3.536 E1.7845
G1 X104.487 Y3.609 E0.0026
G1 X102.088 Y6.009 E0.1117
G1 X102.014 Y6.039 E0.0026
G1 X-95.529 Y6.039 E6.5046
G1 E-0.7500 F1200
; inner perimeter
G1 X-93.233 Y1.239 F9000
G1 E0.7500 F1200
G1 X-93.233 Y-48.361 E1.6332 F1800
G1 X99.717 Y-48.361 E6.3534
G1 X99.717 Y1.239 E1.6332
G1 X-93.233 Y1.239 E6.3534
; outer perimeter
G1 X-93.633 Y1.639 F9000
G1 X-93.633 Y-48.761 E1.6595 F1200
G1 X100.117 Y-48.761 E6.3797
G1 X100.117 Y1.639 E1.6595
G1 X-93.633 Y1.639 E6.3797
; solid layer
G1 X-92.769 Y0.919 F9000
G1 X-92.913 Y0.775 E0.0067 F1920
G1 X-92.913 Y0.209 E0.0186
G1 X-92.203 Y0.919 E0.0330
G1 X-91.637 Y0.919 E0.0186
G1 X-92.913 Y-0.356 E0.0594
G1 X-92.913 Y-0.922 E0.0186
G1 X-91.072 Y0.919 E0.0857
G1 X-90.506 Y0.919 E0.0186
G1 X-92.913 Y-1.488 E0.1121
G1 X-92.913 Y-2.053 E0.0186
G1 X-89.940 Y0.919 E0.1384
G1 X-89.374 Y0.919 E0.0186
G1 X-92.913 Y-2.619 E0.1648
G1 X-92.913 Y-3.185 E0.0186
G1 X-88.809 Y0.919 E0.1911
G1 X-88.243 Y0.919 E0.0186
G1 X-92.913 Y-3.750 E0.2174
G1 X-92.913 Y-4.316 E0.0186
G1 X-87.677 Y0.919 E0.2438
G1 X-87.112 Y0.919 E0.0186
G1 X-92.913 Y-4.882 E0.2701
G1 X-92.913 Y-5.447 E0.0186
G1 X-86.546 Y0.919 E0.2965
G1 X-85.980 Y0.919 E0.0186
G1 X-92.913 Y-6.013 E0.3228
G1 X-92.913 Y-6.579 E0.0186
G1 X-85.415 Y0.919 E0.3492
G1 X-84.849 Y0.919 E0.0186
G1 X-92.913 Y-7.144 E0.3755
G1 X-92.913 Y-7.710 E0.0186
G1 X-84.283 Y0.919 E0.4018
G1 X-83.718 Y0.919 E0.0186
G1 X-92.913 Y-8.276 E0.4282
G1 X-92.913 Y-8.842 E0.0186
G1 X-83.152 Y0.919 E0.4545
G1 X-82.586 Y0.919 E0.0186
G1 X-92.913 Y-9.407 E0.4809
G1 X-92.913 Y-9.973 E0.0186
G1 X-82.021 Y0.919 E0.5072
G1 X-81.455 Y0.919 E0.0186
G1 X-92.913 Y-10.539 E0.5335
G1 X-92.913 Y-11.104 E0.0186
G1 X-80.889 Y0.919 E0.5599
G1 X-80.324 Y0.919 E0.0186
G1 X-92.913 Y-11.670 E0.5862
G1 X-92.913 Y-12.236 E0.0186
G1 X-79.758 Y0.919 E0.6126
G1 X-79.192 Y0.919 E0.0186
G1 X-92.913 Y-12.801 E0.6389
G1 X-92.913 Y-13.367 E0.0186
G1 X-78.626 Y0.919 E0.6653
G1 X-78.061 Y0.919 E0.0186
G1 X-92.913 Y-13.933 E0.6916
G1 X-92.913 Y-14.498 E0.0186
G1 X-77.495 Y0.919 E0.7179
G1 X-76.929 Y0.919 E0.0186
G1 X-92.913 Y-15.064 E0.7443
G1 X-92.913 Y-15.630 E0.0186
G1 X-76.364 Y0.919 E0.7706
G1 X-75.798 Y0.919 E0.0186
G1 X-92.913 Y-16.195 E0.7970
G1 X-92.913 Y-16.761 E0.0186
G1 X-75.232 Y0.919 E0.8233
G1 X-74.667 Y0.919 E0.0186
G1 X-92.913 Y-17.327 E0.8497
G1 X-92.913 Y-17.892 E0.0186
G1 X-74.101 Y0.919 E0.8760
G1 X-73.535 Y0.919 E0.0186
G1 X-92.913 Y-18.458 E0.9023
G1 X-92.913 Y-19.024 E0.0186
G1 X-72.970 Y0.919 E0.9287
G1 X-72.404 Y0.919 E0.0186
G1 X-92.913 Y-19.590 E0.9550
G1 X-92.913 Y-20.155 E0.0186
G1 X-71.838 Y0.919 E0.9814
G1 X-71.273 Y0.919 E0.0186
G1 X-92.913 Y-20.721 E1.0077
G1 X-92.913 Y-21.287 E0.0186
G1 X-70.707 Y0.919 E1.0340
G1 X-70.141 Y0.919 E0.0186
G1 X-92.913 Y-21.852 E1.0604
G1 X-92.913 Y-22.418 E0.0186
G1 X-69.575 Y0.919 E1.0867
G1 X-69.010 Y0.919 E0.0186
G1 X-92.913 Y-22.984 E1.1131
G1 X-92.913 Y-23.549 E0.0186
G1 X-68.444 Y0.919 E1.1394
G1 X-67.878 Y0.919 E0.0186
G1 X-92.913 Y-24.115 E1.1658
G1 X-92.913 Y-24.681 E0.0186
G1 X-67.313 Y0.919 E1.1921
G1 X-66.747 Y0.919 E0.0186
G1 X-92.913 Y-25.246 E1.2184
G1 X-92.913 Y-25.812 E0.0186
G1 X-66.181 Y0.919 E1.2448
G1 X-65.616 Y0.919 E0.0186
G1 X-92.913 Y-26.378 E1.2711
G1 X-92.913 Y-26.943 E0.0186
G1 X-65.050 Y0.919 E1.2975
G1 X-64.484 Y0.919 E0.0186
G1 X-92.913 Y-27.509 E1.3238
G1 X-92.913 Y-28.075 E0.0186
G1 X-63.919 Y0.919 E1.3501
G1 X-63.353 Y0.919 E0.0186
G1 X-92.913 Y-28.641 E1.3765
G1 X-92.913 Y-29.206 E0.0186
G1 X-62.787 Y0.919 E1.4028
G1 X-62.222 Y0.919 E0.0186
G1 X-92.913 Y-29.772 E1.4292
G1 X-92.913 Y-30.338 E0.0186
G1 X-61.656 Y0.919 E1.4555
G1 X-61.090 Y0.919 E0.0186
G1 X-92.913 Y-30.903 E1.4819
G1 X-92.913 Y-31.469 E0.0186
G1 X-60.525 Y0.919 E1.5082
G1 X-59.959 Y0.919 E0.0186
G1 X-92.913 Y-32.035 E1.5345
G1 X-92.913 Y-32.600 E0.0186
G1 X-59.393 Y0.919 E1.5609
G1 X-58.827 Y0.919 E0.0186
G1 X-92.913 Y-33.166 E1.5872
G1 X-92.913 Y-33.732 E0.0186
G1 X-58.262 Y0.919 E1.6136
G1 X-57.696 Y0.919 E0.0186
G1 X-92.913 Y-34.297 E1.6399
G1 X-92.913 Y-34.863 E0.0186
G1 X-57.130 Y0.919 E1.6663
G1 X-56.565 Y0.919 E0.0186
G1 X-92.913 Y-35.429 E1.6926
G1 X-92.913 Y-35.994 E0.0186
G1 X-55.999 Y0.919 E1.7189
G1 X-55.433 Y0.919 E0.0186
G1 X-92.913 Y-36.560 E1.7453
G1 X-92.913 Y-37.126 E0.0186
G1 X-54.868 Y0.919 E1.7716
G1 X-54.302 Y0.919 E0.0186
G1 X-92.913 Y-37.691 E1.7980
G1 X-92.913 Y-38.257 E0.0186
G1 X-53.736 Y0.919 E1.8243
G1 X-53.171 Y0.919 E0.0186
G1 X-92.913 Y-38.823 E1.8506
G1 X-92.913 Y-39.389 E0.0186
G1 X-52.605 Y0.919 E1.8770
G1 X-52.039 Y0.919 E0.0186
G1 X-92.913 Y-39.954 E1.9033
G1 X-92.913 Y-40.520 E0.0186
G1 X-51.474 Y0.919 E1.9297
G1 X-50.908 Y0.919 E0.0186
G1 X-92.913 Y-41.086 E1.9560
G1 X-92.913 Y-41.651 E0.0186
G1 X-50.342 Y0.919 E1.9824
G1 X-49.777 Y0.919 E0.0186
G1 X-92.913 Y-42.217 E2.0087
G1 X-92.913 Y-42.783 E0.0186
G1 X-49.211 Y0.919 E2.0350
G1 X-48.645 Y0.919 E0.0186
G1 X-92.913 Y-43.348 E2.0614
G1 X-92.913 Y-43.914 E0.0186
G1 X-48.079 Y0.919 E2.0877
G1 X-47.514 Y0.919 E0.0186
G1 X-92.913 Y-44.480 E2.1141
G1 X-92.913 Y-45.045 E0.0186
G1 X-46.948 Y0.919 E2.1404
G1 X-46.382 Y0.919 E0.0186
G1 X-92.913 Y-45.611 E2.1668
G1 X-92.913 Y-46.177 E0.0186
G1 X-45.817 Y0.919 E2.1931
G1 X-45.251 Y0.919 E0.0186
G1 X-92.913 Y-46.742 E2.2194
G1 X-92.913 Y-47.308 E0.0186
G1 X-44.685 Y0.919 E2.2458
G1 X-44.120 Y0.919 E0.0186
G1 X-92.913 Y-47.874 E2.2721
G1 X-92.913 Y-48.041 E0.0055
G1 X-92.514 Y-48.041 E0.0131
G1 X-43.554 Y0.919 E2.2799
G1 X-42.988 Y0.919 E0.0186
G1 X-91.948 Y-48.041 E2.2799
G1 X-91.383 Y-48.041 E0.0186
G1 X-42.423 Y0.919 E2.2799
G1 X-41.857 Y0.919 E0.0186
G1 X-90.817 Y-48.041 E2.2799
G1 X-90.251 Y-48.041 E0.0186
G1 X-41.291 Y0.919 E2.2799
G1 X-40.726 Y0.919 E0.0186
G1 X-89.686 Y-48.041 E2.2799
G1 X-89.120 Y-48.041 E0.0186
G1 X-40.160 Y0.919 E2.2799
G1 X-39.594 Y0.919 E0.0186
G1 X-88.554 Y-48.041 E2.2799
G1 X-87.988 Y-48.041 E0.0186
G1 X-39.028 Y0.919 E2.2799
G1 X-38.463 Y0.919 E0.0186
G1 X-87.423 Y-48.041 E2.2799
G1 X-86.857 Y-48.041 E0.0186
G1 X-37.897 Y0.919 E2.2799
G1 X-37.331 Y0.919 E0.0186
G1 X-86.291 Y-48.041 E2.2799
G1 X-85.726 Y-48.041 E0.0186
G1 X-36.766 Y0.919 E2.2799
G1 X-36.200 Y0.919 E0.0186
G1 X-85.160 Y-48.041 E2.2799
G1 X-84.594 Y-48.041 E0.0186
G1 X-35.634 Y0.919 E2.2799
G1 X-35.069 Y0.919 E0.0186
G1 X-84.029 Y-48.041 E2.2799
G1 X-83.463 Y-48.041 E0.0186
G1 X-34.503 Y0.919 E2.2799
G1 X-33.937 Y0.919 E0.0186
G1 X-82.897 Y-48.041 E2.2799
G1 X-82.332 Y-48.041 E0.0186
G1 X-33.372 Y0.919 E2.2799
G1 X-32.806 Y0.919 E0.0186
G1 X-81.766 Y-48.041 E2.2799
G1 X-81.200 Y-48.041 E0.0186
G1 X-32.240 Y0.919 E2.2799
G1 X-31.675 Y0.919 E0.0186
G1 X-80.635 Y-48.041 E2.2799
G1 X-80.069 Y-48.041 E0.0186
G1 X-31.109 Y0.919 E2.2799
G1 X-30.543 Y0.919 E0.0186
G1 X-79.503 Y-48.041 E2.2799
G1 X-78.938 Y-48.041 E0.0186
G1 X-29.978 Y0.919 E2.2799
G1 X-29.412 Y0.919 E0.0186
G1 X-78.372 Y-48.041 E2.2799
G1 X-77.806 Y-48.041 E0.0186
G1 X-28.846 Y0.919 E2.2799
G1 X-28.280 Y0.919 E0.0186
G1 X-77.240 Y-48.041 E2.2799
G1 X-76.675 Y-48.041 E0.0186
G1 X-27.715 Y0.919 E2.2799
G1 X-27.149 Y0.919 E0.0186
G1 X-76.109 Y-48.041 E2.2799
