; G-Code generated by Simplify3D(R) Version 4.0.0
; Feb 19, 2018 at 9:02:47 PM
; Settings Summary
;   processName,Normal ABS-1
;   applyToModels,u-thing
;   profileName,MakerBot Replicator 2X (modified)
;   profileVersion,2015-05-01 08:00:00
;   baseProfile,
;   printMaterial,ABS
;   printQuality,Medium
;   printExtruders,Left Extruder Only
;   extruderName,Left Extruder
;   extruderToolheadNumber,1
;   extruderDiameter,0.4
;   extruderAutoWidth,0
;   extruderWidth,0.4
;   extrusionMultiplier,0.99
;   extruderUseRetract,1
;   extruderRetractionDistance,0.75
;   extruderExtraRestartDistance,0
;   extruderRetractionZLift,0
;   extruderRetractionSpeed,1200
;   extruderUseCoasting,0
;   extruderCoastingDistance,0.2
;   extruderUseWipe,0
;   extruderWipeDistance,5
;   primaryExtruder,0
;   layerHeight,0.2
;   topSolidLayers,4
;   bottomSolidLayers,4
;   perimeterOutlines,2
;   printPerimetersInsideOut,1
;   startPointOption,2
;   startPointOriginX,0
;   startPointOriginY,0
;   sequentialIslands,0
;   spiralVaseMode,0
;   firstLayerHeightPercentage,100
;   firstLayerWidthPercentage,100
;   firstLayerUnderspeed,0.4
;   useRaft,0
;   raftExtruder,0
;   raftTopLayers,3
;   raftBaseLayers,2
;   raftOffset,3
;   raftSeparationDistance,0.14
;   raftTopInfill,100
;   aboveRaftSpeedMultiplier,0.3
;   useSkirt,1
;   skirtExtruder,0
;   skirtLayers,1
;   skirtOutlines,2
;   skirtOffset,4
;   usePrimePillar,0
;   primePillarExtruder,999
;   primePillarWidth,12
;   primePillarLocation,7
;   primePillarSpeedMultiplier,1
;   useOozeShield,0
;   oozeShieldExtruder,999
;   oozeShieldOffset,2
;   oozeShieldOutlines,1
;   oozeShieldSidewallShape,1
;   oozeShieldSidewallAngle,30
;   oozeShieldSpeedMultiplier,1
;   infillExtruder,0
;   internalInfillPattern,Rectilinear
;   externalInfillPattern,Rectilinear
;   infillPercentage,20
;   outlineOverlapPercentage,20
;   infillExtrusionWidthPercentage,100
;   minInfillLength,5
;   infillLayerInterval,1
;   internalInfillAngles,45,-45
;   overlapInternalInfillAngles,0
;   externalInfillAngles,45,-45
;   generateSupport,0
;   supportExtruder,0
;   supportInfillPercentage,30
;   supportExtraInflation,0
;   supportBaseLayers,2
;   denseSupportExtruder,0
;   denseSupportLayers,0
;   denseSupportInfillPercentage,70
;   supportLayerInterval,1
;   supportHorizontalPartOffset,0.3
;   supportUpperSeparationLayers,1
;   supportLowerSeparationLayers,1
;   supportType,0
;   supportGridSpacing,1
;   maxOverhangAngle,30
;   supportAngles,0
;   temperatureName,Right Extruder,Left Extruder,Heated Build Platform
;   temperatureNumber,0,1,0
;   temperatureSetpointCount,1,1,3
;   temperatureSetpointLayers,1,1,1,1,3
;   temperatureSetpointTemperatures,0,230,100,95,90
;   temperatureStabilizeAtStartup,0,0,1
;   temperatureHeatedBed,0,0,1
;   temperatureRelayBetweenLayers,0,0,0
;   temperatureRelayBetweenLoops,0,0,0
;   fanLayers,1
;   fanSpeeds,0
;   blipFanToFullPower,0
;   adjustSpeedForCooling,1
;   minSpeedLayerTime,15
;   minCoolingSpeedSlowdown,20
;   increaseFanForCooling,0
;   minFanLayerTime,45
;   maxCoolingFanSpeed,100
;   increaseFanForBridging,0
;   bridgingFanSpeed,100
;   use5D,1
;   relativeEdistances,1
;   allowEaxisZeroing,0
;   independentExtruderAxes,1
;   includeM10123,0
;   stickySupport,1
;   applyToolheadOffsets,0
;   gcodeXoffset,0
;   gcodeYoffset,0
;   gcodeZoffset,0
;   overrideMachineDefinition,1
;   machineTypeOverride,0
;   strokeXoverride,250
;   strokeYoverride,150
;   strokeZoverride,150
;   originOffsetXoverride,125
;   originOffsetYoverride,75
;   originOffsetZoverride,0
;   homeXdirOverride,1
;   homeYdirOverride,1
;   homeZdirOverride,-1
;   flipXoverride,1
;   flipYoverride,-1
;   flipZoverride,1
;   toolheadOffsets,0,0|33,0|0,0|0,0|0,0|0,0
;   overrideFirmwareConfiguration,1
;   firmwareTypeOverride,MakerBot/Sailfish Firmware
;   GPXconfigOverride,r2x
;   baudRateOverride,115200
;   overridePrinterModels,1
;   printerModelsOverride,MakerBot_Replicator2X.stl
;   startingGcode,; **** Replicator 2X start.gcode ****,M73 P0 ; Enable build progress,G162 X Y F3000 ; Home XY maximum,G161 Z F1200 ; Home Z minimum,G92 Z-5 ; Set Z to -5,G1 Z0 ; Move Z to 0,G161 Z F100 ; Home Z slowly,M132 X Y Z A B ; Recall home offsets,M135 T0 ; Load right extruder offsets,G1 X-130 Y-75 Z30 F9000 ; Move to wait position off table,G130 X20 Y20 Z20 A20 B20 ; Lower stepper Vrefs while heating,M126 S[fan_speed_pwm] ; Set fan speed,M140 S[bed0_temperature] T0 ; Heat buildplate,M134 T0 ; Stabilize bed temperature,M104 S[extruder1_temperature] T1 ; Heat left extruder,M133 T1 ; Stabilize left extruder temperature,G130 X127 Y127 Z40 A127 B127 ; Default stepper Vrefs,G92 A0 B0 ; Zero extruders,M135 T1 ; Load left extruder offsets,G1 X-100 Y-65 F9000 ; Move to front left corner of bed,G1 Z0.3 F6000 ; Move down to purge,G1 X90 Y-65 E24 F2000 ; Extrude a line of filament across the front edge of the bed,G1 X100 Y-65 F180 ; Wait for ooze,G1 X110 Y-65 F5000 ; Fast wipe,G1 Z1 F100 ; Lift,G92 A0 B0 ; zero extruders,M73 P1 ;@body (notify GPX body has started),; **** end of start.gcode ****
;   layerChangeGcode,
;   retractionGcode,
;   toolChangeGcode,
;   endingGcode,; **** Replicator 2X end.gcode ****,M73 P100 ; end build progress,G1 Z155 F1000 ; send Z axis to bottom of machine,M140 S0 T0 ; cool down HBP,M104 S0 T0 ; cool down right extruder,M104 S0 T1 ; cool down left extruder,M127 ; stop blower fan,G162 X Y F3000 ; home XY maximum,M18 ; disable stepper,M72 P1 ; play Ta-Da song,; **** end of end.gcode ****
;   exportFileFormat,x3g
;   celebration,0
;   celebrationSong,Random Song
;   postProcessing,
;   defaultSpeed,6000
;   outlineUnderspeed,0.5
;   solidInfillUnderspeed,0.8
;   supportUnderspeed,0.8
;   rapidXYspeed,9000
;   rapidZspeed,1200
;   minBridgingArea,50
;   bridgingExtraInflation,0
;   bridgingExtrusionMultiplier,1
;   bridgingSpeedMultiplier,0.8
;   useFixedBridgingAngle,0
;   fixedBridgingAngle,0
;   applyBridgingToPerimeters,0
;   filamentDiameters,1.75|1.75|1.75|1.75|1.75|1.75
;   filamentPricesPerKg,16|16|16|16|16|16
;   filamentDensities,1.25|1.25|1.25|1.25|1.25|1.25
;   useMinPrintHeight,0
;   minPrintHeight,19.9
;   useMaxPrintHeight,0
;   maxPrintHeight,18.92
;   useDiaphragm,0
;   diaphragmLayerInterval,20
;   robustSlicing,1
;   mergeAllIntoSolid,0
;   onlyRetractWhenCrossingOutline,1
;   retractBetweenLayers,1
;   useRetractionMinTravel,0
;   retractionMinTravel,3
;   retractWhileWiping,0
;   onlyWipeOutlines,1
;   avoidCrossingOutline,0
;   maxMovementDetourFactor,3
;   toolChangeRetractionDistance,12
;   toolChangeExtraRestartDistance,-0.5
;   toolChangeRetractionSpeed,600
;   externalThinWallType,1
;   internalThinWallType,1
;   thinWallAllowedOverlapPercentage,30
;   singleExtrusionMinLength,0.2
;   singleExtrusionMinPrintingWidthPercentage,50
;   singleExtrusionMaxPrintingWidthPercentage,200
;   singleExtrusionEndpointExtension,0.2
;   horizontalSizeCompensation,0
G90
M83
; **** Replicator 2X start.gcode ****
M73 P0 ; Enable build progress
G162 X Y F3000 ; Home XY maximum
G161 Z F1200 ; Home Z minimum
G92 Z-5 ; Set Z to -5
G1 Z0 ; Move Z to 0
G161 Z F100 ; Home Z slowly
M132 X Y Z A B ; Recall home offsets
M135 T0 ; Load right extruder offsets
G1 X-130 Y-75 Z30 F9000 ; Move to wait position off table
G130 X20 Y20 Z20 A20 B20 ; Lower stepper Vrefs while heating
M127 ; Set fan speed
M140 S100 T0 ; Heat buildplate
M134 T0 ; Stabilize bed temperature
M104 S230 T1 ; Heat left extruder
M133 T1 ; Stabilize left extruder temperature
G130 X127 Y127 Z40 A127 B127 ; Default stepper Vrefs
G92 A0 B0 ; Zero extruders
M135 T1 ; Load left extruder offsets
G1 X-100 Y-65 F9000 ; Move to front left corner of bed
G1 Z0.3 F6000 ; Move down to purge
G1 X90 Y-65 E24 F2000 ; Extrude a line of filament across the front edge of the bed
G1 X100 Y-65 F180 ; Wait for ooze
G1 X110 Y-65 F5000 ; Fast wipe
G1 Z1 F100 ; Lift
G92 A0 B0 ; zero extruders
M73 P1 ;@body (notify GPX body has started)
; **** end of start.gcode ****
G1 E-0.7500 F1200
G1 Z0.200 F1200
; process Normal ABS-1
; layer 1, Z = 0.200
M135 T1
; tool H0.200 W0.400
; skirt
G1 X-97.121 Y4.269 F9000
G1 E0.7500 F360
G1 X-97.342 Y4.178 E0.0079 F2400
G1 X-99.854 Y1.666 E0.1170
G1 X-99.945 Y1.445 E0.0079
G1 X-99.945 Y-52.907 E1.7897
G1 X-99.854 Y-53.127 E0.0079
G1 X-97.342 Y-55.639 E0.1170
G1 X-97.121 Y-55.731 E0.0079
G1 X100.581 Y-55.731 E6.5099
G1 X100.802 Y-55.639 E0.0079
G1 X103.314 Y-53.127 E0.1170
G1 X103.405 Y-52.907 E0.0079
G1 X103.405 Y1.445 E1.7897
G1 X103.314 Y1.666 E0.0079
G1 X100.802 Y4.178 E0.1170
G1 X100.581 Y4.269 E0.0079
G1 X-97.121 Y4.269 E6.5099
G1 X-97.042 Y3.869 F9000
G1 X-97.115 Y3.839 E0.0026 F2400
G1 X-99.515 Y1.439 E0.1117
G1 X-99.545 Y1.366 E0.0026
G1 X-99.545 Y-52.827 E1.7845
G1 X-99.515 Y-52.901 E0.0026
G1 X-97.115 Y-55.300 E0.1117
G1 X-97.042 Y-55.331 E0.0026
G1 X100.501 Y-55.331 E6.5046
G1 X100.575 Y-55.300 E0.0026
G1 X102.974 Y-52.901 E0.1117
G1 X103.005 Y-52.827 E0.0026
G1 X103.005 Y1.366 E1.7845
G1 X102.974 Y1.439 E0.0026
G1 X100.575 Y3.839 E0.1117
G1 X100.501 Y3.869 E0.0026
G1 X-97.042 Y3.869 E6.5046
G1 E-0.7500 F1200
; inner perimeter
G1 X-94.745 Y-0.931 F9000
G1 E0.7500 F1200
G1 X-94.745 Y-50.531 E1.6332 F1800
G1 X98.205 Y-50.531 E6.3534
G1 X98.205 Y-0.931 E1.6332
G1 X-94.745 Y-0.931 E6.3534
; outer perimeter
G1 X-95.145 Y-0.531 F9000
G1 X-95.145 Y-50.931 E1.6595 F1200
G1 X98.605 Y-50.931 E6.3797
G1 X98.605 Y-0.531 E1.6595
G1 X-95.145 Y-0.531 E6.3797
; solid layer
G1 X-94.281 Y-1.251 F9000
G1 X-94.425 Y-1.395 E0.0067 F1920
G1 X-94.425 Y-1.960 E0.0186
G1 X-93.715 Y-1.251 E0.0330
G1 X-93.150 Y-1.251 E0.0186
G1 X-94.425 Y-2.526 E0.0594
G1 X-94.425 Y-3.092 E0.0186
G1 X-92.584 Y-1.251 E0.0857
G1 X-92.018 Y-1.251 E0.0186
G1 X-94.425 Y-3.658 E0.1121
G1 X-94.425 Y-4.223 E0.0186
G1 X-91.453 Y-1.251 E0.1384
G1 X-90.887 Y-1.251 E0.0186
G1 X-94.425 Y-4.789 E0.1648
G1 X-94.425 Y-5.355 E0.0186
G1 X-90.321 Y-1.251 E0.1911
G1 X-89.756 Y-1.251 E0.0186
G1 X-94.425 Y-5.920 E0.2174
G1 X-94.425 Y-6.486 E0.0186
G1 X-89.190 Y-1.251 E0.2438
G1 X-88.624 Y-1.251 E0.0186
G1 X-94.425 Y-7.052 E0.2701
G1 X-94.425 Y-7.617 E0.0186
G1 X-88.059 Y-1.251 E0.2965
G1 X-87.493 Y-1.251 E0.0186
G1 X-94.425 Y-8.183 E0.3228
G1 X-94.425 Y-8.749 E0.0186
G1 X-86.927 Y-1.251 E0.3492
G1 X-86.362 Y-1.251 E0.0186
G1 X-94.425 Y-9.314 E0.3755
G1 X-94.425 Y-9.880 E0.0186
G1 X-85.796 Y-1.251 E0.4018
G1 X-85.230 Y-1.251 E0.0186
G1 X-94.425 Y-10.446 E0.4282
G1 X-94.425 Y-11.011 E0.0186
G1 X-84.664 Y-1.251 E0.4545
G1 X-84.099 Y-1.251 E0.0186
G1 X-94.425 Y-11.577 E0.4809
G1 X-94.425 Y-12.143 E0.0186
G1 X-83.533 Y-1.251 E0.5072
G1 X-82.967 Y-1.251 E0.0186
G1 X-94.425 Y-12.708 E0.5335
G1 X-94.425 Y-13.274 E0.0186
G1 X-82.402 Y-1.251 E0.5599
G1 X-81.836 Y-1.251 E0.0186
G1 X-94.425 Y-13.840 E0.5862
G1 X-94.425 Y-14.406 E0.0186
G1 X-81.270 Y-1.251 E0.6126
G1 X-80.705 Y-1.251 E0.0186
G1 X-94.425 Y-14.971 E0.6389
G1 X-94.425 Y-15.537 E0.0186
G1 X-80.139 Y-1.251 E0.6653
G1 X-79.573 Y-1.251 E0.0186
G1 X-94.425 Y-16.103 E0.6916
G1 X-94.425 Y-16.668 E0.0186
G1 X-79.008 Y-1.251 E0.7179
G1 X-78.442 Y-1.251 E0.0186
G1 X-94.425 Y-17.234 E0.7443
G1 X-94.425 Y-17.800 E0.0186
G1 X-77.876 Y-1.251 E0.7706
G1 X-77.311 Y-1.251 E0.0186
G1 X-94.425 Y-18.365 E0.7970
G1 X-94.425 Y-18.931 E0.0186
G1 X-76.745 Y-1.251 E0.8233
G1 X-76.179 Y-1.251 E0.0186
G1 X-94.425 Y-19.497 E0.8497
G1 X-94.425 Y-20.062 E0.0186
G1 X-75.614 Y-1.251 E0.8760
G1 X-75.048 Y-1.251 E0.0186
G1 X-94.425 Y-20.628 E0.9023
G1 X-94.425 Y-21.194 E0.0186
G1 X-74.482 Y-1.251 E0.9287
G1 X-73.916 Y-1.251 E0.0186
G1 X-94.425 Y-21.759 E0.9550
G1 X-94.425 Y-22.325 E0.0186
G1 X-73.351 Y-1.251 E0.9814
G1 X-72.785 Y-1.251 E0.0186
G1 X-94.425 Y-22.891 E1.0077
G1 X-94.425 Y-23.457 E0.0186
G1 X-72.219 Y-1.251 E1.0340
G1 X-71.654 Y-1.251 E0.0186
G1 X-94.425 Y-24.022 E1.0604
G1 X-94.425 Y-24.588 E0.0186
G1 X-71.088 Y-1.251 E1.0867
G1 X-70.522 Y-1.251 E0.0186
G1 X-94.425 Y-25.154 E1.1131
G1 X-94.425 Y-25.719 E0.0186
G1 X-69.957 Y-1.251 E1.1394
G1 X-69.391 Y-1.251 E0.0186
G1 X-94.425 Y-26.285 E1.1658
G1 X-94.425 Y-26.851 E0.0186
G1 X-68.825 Y-1.251 E1.1921
G1 X-68.260 Y-1.251 E0.0186
G1 X-94.425 Y-27.416 E1.2184
G1 X-94.425 Y-27.982 E0.0186
G1 X-67.694 Y-1.251 E1.2448
G1 X-67.128 Y-1.251 E0.0186
G1 X-94.425 Y-28.548 E1.2711
G1 X-94.425 Y-29.113 E0.0186
G1 X-66.563 Y-1.251 E1.2975
G1 X-65.997 Y-1.251 E0.0186
G1 X-94.425 Y-29.679 E1.3238
G1 X-94.425 Y-30.245 E0.0186
G1 X-65.431 Y-1.251 E1.3501
G1 X-64.865 Y-1.251 E0.0186
G1 X-94.425 Y-30.810 E1.3765
G1 X-94.425 Y-31.376 E0.0186
G1 X-64.300 Y-1.251 E1.4028
G1 X-63.734 Y-1.251 E0.0186
G1 X-94.425 Y-31.942 E1.4292
G1 X-94.425 Y-32.507 E0.0186
G1 X-63.168 Y-1.251 E1.4555
G1 X-62.603 Y-1.251 E0.0186
G1 X-94.425 Y-33.073 E1.4819
G1 X-94.425 Y-33.639 E0.0186
G1 X-62.037 Y-1.251 E1.5082
G1 X-61.471 Y-1.251 E0.0186
G1 X-94.425 Y-34.205 E1.5345
G1 X-94.425 Y-34.770 E0.0186
G1 X-60.906 Y-1.251 E1.5609
G1 X-60.340 Y-1.251 E0.0186
G1 X-94.425 Y-35.336 E1.5872
G1 X-94.425 Y-35.902 E0.0186
G1 X-59.774 Y-1.251 E1.6136
G1 X-59.209 Y-1.251 E0.0186
G1 X-94.425 Y-36.467 E1.6399
G1 X-94.425 Y-37.033 E0.0186
G1 X-58.643 Y-1.251 E1.6663
G1 X-58.077 Y-1.251 E0.0186
G1 X-94.425 Y-37.599 E1.6926
G1 X-94.425 Y-38.164 E0.0186
G1 X-57.512 Y-1.251 E1.7189
G1 X-56.946 Y-1.251 E0.0186
G1 X-94.425 Y-38.730 E1.7453
G1 X-94.425 Y-39.296 E0.0186
G1 X-56.380 Y-1.251 E1.7716
G1 X-55.815 Y-1.251 E0.0186
G1 X-94.425 Y-39.861 E1.7980
G1 X-94.425 Y-40.427 E0.0186
G1 X-55.249 Y-1.251 E1.8243
G1 X-54.683 Y-1.251 E0.0186
G1 X-94.425 Y-40.993 E1.8506
G1 X-94.425 Y-41.558 E0.0186
G1 X-54.117 Y-1.251 E1.8770
G1 X-53.552 Y-1.251 E0.0186
G1 X-94.425 Y-42.124 E1.9033
G1 X-94.425 Y-42.690 E0.0186
G1 X-52.986 Y-1.251 E1.9297
G1 X-52.420 Y-1.251 E0.0186
G1 X-94.425 Y-43.256 E1.9560
G1 X-94.425 Y-43.821 E0.0186
G1 X-51.855 Y-1.251 E1.9824
G1 X-51.289 Y-1.251 E0.0186
G1 X-94.425 Y-44.387 E2.0087
G1 X-94.425 Y-44.953 E0.0186
G1 X-50.723 Y-1.251 E2.0350
G1 X-50.158 Y-1.251 E0.0186
G1 X-94.425 Y-45.518 E2.0614
G1 X-94.425 Y-46.084 E0.0186
G1 X-49.592 Y-1.251 E2.0877
G1 X-49.026 Y-1.251 E0.0186
G1 X-94.425 Y-46.650 E2.1141
G1 X-94.425 Y-47.215 E0.0186
G1 X-48.461 Y-1.251 E2.1404
G1 X-47.895 Y-1.251 E0.0186
G1 X-94.425 Y-47.781 E2.1668
G1 X-94.425 Y-48.347 E0.0186
G1 X-47.329 Y-1.251 E2.1931
G1 X-46.764 Y-1.251 E0.0186
G1 X-94.425 Y-48.912 E2.2194
G1 X-94.425 Y-49.478 E0.0186
G1 X-46.198 Y-1.251 E2.2458
G1 X-45.632 Y-1.251 E0.0186
G1 X-94.425 Y-50.044 E2.2721
G1 X-94.425 Y-50.211 E0.0055
G1 X-94.026 Y-50.211 E0.0131
G1 X-45.066 Y-1.251 E2.2799
G1 X-44.501 Y-1.251 E0.0186
G1 X-93.461 Y-50.211 E2.2799
G1 X-92.895 Y-50.211 E0.0186
G1 X-43.935 Y-1.251 E2.2799
G1 X-43.369 Y-1.251 E0.0186
G1 X-92.329 Y-50.211 E2.2799
G1 X-91.764 Y-50.211 E0.0186
G1 X-42.804 Y-1.251 E2.2799
G1 X-42.238 Y-1.251 E0.0186
G1 X-91.198 Y-50.211 E2.2799
G1 X-90.632 Y-50.211 E0.0186
G1 X-41.672 Y-1.251 E2.2799
G1 X-41.107 Y-1.251 E0.0186
G1 X-90.067 Y-50.211 E2.2799
G1 X-89.501 Y-50.211 E0.0186
G1 X-40.541 Y-1.251 E2.2799
G1 X-39.975 Y-1.251 E0.0186
G1 X-88.935 Y-50.211 E2.2799
G1 X-88.370 Y-50.211 E0.0186
G1 X-39.410 Y-1.251 E2.2799
G1 X-38.844 Y-1.251 E0.0186
G1 X-87.804 Y-50.211 E2.2799
G1 X-87.238 Y-50.211 E0.0186
G1 X-38.278 Y-1.251 E2.2799
G1 X-37.713 Y-1.251 E0.0186
G1 X-86.673 Y-50.211 E2.2799
G1 X-86.107 Y-50.211 E0.0186
G1 X-37.147 Y-1.251 E2.2799
G1 X-36.581 Y-1.251 E0.0186
G1 X-85.541 Y-50.211 E2.2799
G1 X-84.976 Y-50.211 E0.0186
G1 X-36.016 Y-1.251 E2.2799
G1 X-35.450 Y-1.251 E0.0186
G1 X-84.410 Y-50.211 E2.2799
G1 X-83.844 Y-50.211 E0.0186
G1 X-34.884 Y-1.251 E2.2799
G1 X-34.318 Y-1.251 E0.0186
G1 X-83.278 Y-50.211 E2.2799
G1 X-82.713 Y-50.211 E0.0186
G1 X-33.753 Y-1.251 E2.2799
G1 X-33.187 Y-1.251 E0.0186
G1 X-82.147 Y-50.211 E2.2799
G1 X-81.581 Y-50.211 E0.0186
G1 X-32.621 Y-1.251 E2.2799
G1 X-32.056 Y-1.251 E0.0186
G1 X-81.016 Y-50.211 E2.2799
G1 X-80.450 Y-50.211 E0.0186
G1 X-31.490 Y-1.251 E2.2799
G1 X-30.924 Y-1.251 E0.0186
G1 X-79.884 Y-50.211 E2.2799
G1 X-79.319 Y-50.211 E0.0186
G1 X-30.359 Y-1.251 E2.2799
G1 X-29.793 Y-1.251 E0.0186
