; G-Code generated by Simplify3D(R) Version 4.0.0
; Feb 11, 2018 at 1:36:57 PM
; Settings Summary
;   processName,Normal ABS-1
;   applyToModels,SnapPhoneHolderTetrixSpacing
;   profileName,MakerBot Replicator 2X (modified)
;   profileVersion,2015-05-01 08:00:00
;   baseProfile,
;   printMaterial,ABS
;   printQuality,Medium
;   printExtruders,Left Extruder Only
;   extruderName,Left Extruder
;   extruderToolheadNumber,1
;   extruderDiameter,0.4
;   extruderAutoWidth,0
;   extruderWidth,0.4
;   extrusionMultiplier,1
;   extruderUseRetract,1
;   extruderRetractionDistance,0.75
;   extruderExtraRestartDistance,0
;   extruderRetractionZLift,0
;   extruderRetractionSpeed,1200
;   extruderUseCoasting,0
;   extruderCoastingDistance,0.2
;   extruderUseWipe,0
;   extruderWipeDistance,5
;   primaryExtruder,0
;   layerHeight,0.2
;   topSolidLayers,4
;   bottomSolidLayers,4
;   perimeterOutlines,2
;   printPerimetersInsideOut,1
;   startPointOption,2
;   startPointOriginX,0
;   startPointOriginY,0
;   sequentialIslands,0
;   spiralVaseMode,0
;   firstLayerHeightPercentage,100
;   firstLayerWidthPercentage,100
;   firstLayerUnderspeed,0.33
;   useRaft,0
;   raftExtruder,0
;   raftTopLayers,3
;   raftBaseLayers,2
;   raftOffset,3
;   raftSeparationDistance,0.14
;   raftTopInfill,100
;   aboveRaftSpeedMultiplier,0.3
;   useSkirt,1
;   skirtExtruder,0
;   skirtLayers,1
;   skirtOutlines,2
;   skirtOffset,4
;   usePrimePillar,0
;   primePillarExtruder,999
;   primePillarWidth,12
;   primePillarLocation,7
;   primePillarSpeedMultiplier,1
;   useOozeShield,0
;   oozeShieldExtruder,999
;   oozeShieldOffset,2
;   oozeShieldOutlines,1
;   oozeShieldSidewallShape,1
;   oozeShieldSidewallAngle,30
;   oozeShieldSpeedMultiplier,1
;   infillExtruder,0
;   internalInfillPattern,Rectilinear
;   externalInfillPattern,Rectilinear
;   infillPercentage,20
;   outlineOverlapPercentage,20
;   infillExtrusionWidthPercentage,100
;   minInfillLength,5
;   infillLayerInterval,1
;   internalInfillAngles,45,-45
;   overlapInternalInfillAngles,0
;   externalInfillAngles,45,-45
;   generateSupport,1
;   supportExtruder,0
;   supportInfillPercentage,30
;   supportExtraInflation,2
;   supportBaseLayers,2
;   denseSupportExtruder,0
;   denseSupportLayers,0
;   denseSupportInfillPercentage,70
;   supportLayerInterval,1
;   supportHorizontalPartOffset,0.3
;   supportUpperSeparationLayers,1
;   supportLowerSeparationLayers,1
;   supportType,0
;   supportGridSpacing,2
;   maxOverhangAngle,45
;   supportAngles,0
;   temperatureName,Right Extruder,Left Extruder,Heated Build Platform
;   temperatureNumber,0,1,0
;   temperatureSetpointCount,1,1,3
;   temperatureSetpointLayers,1,1,1,1,3
;   temperatureSetpointTemperatures,0,230,100,95,90
;   temperatureStabilizeAtStartup,0,0,1
;   temperatureHeatedBed,0,0,1
;   temperatureRelayBetweenLayers,0,0,0
;   temperatureRelayBetweenLoops,0,0,0
;   fanLayers,1
;   fanSpeeds,0
;   blipFanToFullPower,0
;   adjustSpeedForCooling,1
;   minSpeedLayerTime,15
;   minCoolingSpeedSlowdown,20
;   increaseFanForCooling,0
;   minFanLayerTime,45
;   maxCoolingFanSpeed,100
;   increaseFanForBridging,0
;   bridgingFanSpeed,100
;   use5D,1
;   relativeEdistances,1
;   allowEaxisZeroing,0
;   independentExtruderAxes,1
;   includeM10123,0
;   stickySupport,1
;   applyToolheadOffsets,0
;   gcodeXoffset,0
;   gcodeYoffset,0
;   gcodeZoffset,0
;   overrideMachineDefinition,1
;   machineTypeOverride,0
;   strokeXoverride,250
;   strokeYoverride,150
;   strokeZoverride,150
;   originOffsetXoverride,125
;   originOffsetYoverride,75
;   originOffsetZoverride,0
;   homeXdirOverride,1
;   homeYdirOverride,1
;   homeZdirOverride,-1
;   flipXoverride,1
;   flipYoverride,-1
;   flipZoverride,1
;   toolheadOffsets,0,0|33,0|0,0|0,0|0,0|0,0
;   overrideFirmwareConfiguration,1
;   firmwareTypeOverride,MakerBot/Sailfish Firmware
;   GPXconfigOverride,r2x
;   baudRateOverride,115200
;   overridePrinterModels,1
;   printerModelsOverride,MakerBot_Replicator2X.stl
;   startingGcode,; **** Replicator 2X start.gcode ****,M73 P0 ; Enable build progress,G162 X Y F3000 ; Home XY maximum,G161 Z F1200 ; Home Z minimum,G92 Z-5 ; Set Z to -5,G1 Z0 ; Move Z to 0,G161 Z F100 ; Home Z slowly,M132 X Y Z A B ; Recall home offsets,M135 T0 ; Load right extruder offsets,G1 X-130 Y-75 Z30 F9000 ; Move to wait position off table,G130 X20 Y20 Z20 A20 B20 ; Lower stepper Vrefs while heating,M126 S[fan_speed_pwm] ; Set fan speed,M140 S[bed0_temperature] T0 ; Heat buildplate,M134 T0 ; Stabilize bed temperature,M104 S[extruder1_temperature] T1 ; Heat left extruder,M133 T1 ; Stabilize left extruder temperature,G130 X127 Y127 Z40 A127 B127 ; Default stepper Vrefs,G92 A0 B0 ; Zero extruders,M135 T1 ; Load left extruder offsets,G1 X-100 Y-65 F9000 ; Move to front left corner of bed,G1 Z0.3 F6000 ; Move down to purge,G1 X90 Y-65 E24 F2000 ; Extrude a line of filament across the front edge of the bed,G1 X100 Y-65 F180 ; Wait for ooze,G1 X110 Y-65 F5000 ; Fast wipe,G1 Z1 F100 ; Lift,G92 A0 B0 ; zero extruders,M73 P1 ;@body (notify GPX body has started),; **** end of start.gcode ****
;   layerChangeGcode,
;   retractionGcode,
;   toolChangeGcode,
;   endingGcode,; **** Replicator 2X end.gcode ****,M73 P100 ; end build progress,G1 Z155 F1000 ; send Z axis to bottom of machine,M140 S0 T0 ; cool down HBP,M104 S0 T0 ; cool down right extruder,M104 S0 T1 ; cool down left extruder,M127 ; stop blower fan,G162 X Y F3000 ; home XY maximum,M18 ; disable stepper,M72 P1 ; play Ta-Da song,; **** end of end.gcode ****
;   exportFileFormat,x3g
;   celebration,0
;   celebrationSong,Random Song
;   postProcessing,
;   defaultSpeed,6000
;   outlineUnderspeed,0.5
;   solidInfillUnderspeed,0.8
;   supportUnderspeed,0.8
;   rapidXYspeed,9000
;   rapidZspeed,1200
;   minBridgingArea,50
;   bridgingExtraInflation,0
;   bridgingExtrusionMultiplier,1
;   bridgingSpeedMultiplier,0.8
;   useFixedBridgingAngle,0
;   fixedBridgingAngle,0
;   applyBridgingToPerimeters,0
;   filamentDiameters,1.75|1.75|1.75|1.75|1.75|1.75
;   filamentPricesPerKg,16|16|16|16|16|16
;   filamentDensities,1.25|1.25|1.25|1.25|1.25|1.25
;   useMinPrintHeight,0
;   minPrintHeight,19.9
;   useMaxPrintHeight,0
;   maxPrintHeight,60.28
;   useDiaphragm,1
;   diaphragmLayerInterval,25
;   robustSlicing,1
;   mergeAllIntoSolid,0
;   onlyRetractWhenCrossingOutline,1
;   retractBetweenLayers,1
;   useRetractionMinTravel,0
;   retractionMinTravel,3
;   retractWhileWiping,0
;   onlyWipeOutlines,1
;   avoidCrossingOutline,0
;   maxMovementDetourFactor,3
;   toolChangeRetractionDistance,12
;   toolChangeExtraRestartDistance,-0.5
;   toolChangeRetractionSpeed,600
;   externalThinWallType,1
;   internalThinWallType,1
;   thinWallAllowedOverlapPercentage,30
;   singleExtrusionMinLength,0.2
;   singleExtrusionMinPrintingWidthPercentage,50
;   singleExtrusionMaxPrintingWidthPercentage,200
;   singleExtrusionEndpointExtension,0.2
;   horizontalSizeCompensation,0
G90
M83
; **** Replicator 2X start.gcode ****
M73 P0 ; Enable build progress
G162 X Y F3000 ; Home XY maximum
G161 Z F1200 ; Home Z minimum
G92 Z-5 ; Set Z to -5
G1 Z0 ; Move Z to 0
G161 Z F100 ; Home Z slowly
M132 X Y Z A B ; Recall home offsets
M135 T0 ; Load right extruder offsets
G1 X-130 Y-75 Z30 F9000 ; Move to wait position off table
G130 X20 Y20 Z20 A20 B20 ; Lower stepper Vrefs while heating
M127 ; Set fan speed
M140 S100 T0 ; Heat buildplate
M134 T0 ; Stabilize bed temperature
M104 S230 T1 ; Heat left extruder
M133 T1 ; Stabilize left extruder temperature
G130 X127 Y127 Z40 A127 B127 ; Default stepper Vrefs
G92 A0 B0 ; Zero extruders
M135 T1 ; Load left extruder offsets
G1 X-100 Y-65 F9000 ; Move to front left corner of bed
G1 Z0.3 F6000 ; Move down to purge
G1 X90 Y-65 E24 F2000 ; Extrude a line of filament across the front edge of the bed
G1 X100 Y-65 F180 ; Wait for ooze
G1 X110 Y-65 F5000 ; Fast wipe
G1 Z1 F100 ; Lift
G92 A0 B0 ; zero extruders
M73 P1 ;@body (notify GPX body has started)
; **** end of start.gcode ****
G1 E-0.7500 F1200
G1 Z0.200 F1200
; process Normal ABS-1
; layer 1, Z = 0.200
M135 T1
; tool H0.200 W0.400
; skirt
G1 X74.761 Y13.454 F9000
G1 E0.7500 F360
G1 X74.761 Y29.630 E0.5380 F1980
G1 X74.670 Y29.851 E0.0079
G1 X72.158 Y32.363 E0.1182
G1 X71.938 Y32.454 E0.0079
G1 X-79.866 Y32.454 E5.0490
G1 X-79.869 Y32.454 E0.0001
G1 X-79.924 Y32.453 E0.0018
G1 X-79.927 Y32.453 E0.0001
G1 X-80.981 Y32.427 E0.0351
G1 X-81.002 Y32.426 E0.0007
G1 X-81.299 Y32.397 E0.0099
G1 X-81.320 Y32.395 E0.0007
G1 X-82.578 Y32.187 E0.0424
G1 X-82.603 Y32.181 E0.0008
G1 X-82.947 Y32.095 E0.0118
G1 X-82.971 Y32.088 E0.0008
G1 X-83.745 Y31.823 E0.0272
G1 X-83.762 Y31.817 E0.0006
G1 X-84.007 Y31.715 E0.0088
G1 X-84.024 Y31.708 E0.0006
G1 X-84.716 Y31.371 E0.0256
G1 X-84.732 Y31.363 E0.0006
G1 X-84.961 Y31.234 E0.0087
G1 X-84.977 Y31.224 E0.0006
G1 X-85.622 Y30.806 E0.0256
G1 X-85.636 Y30.796 E0.0006
G1 X-85.839 Y30.647 E0.0084
G1 X-85.853 Y30.637 E0.0006
G1 X-86.456 Y30.137 E0.0260
G1 X-86.469 Y30.125 E0.0006
G1 X-86.655 Y29.951 E0.0085
G1 X-86.668 Y29.939 E0.0006
G1 X-87.243 Y29.334 E0.0278
G1 X-87.256 Y29.319 E0.0006
G1 X-87.434 Y29.106 E0.0092
G1 X-87.446 Y29.091 E0.0006
G1 X-87.975 Y28.368 E0.0298
G1 X-87.987 Y28.350 E0.0007
G1 X-88.150 Y28.090 E0.0102
G1 X-88.161 Y28.071 E0.0007
G1 X-88.599 Y27.247 E0.0311
G1 X-88.609 Y27.227 E0.0007
G1 X-88.735 Y26.941 E0.0104
G1 X-88.743 Y26.921 E0.0007
G1 X-89.034 Y26.108 E0.0287
G1 X-89.039 Y26.090 E0.0006
G1 X-89.115 Y25.825 E0.0092
G1 X-89.120 Y25.806 E0.0006
G1 X-89.281 Y25.072 E0.0250
G1 X-89.284 Y25.057 E0.0005
G1 X-89.319 Y24.843 E0.0072
G1 X-89.321 Y24.828 E0.0005
G1 X-89.397 Y24.165 E0.0222
G1 X-89.399 Y24.151 E0.0004
G1 X-89.412 Y23.960 E0.0064
G1 X-89.413 Y23.947 E0.0004
G1 X-89.438 Y22.943 E0.0334
G1 X-89.438 Y22.939 E0.0001
G1 X-89.439 Y22.885 E0.0018
G1 X-89.439 Y22.881 E0.0001
G1 X-89.439 Y-49.173 E2.3965
G1 X-89.439 Y-49.177 E0.0001
G1 X-89.438 Y-49.231 E0.0018
G1 X-89.438 Y-49.235 E0.0001
G1 X-89.411 Y-50.289 E0.0351
G1 X-89.410 Y-50.309 E0.0007
G1 X-89.382 Y-50.607 E0.0099
G1 X-89.379 Y-50.627 E0.0007
G1 X-89.171 Y-51.885 E0.0424
G1 X-89.166 Y-51.910 E0.0008
G1 X-89.079 Y-52.255 E0.0118
G1 X-89.072 Y-52.278 E0.0008
G1 X-88.808 Y-53.052 E0.0272
G1 X-88.801 Y-53.069 E0.0006
G1 X-88.700 Y-53.315 E0.0088
G1 X-88.692 Y-53.331 E0.0006
G1 X-88.356 Y-54.023 E0.0256
G1 X-88.347 Y-54.039 E0.0006
G1 X-88.218 Y-54.268 E0.0087
G1 X-88.209 Y-54.284 E0.0006
G1 X-87.791 Y-54.929 E0.0256
G1 X-87.781 Y-54.943 E0.0006
G1 X-87.632 Y-55.146 E0.0084
G1 X-87.621 Y-55.160 E0.0006
G1 X-87.121 Y-55.763 E0.0260
G1 X-87.110 Y-55.776 E0.0006
G1 X-86.936 Y-55.962 E0.0085
G1 X-86.923 Y-55.975 E0.0006
G1 X-86.318 Y-56.551 E0.0278
G1 X-86.304 Y-56.563 E0.0006
G1 X-86.091 Y-56.741 E0.0092
G1 X-86.076 Y-56.753 E0.0006
G1 X-85.352 Y-57.282 E0.0298
G1 X-85.335 Y-57.294 E0.0007
G1 X-85.074 Y-57.457 E0.0102
G1 X-85.056 Y-57.468 E0.0007
G1 X-84.231 Y-57.906 E0.0311
G1 X-84.212 Y-57.916 E0.0007
G1 X-83.926 Y-58.042 E0.0104
G1 X-83.905 Y-58.050 E0.0007
G1 X-83.092 Y-58.341 E0.0287
G1 X-83.074 Y-58.347 E0.0006
G1 X-82.809 Y-58.422 E0.0092
G1 X-82.791 Y-58.427 E0.0006
G1 X-82.056 Y-58.588 E0.0250
G1 X-82.041 Y-58.591 E0.0005
G1 X-81.827 Y-58.626 E0.0072
G1 X-81.812 Y-58.628 E0.0005
G1 X-81.149 Y-58.704 E0.0222
G1 X-81.136 Y-58.706 E0.0004
G1 X-80.945 Y-58.719 E0.0064
G1 X-80.931 Y-58.720 E0.0004
G1 X-79.928 Y-58.745 E0.0334
G1 X-79.924 Y-58.745 E0.0001
G1 X-79.870 Y-58.746 E0.0018
G1 X-79.866 Y-58.746 E0.0001
G1 X71.938 Y-58.746 E5.0490
G1 X72.158 Y-58.654 E0.0079
G1 X74.670 Y-56.143 E0.1182
G1 X74.761 Y-55.922 E0.0079
G1 X74.761 Y-39.746 E0.5380
G1 X86.938 Y-39.746 E0.4050
G1 X87.158 Y-39.654 E0.0079
G1 X89.670 Y-37.143 E0.1182
G1 X89.761 Y-36.922 E0.0079
G1 X89.761 Y10.630 E1.5816
G1 X89.670 Y10.851 E0.0079
G1 X87.158 Y13.363 E0.1182
G1 X86.938 Y13.454 E0.0079
G1 X74.761 Y13.454 E0.4050
G1 X74.361 Y13.054 F9000
G1 X74.361 Y29.551 E0.5487 F1980
G1 X74.331 Y29.624 E0.0026
G1 X71.931 Y32.024 E0.1129
G1 X71.858 Y32.054 E0.0026
G1 X-79.864 Y32.054 E5.0463
G1 X-79.917 Y32.054 E0.0017
G1 X-80.964 Y32.027 E0.0348
G1 X-80.971 Y32.027 E0.0002
G1 X-81.255 Y32.000 E0.0095
G1 X-81.262 Y31.999 E0.0002
G1 X-82.505 Y31.793 E0.0419
G1 X-82.513 Y31.792 E0.0003
G1 X-82.842 Y31.709 E0.0113
G1 X-82.850 Y31.706 E0.0003
G1 X-83.609 Y31.447 E0.0267
G1 X-83.615 Y31.445 E0.0002
G1 X-83.849 Y31.348 E0.0084
G1 X-83.855 Y31.345 E0.0002
G1 X-84.535 Y31.014 E0.0252
G1 X-84.541 Y31.011 E0.0002
G1 X-84.759 Y30.888 E0.0083
G1 X-84.764 Y30.885 E0.0002
G1 X-85.399 Y30.474 E0.0252
G1 X-85.404 Y30.470 E0.0002
G1 X-85.597 Y30.328 E0.0080
G1 X-85.602 Y30.325 E0.0002
G1 X-86.196 Y29.833 E0.0257
G1 X-86.200 Y29.829 E0.0002
G1 X-86.378 Y29.663 E0.0081
G1 X-86.382 Y29.659 E0.0002
G1 X-86.949 Y29.063 E0.0274
G1 X-86.953 Y29.058 E0.0002
G1 X-87.123 Y28.855 E0.0088
G1 X-87.127 Y28.850 E0.0002
G1 X-87.648 Y28.137 E0.0293
G1 X-87.652 Y28.131 E0.0002
G1 X-87.807 Y27.883 E0.0097
G1 X-87.811 Y27.877 E0.0002
G1 X-88.242 Y27.066 E0.0306
G1 X-88.246 Y27.059 E0.0002
G1 X-88.366 Y26.786 E0.0099
G1 X-88.369 Y26.779 E0.0002
G1 X-88.655 Y25.979 E0.0283
G1 X-88.657 Y25.973 E0.0002
G1 X-88.729 Y25.721 E0.0087
G1 X-88.731 Y25.715 E0.0002
G1 X-88.889 Y24.991 E0.0246
G1 X-88.890 Y24.986 E0.0002
G1 X-88.924 Y24.782 E0.0069
G1 X-88.924 Y24.777 E0.0002
G1 X-88.999 Y24.123 E0.0219
G1 X-89.000 Y24.119 E0.0001
G1 X-89.013 Y23.937 E0.0061
G1 X-89.013 Y23.932 E0.0001
G1 X-89.038 Y22.934 E0.0332
G1 X-89.039 Y22.881 E0.0017
G1 X-89.039 Y-49.172 E2.3964
G1 X-89.038 Y-49.225 E0.0017
G1 X-89.012 Y-50.272 E0.0348
G1 X-89.011 Y-50.278 E0.0002
G1 X-88.984 Y-50.562 E0.0095
G1 X-88.983 Y-50.569 E0.0002
G1 X-88.778 Y-51.812 E0.0419
G1 X-88.776 Y-51.820 E0.0003
G1 X-88.693 Y-52.149 E0.0113
G1 X-88.691 Y-52.157 E0.0003
G1 X-88.431 Y-52.916 E0.0267
G1 X-88.429 Y-52.922 E0.0002
G1 X-88.332 Y-53.156 E0.0084
G1 X-88.330 Y-53.162 E0.0002
G1 X-87.999 Y-53.843 E0.0252
G1 X-87.996 Y-53.848 E0.0002
G1 X-87.873 Y-54.066 E0.0083
G1 X-87.870 Y-54.071 E0.0002
G1 X-87.458 Y-54.706 E0.0252
G1 X-87.455 Y-54.711 E0.0002
G1 X-87.313 Y-54.904 E0.0080
G1 X-87.309 Y-54.909 E0.0002
G1 X-86.817 Y-55.503 E0.0257
G1 X-86.813 Y-55.507 E0.0002
G1 X-86.647 Y-55.685 E0.0081
G1 X-86.643 Y-55.689 E0.0002
G1 X-86.047 Y-56.256 E0.0274
G1 X-86.042 Y-56.261 E0.0002
G1 X-85.839 Y-56.430 E0.0088
G1 X-85.834 Y-56.434 E0.0002
G1 X-85.122 Y-56.955 E0.0293
G1 X-85.116 Y-56.959 E0.0002
G1 X-84.868 Y-57.114 E0.0097
G1 X-84.862 Y-57.118 E0.0002
G1 X-84.050 Y-57.550 E0.0306
G1 X-84.043 Y-57.553 E0.0002
G1 X-83.771 Y-57.673 E0.0099
G1 X-83.764 Y-57.676 E0.0002
G1 X-82.964 Y-57.962 E0.0283
G1 X-82.958 Y-57.964 E0.0002
G1 X-82.705 Y-58.036 E0.0087
G1 X-82.699 Y-58.038 E0.0002
G1 X-81.976 Y-58.196 E0.0246
G1 X-81.971 Y-58.197 E0.0002
G1 X-81.766 Y-58.231 E0.0069
G1 X-81.761 Y-58.232 E0.0002
G1 X-81.108 Y-58.307 E0.0219
G1 X-81.103 Y-58.307 E0.0001
G1 X-80.921 Y-58.320 E0.0061
G1 X-80.917 Y-58.320 E0.0001
G1 X-79.919 Y-58.345 E0.0332
G1 X-79.866 Y-58.346 E0.0017
G1 X71.858 Y-58.346 E5.0463
G1 X71.931 Y-58.315 E0.0026
G1 X74.331 Y-55.916 E0.1129
G1 X74.361 Y-55.842 E0.0026
G1 X74.361 Y-39.346 E0.5487
G1 X86.858 Y-39.346 E0.4156
G1 X86.931 Y-39.315 E0.0026
G1 X89.331 Y-36.916 E0.1129
G1 X89.361 Y-36.842 E0.0026
G1 X89.361 Y10.551 E1.5763
G1 X89.331 Y10.624 E0.0026
G1 X86.931 Y13.024 E0.1129
G1 X86.858 Y13.054 E0.0026
G1 X74.361 Y13.054 E0.4156
G1 E-0.7500 F1200
; inner perimeter
G1 X69.561 Y8.254 F9000
G1 E0.7500 F1200
G1 X69.561 Y27.254 E0.6319 F1485
G1 X-79.831 Y27.254 E4.9688
G1 X-80.660 Y27.233 E0.0276
G1 X-81.505 Y27.093 E0.0285
G1 X-81.902 Y26.958 E0.0140
G1 X-82.290 Y26.769 E0.0143
G1 X-82.659 Y26.530 E0.0146
G1 X-83.012 Y26.237 E0.0153
G1 X-83.353 Y25.878 E0.0165
G1 X-83.661 Y25.457 E0.0174
G1 X-83.914 Y24.983 E0.0179
G1 X-84.078 Y24.524 E0.0162
G1 X-84.171 Y24.097 E0.0145
G1 X-84.217 Y23.693 E0.0135
G1 X-84.239 Y22.847 E0.0282
G1 X-84.239 Y-49.138 E2.3942
G1 X-84.218 Y-49.967 E0.0276
G1 X-84.078 Y-50.812 E0.0285
G1 X-83.942 Y-51.209 E0.0140
G1 X-83.753 Y-51.597 E0.0143
