(4_Motor_Mounts)
(NeveRest motor mounts)
(Machine)
(  vendor: Carbide 3D)
(  model: 3)
(  description: Shapeoko)
(T2  D=3.175 CR=0 - ZMIN=-6.85 - flat end mill)
G90 G94
G17
G21
G28 G91 Z0
G90

(Small holes)
T2 M6
(2 Flute)
S18000 M3
G54
G0 X167.47 Y49.264
Z15
Z0.683
G1 Z-1 F300
X167.501 Y49.233
X167.517 Y49.237
X167.528 Y49.249
X167.532 Y49.264
G3 X167.407 Y49.264 I-0.063 J0
X167.532 Y49.264 I0.063 J0
G1 X167.528 Y49.28
X167.517 Y49.291
X167.501 Y49.295
X167.47 Y49.264
G0 Z5
Z-0.317
G1 Z-2 F300
X167.501 Y49.233
X167.517 Y49.237
X167.528 Y49.249
X167.532 Y49.264
G3 X167.407 Y49.264 I-0.063 J0
X167.532 Y49.264 I0.063 J0
G1 X167.528 Y49.28
X167.517 Y49.291
X167.501 Y49.295
X167.47 Y49.264
G0 Z5
Z-1.317
G1 Z-3 F300
X167.501 Y49.233
X167.517 Y49.237
X167.528 Y49.249
X167.532 Y49.264
G3 X167.407 Y49.264 I-0.063 J0
X167.532 Y49.264 I0.063 J0
G1 X167.528 Y49.28
X167.517 Y49.291
X167.501 Y49.295
X167.47 Y49.264
G0 Z5
Z-2.318
G1 Z-4 F300
X167.501 Y49.233
X167.517 Y49.237
X167.528 Y49.249
X167.532 Y49.264
G3 X167.407 Y49.264 I-0.063 J0
X167.532 Y49.264 I0.063 J0
G1 X167.528 Y49.28
X167.517 Y49.291
X167.501 Y49.295
X167.47 Y49.264
G0 Z5
Z-3.318
G1 Z-5 F300
X167.501 Y49.233
X167.517 Y49.237
X167.528 Y49.249
X167.532 Y49.264
G3 X167.407 Y49.264 I-0.063 J0
X167.532 Y49.264 I0.063 J0
G1 X167.528 Y49.28
X167.517 Y49.291
X167.501 Y49.295
X167.47 Y49.264
G0 Z5
Z-4.242
G1 Z-5.925 F300
X167.501 Y49.233
X167.517 Y49.237
X167.528 Y49.249
X167.532 Y49.264
G3 X167.407 Y49.264 I-0.063 J0
X167.532 Y49.264 I0.063 J0
G1 X167.528 Y49.28
X167.517 Y49.291
X167.501 Y49.295
X167.47 Y49.264
G0 Z5
Z-5.168
G1 Z-6.85 F300
X167.501 Y49.233
X167.517 Y49.237
X167.528 Y49.249
X167.532 Y49.264
G3 X167.407 Y49.264 I-0.063 J0
X167.532 Y49.264 I0.063 J0
G1 X167.528 Y49.28
X167.517 Y49.291
X167.501 Y49.295
X167.47 Y49.264
G0 Z5
X148.154 Y44.916
Z0.683
G1 Z-1 F300
X148.191 Y44.892
X148.206 Y44.9
X148.214 Y44.913
X148.215 Y44.929
G3 X148.093 Y44.902 I-0.061 J-0.014
X148.215 Y44.929 I0.061 J0.014
G1 X148.208 Y44.944
X148.194 Y44.952
X148.178 Y44.953
X148.154 Y44.916
G0 Z5
Z-0.317
G1 Z-2 F300
X148.191 Y44.892
X148.206 Y44.9
X148.214 Y44.913
X148.215 Y44.929
G3 X148.093 Y44.902 I-0.061 J-0.014
X148.215 Y44.929 I0.061 J0.014
G1 X148.208 Y44.944
X148.194 Y44.952
X148.178 Y44.953
X148.154 Y44.916
G0 Z5
Z-1.317
G1 Z-3 F300
X148.191 Y44.892
X148.206 Y44.9
X148.214 Y44.913
X148.215 Y44.929
G3 X148.093 Y44.902 I-0.061 J-0.014
X148.215 Y44.929 I0.061 J0.014
G1 X148.208 Y44.944
X148.194 Y44.952
X148.178 Y44.953
X148.154 Y44.916
G0 Z5
Z-2.318
G1 Z-4 F300
X148.191 Y44.892
X148.206 Y44.9
X148.214 Y44.913
X148.215 Y44.929
G3 X148.093 Y44.902 I-0.061 J-0.014
X148.215 Y44.929 I0.061 J0.014
G1 X148.208 Y44.944
X148.194 Y44.952
X148.178 Y44.953
X148.154 Y44.916
G0 Z5
Z-3.318
G1 Z-5 F300
X148.191 Y44.892
X148.206 Y44.9
X148.214 Y44.913
X148.215 Y44.929
G3 X148.093 Y44.902 I-0.061 J-0.014
X148.215 Y44.929 I0.061 J0.014
G1 X148.208 Y44.944
X148.194 Y44.952
X148.178 Y44.953
X148.154 Y44.916
G0 Z5
Z-4.242
G1 Z-5.925 F300
X148.191 Y44.892
X148.206 Y44.9
X148.214 Y44.913
X148.215 Y44.929
G3 X148.093 Y44.902 I-0.061 J-0.014
X148.215 Y44.929 I0.061 J0.014
G1 X148.208 Y44.944
X148.194 Y44.952
X148.178 Y44.953
X148.154 Y44.916
G0 Z5
Z-5.168
G1 Z-6.85 F300
X148.191 Y44.892
X148.206 Y44.9
X148.214 Y44.913
X148.215 Y44.929
G3 X148.093 Y44.902 I-0.061 J-0.014
X148.215 Y44.929 I0.061 J0.014
G1 X148.208 Y44.944
X148.194 Y44.952
X148.178 Y44.953
X148.154 Y44.916
G0 Z5
X152.503 Y25.6
Z0.683
G1 Z-1 F300
X152.526 Y25.638
X152.519 Y25.652
X152.505 Y25.66
X152.489 Y25.661
G3 X152.516 Y25.539 I0.014 J-0.061
X152.489 Y25.661 I-0.014 J0.061
G1 X152.475 Y25.654
X152.466 Y25.64
X152.465 Y25.624
X152.503 Y25.6
G0 Z5
Z-0.317
G1 Z-2 F300
X152.526 Y25.638
X152.519 Y25.652
X152.505 Y25.66
X152.489 Y25.661
G3 X152.516 Y25.539 I0.014 J-0.061
X152.489 Y25.661 I-0.014 J0.061
G1 X152.475 Y25.654
X152.466 Y25.64
X152.465 Y25.624
X152.503 Y25.6
G0 Z5
Z-1.317
G1 Z-3 F300
X152.526 Y25.638
X152.519 Y25.652
X152.505 Y25.66
X152.489 Y25.661
G3 X152.516 Y25.539 I0.014 J-0.061
X152.489 Y25.661 I-0.014 J0.061
G1 X152.475 Y25.654
X152.466 Y25.64
X152.465 Y25.624
X152.503 Y25.6
G0 Z5
Z-2.318
G1 Z-4 F300
X152.526 Y25.638
X152.519 Y25.652
X152.505 Y25.66
X152.489 Y25.661
G3 X152.516 Y25.539 I0.014 J-0.061
X152.489 Y25.661 I-0.014 J0.061
G1 X152.475 Y25.654
X152.466 Y25.64
X152.465 Y25.624
X152.503 Y25.6
G0 Z5
Z-3.318
G1 Z-5 F300
X152.526 Y25.638
X152.519 Y25.652
X152.505 Y25.66
X152.489 Y25.661
G3 X152.516 Y25.539 I0.014 J-0.061
X152.489 Y25.661 I-0.014 J0.061
G1 X152.475 Y25.654
X152.466 Y25.64
X152.465 Y25.624
X152.503 Y25.6
G0 Z5
Z-4.242
G1 Z-5.925 F300
X152.526 Y25.638
X152.519 Y25.652
X152.505 Y25.66
X152.489 Y25.661
G3 X152.516 Y25.539 I0.014 J-0.061
X152.489 Y25.661 I-0.014 J0.061
G1 X152.475 Y25.654
X152.466 Y25.64
X152.465 Y25.624
X152.503 Y25.6
G0 Z5
Z-5.168
G1 Z-6.85 F300
X152.526 Y25.638
X152.519 Y25.652
X152.505 Y25.66
X152.489 Y25.661
G3 X152.516 Y25.539 I0.014 J-0.061
X152.489 Y25.661 I-0.014 J0.061
G1 X152.475 Y25.654
X152.466 Y25.64
X152.465 Y25.624
X152.503 Y25.6
G0 Z5
X171.818 Y29.949
Z0.683
G1 Z-1 F300
X171.781 Y29.972
X171.766 Y29.965
X171.758 Y29.951
X171.757 Y29.935
G3 X171.879 Y29.962 I0.061 J0.014
X171.757 Y29.935 I-0.061 J-0.014
G1 X171.765 Y29.921
X171.778 Y29.912
X171.795 Y29.911
X171.818 Y29.949
G0 Z5
Z-0.317
G1 Z-2 F300
X171.781 Y29.972
X171.766 Y29.965
X171.758 Y29.951
X171.757 Y29.935
G3 X171.879 Y29.962 I0.061 J0.014
X171.757 Y29.935 I-0.061 J-0.014
G1 X171.765 Y29.921
X171.778 Y29.912
X171.795 Y29.911
X171.818 Y29.949
G0 Z5
Z-1.317
G1 Z-3 F300
X171.781 Y29.972
X171.766 Y29.965
X171.758 Y29.951
X171.757 Y29.935
G3 X171.879 Y29.962 I0.061 J0.014
X171.757 Y29.935 I-0.061 J-0.014
G1 X171.765 Y29.921
X171.778 Y29.912
X171.795 Y29.911
X171.818 Y29.949
G0 Z5
Z-2.318
G1 Z-4 F300
X171.781 Y29.972
X171.766 Y29.965
X171.758 Y29.951
X171.757 Y29.935
G3 X171.879 Y29.962 I0.061 J0.014
X171.757 Y29.935 I-0.061 J-0.014
G1 X171.765 Y29.921
X171.778 Y29.912
X171.795 Y29.911
X171.818 Y29.949
G0 Z5
Z-3.318
G1 Z-5 F300
X171.781 Y29.972
X171.766 Y29.965
X171.758 Y29.951
X171.757 Y29.935
G3 X171.879 Y29.962 I0.061 J0.014
X171.757 Y29.935 I-0.061 J-0.014
G1 X171.765 Y29.921
X171.778 Y29.912
X171.795 Y29.911
X171.818 Y29.949
G0 Z5
Z-4.242
G1 Z-5.925 F300
X171.781 Y29.972
X171.766 Y29.965
X171.758 Y29.951
X171.757 Y29.935
G3 X171.879 Y29.962 I0.061 J0.014
X171.757 Y29.935 I-0.061 J-0.014
G1 X171.765 Y29.921
X171.778 Y29.912
X171.795 Y29.911
X171.818 Y29.949
G0 Z5
Z-5.168
G1 Z-6.85 F300
X171.781 Y29.972
X171.766 Y29.965
X171.758 Y29.951
X171.757 Y29.935
G3 X171.879 Y29.962 I0.061 J0.014
X171.757 Y29.935 I-0.061 J-0.014
G1 X171.765 Y29.921
X171.778 Y29.912
X171.795 Y29.911
X171.818 Y29.949
G0 Z5
X189.35 Y14.568
Z0.683
G1 Z-1 F300
X189.347 Y14.612
X189.333 Y14.619
X189.316 Y14.618
X189.303 Y14.609
G3 X189.397 Y14.527 I0.047 J-0.041
X189.303 Y14.609 I-0.047 J0.041
G1 X189.296 Y14.594
X189.297 Y14.578
X189.306 Y14.565
X189.35 Y14.568
G0 Z5
Z-0.317
G1 Z-2 F300
X189.347 Y14.612
X189.333 Y14.619
X189.316 Y14.618
X189.303 Y14.609
G3 X189.397 Y14.527 I0.047 J-0.041
X189.303 Y14.609 I-0.047 J0.041
G1 X189.296 Y14.594
X189.297 Y14.578
X189.306 Y14.565
X189.35 Y14.568
G0 Z5
Z-1.317
G1 Z-3 F300
X189.347 Y14.612
X189.333 Y14.619
X189.316 Y14.618
X189.303 Y14.609
G3 X189.397 Y14.527 I0.047 J-0.041
X189.303 Y14.609 I-0.047 J0.041
G1 X189.296 Y14.594
X189.297 Y14.578
X189.306 Y14.565
X189.35 Y14.568
G0 Z5
Z-2.318
G1 Z-4 F300
X189.347 Y14.612
X189.333 Y14.619
X189.316 Y14.618
X189.303 Y14.609
G3 X189.397 Y14.527 I0.047 J-0.041
X189.303 Y14.609 I-0.047 J0.041
G1 X189.296 Y14.594
X189.297 Y14.578
X189.306 Y14.565
X189.35 Y14.568
G0 Z5
Z-3.318
G1 Z-5 F300
X189.347 Y14.612
X189.333 Y14.619
X189.316 Y14.618
X189.303 Y14.609
G3 X189.397 Y14.527 I0.047 J-0.041
X189.303 Y14.609 I-0.047 J0.041
G1 X189.296 Y14.594
X189.297 Y14.578
X189.306 Y14.565
X189.35 Y14.568
G0 Z5
Z-4.242
G1 Z-5.925 F300
X189.347 Y14.612
X189.333 Y14.619
X189.316 Y14.618
X189.303 Y14.609
G3 X189.397 Y14.527 I0.047 J-0.041
X189.303 Y14.609 I-0.047 J0.041
G1 X189.296 Y14.594
X189.297 Y14.578
X189.306 Y14.565
X189.35 Y14.568
G0 Z5
Z-5.168
G1 Z-6.85 F300
X189.347 Y14.612
X189.333 Y14.619
X189.316 Y14.618
X189.303 Y14.609
G3 X189.397 Y14.527 I0.047 J-0.041
X189.303 Y14.609 I-0.047 J0.041
G1 X189.296 Y14.594
X189.297 Y14.578
X189.306 Y14.565
X189.35 Y14.568
G0 Z5
Y22.568
Z0.683
G1 Z-1 F300
X189.319 Y22.537
X189.323 Y22.521
X189.334 Y22.509
X189.35 Y22.505
G3 X189.35 Y22.63 I0 J0.063
X189.35 Y22.505 I0 J-0.063
G1 X189.366 Y22.509
X189.377 Y22.521
X189.381 Y22.537
X189.35 Y22.568
G0 Z5
Z-0.317
G1 Z-2 F300
X189.319 Y22.537
X189.323 Y22.521
X189.334 Y22.509
X189.35 Y22.505
G3 X189.35 Y22.63 I0 J0.063
X189.35 Y22.505 I0 J-0.063
G1 X189.366 Y22.509
X189.377 Y22.521
X189.381 Y22.537
X189.35 Y22.568
G0 Z5
Z-1.317
G1 Z-3 F300
X189.319 Y22.537
X189.323 Y22.521
X189.334 Y22.509
X189.35 Y22.505
G3 X189.35 Y22.63 I0 J0.063
X189.35 Y22.505 I0 J-0.063
G1 X189.366 Y22.509
X189.377 Y22.521
X189.381 Y22.537
X189.35 Y22.568
G0 Z5
Z-2.318
G1 Z-4 F300
X189.319 Y22.537
X189.323 Y22.521
X189.334 Y22.509
X189.35 Y22.505
G3 X189.35 Y22.63 I0 J0.063
X189.35 Y22.505 I0 J-0.063
G1 X189.366 Y22.509
X189.377 Y22.521
X189.381 Y22.537
X189.35 Y22.568
G0 Z5
Z-3.318
G1 Z-5 F300
X189.319 Y22.537
X189.323 Y22.521
X189.334 Y22.509
X189.35 Y22.505
G3 X189.35 Y22.63 I0 J0.063
X189.35 Y22.505 I0 J-0.063
G1 X189.366 Y22.509
X189.377 Y22.521
X189.381 Y22.537
X189.35 Y22.568
G0 Z5
Z-4.242
G1 Z-5.925 F300
X189.319 Y22.537
X189.323 Y22.521
X189.334 Y22.509
X189.35 Y22.505
G3 X189.35 Y22.63 I0 J0.063
X189.35 Y22.505 I0 J-0.063
G1 X189.366 Y22.509
X189.377 Y22.521
X189.381 Y22.537
X189.35 Y22.568
G0 Z5
Z-5.168
G1 Z-6.85 F300
X189.319 Y22.537
X189.323 Y22.521
X189.334 Y22.509
X189.35 Y22.505
G3 X189.35 Y22.63 I0 J0.063
X189.35 Y22.505 I0 J-0.063
G1 X189.366 Y22.509
X189.377 Y22.521
X189.381 Y22.537
X189.35 Y22.568
G0 Z5
Y30.568
Z0.683
G1 Z-1 F300
X189.319 Y30.537
X189.323 Y30.521
X189.334 Y30.509
X189.35 Y30.505
G3 X189.35 Y30.63 I0 J0.063
X189.35 Y30.505 I0 J-0.063
G1 X189.366 Y30.509
X189.377 Y30.521
X189.381 Y30.537
X189.35 Y30.568
G0 Z5
Z-0.317
G1 Z-2 F300
X189.319 Y30.537
X189.323 Y30.521
X189.334 Y30.509
X189.35 Y30.505
G3 X189.35 Y30.63 I0 J0.063
X189.35 Y30.505 I0 J-0.063
G1 X189.366 Y30.509
X189.377 Y30.521
X189.381 Y30.537
X189.35 Y30.568
G0 Z5
Z-1.317
G1 Z-3 F300
X189.319 Y30.537
X189.323 Y30.521
X189.334 Y30.509
X189.35 Y30.505
G3 X189.35 Y30.63 I0 J0.063
X189.35 Y30.505 I0 J-0.063
G1 X189.366 Y30.509
X189.377 Y30.521
X189.381 Y30.537
X189.35 Y30.568
G0 Z5
Z-2.318
G1 Z-4 F300
X189.319 Y30.537
X189.323 Y30.521
X189.334 Y30.509
X189.35 Y30.505
G3 X189.35 Y30.63 I0 J0.063
X189.35 Y30.505 I0 J-0.063
G1 X189.366 Y30.509
X189.377 Y30.521
X189.381 Y30.537
X189.35 Y30.568
G0 Z5
Z-3.318
G1 Z-5 F300
X189.319 Y30.537
X189.323 Y30.521
X189.334 Y30.509
X189.35 Y30.505
G3 X189.35 Y30.63 I0 J0.063
X189.35 Y30.505 I0 J-0.063
G1 X189.366 Y30.509
X189.377 Y30.521
X189.381 Y30.537
X189.35 Y30.568
G0 Z5
Z-4.242
G1 Z-5.925 F300
X189.319 Y30.537
X189.323 Y30.521
X189.334 Y30.509
X189.35 Y30.505
G3 X189.35 Y30.63 I0 J0.063
X189.35 Y30.505 I0 J-0.063
G1 X189.366 Y30.509
X189.377 Y30.521
X189.381 Y30.537
X189.35 Y30.568
G0 Z5
Z-5.168
G1 Z-6.85 F300
X189.319 Y30.537
X189.323 Y30.521
X189.334 Y30.509
X189.35 Y30.505
G3 X189.35 Y30.63 I0 J0.063
X189.35 Y30.505 I0 J-0.063
G1 X189.366 Y30.509
X189.377 Y30.521
X189.381 Y30.537
X189.35 Y30.568
G0 Z5
Y38.568
Z0.683
G1 Z-1 F300
X189.319 Y38.537
X189.323 Y38.521
X189.334 Y38.509
X189.35 Y38.505
G3 X189.35 Y38.63 I0 J0.063
X189.35 Y38.505 I0 J-0.063
G1 X189.366 Y38.509
X189.377 Y38.521
X189.381 Y38.537
X189.35 Y38.568
G0 Z5
Z-0.317
G1 Z-2 F300
X189.319 Y38.537
X189.323 Y38.521
X189.334 Y38.509
X189.35 Y38.505
G3 X189.35 Y38.63 I0 J0.063
X189.35 Y38.505 I0 J-0.063
G1 X189.366 Y38.509
X189.377 Y38.521
X189.381 Y38.537
X189.35 Y38.568
G0 Z5
Z-1.317
G1 Z-3 F300
X189.319 Y38.537
X189.323 Y38.521
X189.334 Y38.509
X189.35 Y38.505
G3 X189.35 Y38.63 I0 J0.063
X189.35 Y38.505 I0 J-0.063
G1 X189.366 Y38.509
X189.377 Y38.521
X189.381 Y38.537
X189.35 Y38.568
G0 Z5
Z-2.318
G1 Z-4 F300
X189.319 Y38.537
X189.323 Y38.521
X189.334 Y38.509
X189.35 Y38.505
G3 X189.35 Y38.63 I0 J0.063
X189.35 Y38.505 I0 J-0.063
G1 X189.366 Y38.509
X189.377 Y38.521
X189.381 Y38.537
X189.35 Y38.568
G0 Z5
Z-3.318
G1 Z-5 F300
X189.319 Y38.537
X189.323 Y38.521
X189.334 Y38.509
X189.35 Y38.505
G3 X189.35 Y38.63 I0 J0.063
X189.35 Y38.505 I0 J-0.063
G1 X189.366 Y38.509
X189.377 Y38.521
X189.381 Y38.537
X189.35 Y38.568
G0 Z5
Z-4.242
G1 Z-5.925 F300
X189.319 Y38.537
X189.323 Y38.521
X189.334 Y38.509
X189.35 Y38.505
G3 X189.35 Y38.63 I0 J0.063
X189.35 Y38.505 I0 J-0.063
G1 X189.366 Y38.509
X189.377 Y38.521
X189.381 Y38.537
X189.35 Y38.568
G0 Z5
Z-5.168
G1 Z-6.85 F300
X189.319 Y38.537
X189.323 Y38.521
X189.334 Y38.509
X189.35 Y38.505
G3 X189.35 Y38.63 I0 J0.063
X189.35 Y38.505 I0 J-0.063
G1 X189.366 Y38.509
X189.377 Y38.521
X189.381 Y38.537
X189.35 Y38.568
G0 Z5
Y46.568
Z0.683
G1 Z-1 F300
X189.319 Y46.537
X189.323 Y46.521
X189.334 Y46.509
X189.35 Y46.505
G3 X189.35 Y46.63 I0 J0.063
X189.35 Y46.505 I0 J-0.063
G1 X189.366 Y46.509
X189.377 Y46.521
X189.381 Y46.537
X189.35 Y46.568
G0 Z5
Z-0.317
G1 Z-2 F300
X189.319 Y46.537
X189.323 Y46.521
X189.334 Y46.509
X189.35 Y46.505
G3 X189.35 Y46.63 I0 J0.063
X189.35 Y46.505 I0 J-0.063
G1 X189.366 Y46.509
X189.377 Y46.521
X189.381 Y46.537
X189.35 Y46.568
G0 Z5
Z-1.317
G1 Z-3 F300
X189.319 Y46.537
X189.323 Y46.521
X189.334 Y46.509
X189.35 Y46.505
G3 X189.35 Y46.63 I0 J0.063
X189.35 Y46.505 I0 J-0.063
G1 X189.366 Y46.509
X189.377 Y46.521
X189.381 Y46.537
X189.35 Y46.568
G0 Z5
Z-2.318
G1 Z-4 F300
X189.319 Y46.537
X189.323 Y46.521
X189.334 Y46.509
X189.35 Y46.505
G3 X189.35 Y46.63 I0 J0.063
X189.35 Y46.505 I0 J-0.063
G1 X189.366 Y46.509
X189.377 Y46.521
X189.381 Y46.537
X189.35 Y46.568
G0 Z5
Z-3.318
G1 Z-5 F300
X189.319 Y46.537
X189.323 Y46.521
X189.334 Y46.509
X189.35 Y46.505
G3 X189.35 Y46.63 I0 J0.063
X189.35 Y46.505 I0 J-0.063
G1 X189.366 Y46.509
X189.377 Y46.521
X189.381 Y46.537
X189.35 Y46.568
G0 Z5
Z-4.242
G1 Z-5.925 F300
X189.319 Y46.537
X189.323 Y46.521
X189.334 Y46.509
X189.35 Y46.505
G3 X189.35 Y46.63 I0 J0.063
X189.35 Y46.505 I0 J-0.063
G1 X189.366 Y46.509
X189.377 Y46.521
X189.381 Y46.537
X189.35 Y46.568
G0 Z5
Z-5.168
G1 Z-6.85 F300
X189.319 Y46.537
X189.323 Y46.521
X189.334 Y46.509
X189.35 Y46.505
G3 X189.35 Y46.63 I0 J0.063
X189.35 Y46.505 I0 J-0.063
G1 X189.366 Y46.509
X189.377 Y46.521
X189.381 Y46.537
X189.35 Y46.568
G0 Z5
Y54.568
Z0.683
G1 Z-1 F300
X189.319 Y54.537
X189.323 Y54.521
X189.334 Y54.509
X189.35 Y54.505
G3 X189.35 Y54.63 I0 J0.063
X189.35 Y54.505 I0 J-0.063
G1 X189.366 Y54.509
X189.377 Y54.521
X189.381 Y54.537
X189.35 Y54.568
G0 Z5
Z-0.317
G1 Z-2 F300
X189.319 Y54.537
X189.323 Y54.521
X189.334 Y54.509
X189.35 Y54.505
G3 X189.35 Y54.63 I0 J0.063
X189.35 Y54.505 I0 J-0.063
G1 X189.366 Y54.509
X189.377 Y54.521
X189.381 Y54.537
X189.35 Y54.568
G0 Z5
Z-1.317
G1 Z-3 F300
X189.319 Y54.537
X189.323 Y54.521
X189.334 Y54.509
X189.35 Y54.505
G3 X189.35 Y54.63 I0 J0.063
X189.35 Y54.505 I0 J-0.063
G1 X189.366 Y54.509
X189.377 Y54.521
X189.381 Y54.537
X189.35 Y54.568
G0 Z5
Z-2.318
G1 Z-4 F300
X189.319 Y54.537
X189.323 Y54.521
X189.334 Y54.509
X189.35 Y54.505
G3 X189.35 Y54.63 I0 J0.063
X189.35 Y54.505 I0 J-0.063
G1 X189.366 Y54.509
X189.377 Y54.521
X189.381 Y54.537
X189.35 Y54.568
G0 Z5
Z-3.318
G1 Z-5 F300
X189.319 Y54.537
X189.323 Y54.521
X189.334 Y54.509
X189.35 Y54.505
G3 X189.35 Y54.63 I0 J0.063
X189.35 Y54.505 I0 J-0.063
G1 X189.366 Y54.509
X189.377 Y54.521
X189.381 Y54.537
X189.35 Y54.568
G0 Z5
Z-4.242
G1 Z-5.925 F300
X189.319 Y54.537
X189.323 Y54.521
X189.334 Y54.509
X189.35 Y54.505
G3 X189.35 Y54.63 I0 J0.063
X189.35 Y54.505 I0 J-0.063
G1 X189.366 Y54.509
X189.377 Y54.521
X189.381 Y54.537
X189.35 Y54.568
G0 Z5
Z-5.168
G1 Z-6.85 F300
X189.319 Y54.537
X189.323 Y54.521
X189.334 Y54.509
X189.35 Y54.505
G3 X189.35 Y54.63 I0 J0.063
X189.35 Y54.505 I0 J-0.063
G1 X189.366 Y54.509
X189.377 Y54.521
X189.381 Y54.537
X189.35 Y54.568
G0 Z5
Y62.568
Z0.683
G1 Z-1 F300
X189.319 Y62.537
X189.323 Y62.521
X189.334 Y62.509
X189.35 Y62.505
G3 X189.35 Y62.63 I0 J0.063
X189.35 Y62.505 I0 J-0.063
G1 X189.366 Y62.509
X189.377 Y62.521
X189.381 Y62.537
X189.35 Y62.568
G0 Z5
Z-0.317
G1 Z-2 F300
X189.319 Y62.537
X189.323 Y62.521
X189.334 Y62.509
X189.35 Y62.505
G3 X189.35 Y62.63 I0 J0.063
X189.35 Y62.505 I0 J-0.063
G1 X189.366 Y62.509
X189.377 Y62.521
X189.381 Y62.537
X189.35 Y62.568
G0 Z5
Z-1.317
G1 Z-3 F300
X189.319 Y62.537
X189.323 Y62.521
X189.334 Y62.509
X189.35 Y62.505
G3 X189.35 Y62.63 I0 J0.063
X189.35 Y62.505 I0 J-0.063
G1 X189.366 Y62.509
X189.377 Y62.521
X189.381 Y62.537
X189.35 Y62.568
G0 Z5
Z-2.318
G1 Z-4 F300
X189.319 Y62.537
X189.323 Y62.521
X189.334 Y62.509
X189.35 Y62.505
G3 X189.35 Y62.63 I0 J0.063
X189.35 Y62.505 I0 J-0.063
G1 X189.366 Y62.509
X189.377 Y62.521
X189.381 Y62.537
X189.35 Y62.568
G0 Z5
Z-3.318
G1 Z-5 F300
X189.319 Y62.537
X189.323 Y62.521
X189.334 Y62.509
X189.35 Y62.505
G3 X189.35 Y62.63 I0 J0.063
X189.35 Y62.505 I0 J-0.063
G1 X189.366 Y62.509
X189.377 Y62.521
X189.381 Y62.537
X189.35 Y62.568
G0 Z5
Z-4.242
G1 Z-5.925 F300
X189.319 Y62.537
X189.323 Y62.521
X189.334 Y62.509
X189.35 Y62.505
G3 X189.35 Y62.63 I0 J0.063
X189.35 Y62.505 I0 J-0.063
G1 X189.366 Y62.509
X189.377 Y62.521
X189.381 Y62.537
X189.35 Y62.568
G0 Z5
Z-5.168
G1 Z-6.85 F300
X189.319 Y62.537
X189.323 Y62.521
X189.334 Y62.509
X189.35 Y62.505
G3 X189.35 Y62.63 I0 J0.063
X189.35 Y62.505 I0 J-0.063
G1 X189.366 Y62.509
X189.377 Y62.521
X189.381 Y62.537
X189.35 Y62.568
G0 Z5
Y81.495
Z0.683
G1 Z-1 F300
X189.319 Y81.463
X189.323 Y81.448
X189.334 Y81.436
X189.35 Y81.432
G3 X189.35 Y81.557 I0 J0.063
X189.35 Y81.432 I0 J-0.063
G1 X189.366 Y81.436
X189.377 Y81.448
X189.381 Y81.463
X189.35 Y81.495
G0 Z5
Z-0.317
G1 Z-2 F300
X189.319 Y81.463
X189.323 Y81.448
X189.334 Y81.436
X189.35 Y81.432
G3 X189.35 Y81.557 I0 J0.063
X189.35 Y81.432 I0 J-0.063
G1 X189.366 Y81.436
X189.377 Y81.448
X189.381 Y81.463
X189.35 Y81.495
G0 Z5
Z-1.317
G1 Z-3 F300
X189.319 Y81.463
X189.323 Y81.448
X189.334 Y81.436
X189.35 Y81.432
G3 X189.35 Y81.557 I0 J0.063
X189.35 Y81.432 I0 J-0.063
G1 X189.366 Y81.436
X189.377 Y81.448
X189.381 Y81.463
X189.35 Y81.495
G0 Z5
Z-2.318
G1 Z-4 F300
X189.319 Y81.463
X189.323 Y81.448
X189.334 Y81.436
X189.35 Y81.432
G3 X189.35 Y81.557 I0 J0.063
X189.35 Y81.432 I0 J-0.063
G1 X189.366 Y81.436
X189.377 Y81.448
X189.381 Y81.463
X189.35 Y81.495
G0 Z5
Z-3.318
G1 Z-5 F300
X189.319 Y81.463
X189.323 Y81.448
X189.334 Y81.436
X189.35 Y81.432
G3 X189.35 Y81.557 I0 J0.063
X189.35 Y81.432 I0 J-0.063
G1 X189.366 Y81.436
X189.377 Y81.448
X189.381 Y81.463
X189.35 Y81.495
G0 Z5
Z-4.242
G1 Z-5.925 F300
X189.319 Y81.463
X189.323 Y81.448
X189.334 Y81.436
X189.35 Y81.432
G3 X189.35 Y81.557 I0 J0.063
X189.35 Y81.432 I0 J-0.063
G1 X189.366 Y81.436
X189.377 Y81.448
X189.381 Y81.463
X189.35 Y81.495
G0 Z5
Z-5.168
G1 Z-6.85 F300
X189.319 Y81.463
X189.323 Y81.448
X189.334 Y81.436
X189.35 Y81.432
G3 X189.35 Y81.557 I0 J0.063
X189.35 Y81.432 I0 J-0.063
G1 X189.366 Y81.436
X189.377 Y81.448
X189.381 Y81.463
X189.35 Y81.495
G0 Z5
Y89.495
Z0.683
G1 Z-1 F300
X189.319 Y89.463
X189.323 Y89.448
X189.334 Y89.436
X189.35 Y89.432
G3 X189.35 Y89.557 I0 J0.063
X189.35 Y89.432 I0 J-0.063
G1 X189.366 Y89.436
X189.377 Y89.448
X189.381 Y89.463
X189.35 Y89.495
G0 Z5
Z-0.317
G1 Z-2 F300
X189.319 Y89.463
X189.323 Y89.448
X189.334 Y89.436
X189.35 Y89.432
G3 X189.35 Y89.557 I0 J0.063
X189.35 Y89.432 I0 J-0.063
G1 X189.366 Y89.436
X189.377 Y89.448
X189.381 Y89.463
X189.35 Y89.495
G0 Z5
Z-1.317
G1 Z-3 F300
X189.319 Y89.463
X189.323 Y89.448
X189.334 Y89.436
X189.35 Y89.432
G3 X189.35 Y89.557 I0 J0.063
X189.35 Y89.432 I0 J-0.063
G1 X189.366 Y89.436
X189.377 Y89.448
X189.381 Y89.463
X189.35 Y89.495
G0 Z5
Z-2.318
G1 Z-4 F300
X189.319 Y89.463
X189.323 Y89.448
X189.334 Y89.436
X189.35 Y89.432
G3 X189.35 Y89.557 I0 J0.063
X189.35 Y89.432 I0 J-0.063
G1 X189.366 Y89.436
X189.377 Y89.448
X189.381 Y89.463
X189.35 Y89.495
G0 Z5
Z-3.318
G1 Z-5 F300
X189.319 Y89.463
X189.323 Y89.448
X189.334 Y89.436
X189.35 Y89.432
G3 X189.35 Y89.557 I0 J0.063
X189.35 Y89.432 I0 J-0.063
G1 X189.366 Y89.436
X189.377 Y89.448
X189.381 Y89.463
X189.35 Y89.495
G0 Z5
Z-4.242
G1 Z-5.925 F300
X189.319 Y89.463
X189.323 Y89.448
X189.334 Y89.436
X189.35 Y89.432
G3 X189.35 Y89.557 I0 J0.063
X189.35 Y89.432 I0 J-0.063
G1 X189.366 Y89.436
X189.377 Y89.448
X189.381 Y89.463
X189.35 Y89.495
G0 Z5
Z-5.168
G1 Z-6.85 F300
X189.319 Y89.463
X189.323 Y89.448
X189.334 Y89.436
X189.35 Y89.432
G3 X189.35 Y89.557 I0 J0.063
X189.35 Y89.432 I0 J-0.063
G1 X189.366 Y89.436
X189.377 Y89.448
X189.381 Y89.463
X189.35 Y89.495
G0 Z5
Y97.495
Z0.683
G1 Z-1 F300
X189.319 Y97.463
X189.323 Y97.448
X189.334 Y97.436
X189.35 Y97.432
G3 X189.35 Y97.557 I0 J0.063
X189.35 Y97.432 I0 J-0.063
G1 X189.366 Y97.436
X189.377 Y97.448
X189.381 Y97.463
X189.35 Y97.495
G0 Z5
Z-0.317
G1 Z-2 F300
X189.319 Y97.463
X189.323 Y97.448
X189.334 Y97.436
X189.35 Y97.432
G3 X189.35 Y97.557 I0 J0.063
X189.35 Y97.432 I0 J-0.063
G1 X189.366 Y97.436
X189.377 Y97.448
X189.381 Y97.463
X189.35 Y97.495
G0 Z5
Z-1.317
G1 Z-3 F300
X189.319 Y97.463
X189.323 Y97.448
X189.334 Y97.436
X189.35 Y97.432
G3 X189.35 Y97.557 I0 J0.063
X189.35 Y97.432 I0 J-0.063
G1 X189.366 Y97.436
X189.377 Y97.448
X189.381 Y97.463
X189.35 Y97.495
G0 Z5
Z-2.318
G1 Z-4 F300
X189.319 Y97.463
X189.323 Y97.448
X189.334 Y97.436
X189.35 Y97.432
G3 X189.35 Y97.557 I0 J0.063
X189.35 Y97.432 I0 J-0.063
G1 X189.366 Y97.436
X189.377 Y97.448
X189.381 Y97.463
X189.35 Y97.495
G0 Z5
Z-3.318
G1 Z-5 F300
X189.319 Y97.463
X189.323 Y97.448
X189.334 Y97.436
X189.35 Y97.432
G3 X189.35 Y97.557 I0 J0.063
X189.35 Y97.432 I0 J-0.063
G1 X189.366 Y97.436
X189.377 Y97.448
X189.381 Y97.463
X189.35 Y97.495
G0 Z5
Z-4.242
G1 Z-5.925 F300
X189.319 Y97.463
X189.323 Y97.448
X189.334 Y97.436
X189.35 Y97.432
G3 X189.35 Y97.557 I0 J0.063
X189.35 Y97.432 I0 J-0.063
G1 X189.366 Y97.436
X189.377 Y97.448
X189.381 Y97.463
X189.35 Y97.495
G0 Z5
Z-5.168
G1 Z-6.85 F300
X189.319 Y97.463
X189.323 Y97.448
X189.334 Y97.436
X189.35 Y97.432
G3 X189.35 Y97.557 I0 J0.063
X189.35 Y97.432 I0 J-0.063
G1 X189.366 Y97.436
X189.377 Y97.448
X189.381 Y97.463
X189.35 Y97.495
G0 Z5
Y105.495
Z0.683
G1 Z-1 F300
X189.319 Y105.463
X189.323 Y105.448
X189.334 Y105.436
X189.35 Y105.432
G3 X189.35 Y105.557 I0 J0.063
X189.35 Y105.432 I0 J-0.063
G1 X189.366 Y105.436
X189.377 Y105.448
X189.381 Y105.463
X189.35 Y105.495
G0 Z5
Z-0.317
G1 Z-2 F300
X189.319 Y105.463
X189.323 Y105.448
X189.334 Y105.436
X189.35 Y105.432
G3 X189.35 Y105.557 I0 J0.063
X189.35 Y105.432 I0 J-0.063
G1 X189.366 Y105.436
X189.377 Y105.448
X189.381 Y105.463
X189.35 Y105.495
G0 Z5
Z-1.317
G1 Z-3 F300
X189.319 Y105.463
X189.323 Y105.448
X189.334 Y105.436
X189.35 Y105.432
G3 X189.35 Y105.557 I0 J0.063
X189.35 Y105.432 I0 J-0.063
G1 X189.366 Y105.436
X189.377 Y105.448
X189.381 Y105.463
X189.35 Y105.495
G0 Z5
Z-2.318
G1 Z-4 F300
X189.319 Y105.463
X189.323 Y105.448
X189.334 Y105.436
X189.35 Y105.432
G3 X189.35 Y105.557 I0 J0.063
X189.35 Y105.432 I0 J-0.063
G1 X189.366 Y105.436
X189.377 Y105.448
X189.381 Y105.463
X189.35 Y105.495
G0 Z5
Z-3.318
G1 Z-5 F300
X189.319 Y105.463
X189.323 Y105.448
X189.334 Y105.436
X189.35 Y105.432
G3 X189.35 Y105.557 I0 J0.063
X189.35 Y105.432 I0 J-0.063
G1 X189.366 Y105.436
X189.377 Y105.448
X189.381 Y105.463
X189.35 Y105.495
G0 Z5
Z-4.242
G1 Z-5.925 F300
X189.319 Y105.463
X189.323 Y105.448
X189.334 Y105.436
X189.35 Y105.432
G3 X189.35 Y105.557 I0 J0.063
X189.35 Y105.432 I0 J-0.063
G1 X189.366 Y105.436
X189.377 Y105.448
X189.381 Y105.463
X189.35 Y105.495
G0 Z5
Z-5.168
G1 Z-6.85 F300
X189.319 Y105.463
X189.323 Y105.448
X189.334 Y105.436
X189.35 Y105.432
G3 X189.35 Y105.557 I0 J0.063
X189.35 Y105.432 I0 J-0.063
G1 X189.366 Y105.436
X189.377 Y105.448
X189.381 Y105.463
X189.35 Y105.495
G0 Z5
Y113.495
Z0.683
G1 Z-1 F300
X189.319 Y113.463
X189.323 Y113.448
X189.334 Y113.436
X189.35 Y113.432
G3 X189.35 Y113.557 I0 J0.063
X189.35 Y113.432 I0 J-0.063
G1 X189.366 Y113.436
X189.377 Y113.448
X189.381 Y113.463
X189.35 Y113.495
G0 Z5
Z-0.317
G1 Z-2 F300
X189.319 Y113.463
X189.323 Y113.448
X189.334 Y113.436
X189.35 Y113.432
G3 X189.35 Y113.557 I0 J0.063
X189.35 Y113.432 I0 J-0.063
G1 X189.366 Y113.436
X189.377 Y113.448
X189.381 Y113.463
X189.35 Y113.495
G0 Z5
Z-1.317
G1 Z-3 F300
X189.319 Y113.463
X189.323 Y113.448
X189.334 Y113.436
X189.35 Y113.432
G3 X189.35 Y113.557 I0 J0.063
X189.35 Y113.432 I0 J-0.063
G1 X189.366 Y113.436
X189.377 Y113.448
X189.381 Y113.463
X189.35 Y113.495
G0 Z5
Z-2.318
G1 Z-4 F300
X189.319 Y113.463
X189.323 Y113.448
X189.334 Y113.436
X189.35 Y113.432
G3 X189.35 Y113.557 I0 J0.063
X189.35 Y113.432 I0 J-0.063
G1 X189.366 Y113.436
X189.377 Y113.448
X189.381 Y113.463
X189.35 Y113.495
G0 Z5
Z-3.318
G1 Z-5 F300
X189.319 Y113.463
X189.323 Y113.448
X189.334 Y113.436
X189.35 Y113.432
G3 X189.35 Y113.557 I0 J0.063
X189.35 Y113.432 I0 J-0.063
G1 X189.366 Y113.436
X189.377 Y113.448
X189.381 Y113.463
X189.35 Y113.495
G0 Z5
Z-4.242
G1 Z-5.925 F300
X189.319 Y113.463
X189.323 Y113.448
X189.334 Y113.436
X189.35 Y113.432
G3 X189.35 Y113.557 I0 J0.063
X189.35 Y113.432 I0 J-0.063
G1 X189.366 Y113.436
X189.377 Y113.448
X189.381 Y113.463
X189.35 Y113.495
G0 Z5
Z-5.168
G1 Z-6.85 F300
X189.319 Y113.463
X189.323 Y113.448
X189.334 Y113.436
X189.35 Y113.432
G3 X189.35 Y113.557 I0 J0.063
X189.35 Y113.432 I0 J-0.063
G1 X189.366 Y113.436
X189.377 Y113.448
X189.381 Y113.463
X189.35 Y113.495
G0 Z5
Y121.495
Z0.683
G1 Z-1 F300
X189.319 Y121.463
X189.323 Y121.448
X189.334 Y121.436
X189.35 Y121.432
G3 X189.35 Y121.557 I0 J0.063
X189.35 Y121.432 I0 J-0.063
G1 X189.366 Y121.436
X189.377 Y121.448
X189.381 Y121.463
X189.35 Y121.495
G0 Z5
Z-0.317
G1 Z-2 F300
X189.319 Y121.463
X189.323 Y121.448
X189.334 Y121.436
X189.35 Y121.432
G3 X189.35 Y121.557 I0 J0.063
X189.35 Y121.432 I0 J-0.063
G1 X189.366 Y121.436
X189.377 Y121.448
X189.381 Y121.463
X189.35 Y121.495
G0 Z5
Z-1.317
G1 Z-3 F300
X189.319 Y121.463
X189.323 Y121.448
X189.334 Y121.436
X189.35 Y121.432
G3 X189.35 Y121.557 I0 J0.063
X189.35 Y121.432 I0 J-0.063
G1 X189.366 Y121.436
X189.377 Y121.448
X189.381 Y121.463
X189.35 Y121.495
G0 Z5
Z-2.318
G1 Z-4 F300
X189.319 Y121.463
X189.323 Y121.448
X189.334 Y121.436
X189.35 Y121.432
G3 X189.35 Y121.557 I0 J0.063
X189.35 Y121.432 I0 J-0.063
G1 X189.366 Y121.436
X189.377 Y121.448
X189.381 Y121.463
X189.35 Y121.495
G0 Z5
Z-3.318
G1 Z-5 F300
X189.319 Y121.463
X189.323 Y121.448
X189.334 Y121.436
X189.35 Y121.432
G3 X189.35 Y121.557 I0 J0.063
X189.35 Y121.432 I0 J-0.063
G1 X189.366 Y121.436
X189.377 Y121.448
X189.381 Y121.463
X189.35 Y121.495
G0 Z5
Z-4.242
G1 Z-5.925 F300
X189.319 Y121.463
X189.323 Y121.448
X189.334 Y121.436
X189.35 Y121.432
G3 X189.35 Y121.557 I0 J0.063
X189.35 Y121.432 I0 J-0.063
G1 X189.366 Y121.436
X189.377 Y121.448
X189.381 Y121.463
X189.35 Y121.495
G0 Z5
Z-5.168
G1 Z-6.85 F300
X189.319 Y121.463
X189.323 Y121.448
X189.334 Y121.436
X189.35 Y121.432
G3 X189.35 Y121.557 I0 J0.063
X189.35 Y121.432 I0 J-0.063
G1 X189.366 Y121.436
X189.377 Y121.448
X189.381 Y121.463
X189.35 Y121.495
G0 Z5
Y129.495
Z0.683
G1 Z-1 F300
X189.319 Y129.463
X189.323 Y129.448
X189.334 Y129.436
X189.35 Y129.432
G3 X189.35 Y129.557 I0 J0.063
X189.35 Y129.432 I0 J-0.063
G1 X189.366 Y129.436
X189.377 Y129.448
X189.381 Y129.463
X189.35 Y129.495
G0 Z5
Z-0.317
G1 Z-2 F300
X189.319 Y129.463
X189.323 Y129.448
X189.334 Y129.436
X189.35 Y129.432
G3 X189.35 Y129.557 I0 J0.063
X189.35 Y129.432 I0 J-0.063
G1 X189.366 Y129.436
X189.377 Y129.448
X189.381 Y129.463
X189.35 Y129.495
G0 Z5
Z-1.317
G1 Z-3 F300
X189.319 Y129.463
X189.323 Y129.448
X189.334 Y129.436
X189.35 Y129.432
G3 X189.35 Y129.557 I0 J0.063
X189.35 Y129.432 I0 J-0.063
G1 X189.366 Y129.436
X189.377 Y129.448
X189.381 Y129.463
X189.35 Y129.495
G0 Z5
Z-2.318
G1 Z-4 F300
X189.319 Y129.463
X189.323 Y129.448
X189.334 Y129.436
X189.35 Y129.432
G3 X189.35 Y129.557 I0 J0.063
X189.35 Y129.432 I0 J-0.063
G1 X189.366 Y129.436
X189.377 Y129.448
X189.381 Y129.463
X189.35 Y129.495
G0 Z5
Z-3.318
G1 Z-5 F300
X189.319 Y129.463
X189.323 Y129.448
X189.334 Y129.436
X189.35 Y129.432
G3 X189.35 Y129.557 I0 J0.063
X189.35 Y129.432 I0 J-0.063
G1 X189.366 Y129.436
X189.377 Y129.448
X189.381 Y129.463
X189.35 Y129.495
G0 Z5
Z-4.242
G1 Z-5.925 F300
X189.319 Y129.463
X189.323 Y129.448
X189.334 Y129.436
X189.35 Y129.432
G3 X189.35 Y129.557 I0 J0.063
X189.35 Y129.432 I0 J-0.063
G1 X189.366 Y129.436
X189.377 Y129.448
X189.381 Y129.463
X189.35 Y129.495
G0 Z5
Z-5.168
G1 Z-6.85 F300
X189.319 Y129.463
X189.323 Y129.448
X189.334 Y129.436
X189.35 Y129.432
G3 X189.35 Y129.557 I0 J0.063
X189.35 Y129.432 I0 J-0.063
G1 X189.366 Y129.436
X189.377 Y129.448
X189.381 Y129.463
X189.35 Y129.495
G0 Z5
X148.154 Y111.843
Z0.683
G1 Z-1 F300
X148.195 Y111.826
X148.208 Y111.836
X148.214 Y111.851
X148.212 Y111.867
G3 X148.097 Y111.818 I-0.057 J-0.025
X148.212 Y111.867 I0.057 J0.025
G1 X148.202 Y111.88
X148.187 Y111.886
X148.171 Y111.884
X148.154 Y111.843
G0 Z5
Z-0.317
G1 Z-2 F300
X148.195 Y111.826
X148.208 Y111.836
X148.214 Y111.851
X148.212 Y111.867
G3 X148.097 Y111.818 I-0.057 J-0.025
X148.212 Y111.867 I0.057 J0.025
G1 X148.202 Y111.88
X148.187 Y111.886
X148.171 Y111.884
X148.154 Y111.843
G0 Z5
Z-1.317
G1 Z-3 F300
X148.195 Y111.826
X148.208 Y111.836
X148.214 Y111.851
X148.212 Y111.867
G3 X148.097 Y111.818 I-0.057 J-0.025
X148.212 Y111.867 I0.057 J0.025
G1 X148.202 Y111.88
X148.187 Y111.886
X148.171 Y111.884
X148.154 Y111.843
G0 Z5
Z-2.318
G1 Z-4 F300
X148.195 Y111.826
X148.208 Y111.836
X148.214 Y111.851
X148.212 Y111.867
G3 X148.097 Y111.818 I-0.057 J-0.025
X148.212 Y111.867 I0.057 J0.025
G1 X148.202 Y111.88
X148.187 Y111.886
X148.171 Y111.884
X148.154 Y111.843
G0 Z5
Z-3.318
G1 Z-5 F300
X148.195 Y111.826
X148.208 Y111.836
X148.214 Y111.851
X148.212 Y111.867
G3 X148.097 Y111.818 I-0.057 J-0.025
X148.212 Y111.867 I0.057 J0.025
G1 X148.202 Y111.88
X148.187 Y111.886
X148.171 Y111.884
X148.154 Y111.843
G0 Z5
Z-4.242
G1 Z-5.925 F300
X148.195 Y111.826
X148.208 Y111.836
X148.214 Y111.851
X148.212 Y111.867
G3 X148.097 Y111.818 I-0.057 J-0.025
X148.212 Y111.867 I0.057 J0.025
G1 X148.202 Y111.88
X148.187 Y111.886
X148.171 Y111.884
X148.154 Y111.843
G0 Z5
Z-5.168
G1 Z-6.85 F300
X148.195 Y111.826
X148.208 Y111.836
X148.214 Y111.851
X148.212 Y111.867
G3 X148.097 Y111.818 I-0.057 J-0.025
X148.212 Y111.867 I0.057 J0.025
G1 X148.202 Y111.88
X148.187 Y111.886
X148.171 Y111.884
X148.154 Y111.843
G0 Z5
X167.47 Y116.191
Z0.683
G1 Z-1 F300
X167.432 Y116.215
X167.418 Y116.207
X167.409 Y116.194
Y116.177
G3 X167.531 Y116.205 I0.061 J0.014
X167.409 Y116.177 I-0.061 J-0.014
G1 X167.416 Y116.163
X167.43 Y116.154
X167.446
X167.47 Y116.191
G0 Z5
Z-0.317
G1 Z-2 F300
X167.432 Y116.215
X167.418 Y116.207
X167.409 Y116.194
Y116.177
G3 X167.531 Y116.205 I0.061 J0.014
X167.409 Y116.177 I-0.061 J-0.014
G1 X167.416 Y116.163
X167.43 Y116.154
X167.446
X167.47 Y116.191
G0 Z5
Z-1.317
G1 Z-3 F300
X167.432 Y116.215
X167.418 Y116.207
X167.409 Y116.194
Y116.177
G3 X167.531 Y116.205 I0.061 J0.014
X167.409 Y116.177 I-0.061 J-0.014
G1 X167.416 Y116.163
X167.43 Y116.154
X167.446
X167.47 Y116.191
G0 Z5
Z-2.318
G1 Z-4 F300
X167.432 Y116.215
X167.418 Y116.207
X167.409 Y116.194
Y116.177
G3 X167.531 Y116.205 I0.061 J0.014
X167.409 Y116.177 I-0.061 J-0.014
G1 X167.416 Y116.163
X167.43 Y116.154
X167.446
X167.47 Y116.191
G0 Z5
Z-3.318
G1 Z-5 F300
X167.432 Y116.215
X167.418 Y116.207
X167.409 Y116.194
Y116.177
G3 X167.531 Y116.205 I0.061 J0.014
X167.409 Y116.177 I-0.061 J-0.014
G1 X167.416 Y116.163
X167.43 Y116.154
X167.446
X167.47 Y116.191
G0 Z5
Z-4.242
G1 Z-5.925 F300
X167.432 Y116.215
X167.418 Y116.207
X167.409 Y116.194
Y116.177
G3 X167.531 Y116.205 I0.061 J0.014
X167.409 Y116.177 I-0.061 J-0.014
G1 X167.416 Y116.163
X167.43 Y116.154
X167.446
X167.47 Y116.191
G0 Z5
Z-5.168
G1 Z-6.85 F300
X167.432 Y116.215
X167.418 Y116.207
X167.409 Y116.194
Y116.177
G3 X167.531 Y116.205 I0.061 J0.014
X167.409 Y116.177 I-0.061 J-0.014
G1 X167.416 Y116.163
X167.43 Y116.154
X167.446
X167.47 Y116.191
G0 Z5
X171.818 Y96.876
Z0.683
G1 Z-1 F300
X171.842 Y96.913
X171.834 Y96.927
X171.821 Y96.936
X171.804 Y96.937
G3 X171.832 Y96.815 I0.014 J-0.061
X171.804 Y96.937 I-0.014 J0.061
G1 X171.79 Y96.929
X171.781 Y96.915
Y96.899
X171.818 Y96.876
G0 Z5
Z-0.317
G1 Z-2 F300
X171.842 Y96.913
X171.834 Y96.927
X171.821 Y96.936
X171.804 Y96.937
G3 X171.832 Y96.815 I0.014 J-0.061
X171.804 Y96.937 I-0.014 J0.061
G1 X171.79 Y96.929
X171.781 Y96.915
Y96.899
X171.818 Y96.876
G0 Z5
Z-1.317
G1 Z-3 F300
X171.842 Y96.913
X171.834 Y96.927
X171.821 Y96.936
X171.804 Y96.937
G3 X171.832 Y96.815 I0.014 J-0.061
X171.804 Y96.937 I-0.014 J0.061
G1 X171.79 Y96.929
X171.781 Y96.915
Y96.899
X171.818 Y96.876
G0 Z5
Z-2.318
G1 Z-4 F300
X171.842 Y96.913
X171.834 Y96.927
X171.821 Y96.936
X171.804 Y96.937
G3 X171.832 Y96.815 I0.014 J-0.061
X171.804 Y96.937 I-0.014 J0.061
G1 X171.79 Y96.929
X171.781 Y96.915
Y96.899
X171.818 Y96.876
G0 Z5
Z-3.318
G1 Z-5 F300
X171.842 Y96.913
X171.834 Y96.927
X171.821 Y96.936
X171.804 Y96.937
G3 X171.832 Y96.815 I0.014 J-0.061
X171.804 Y96.937 I-0.014 J0.061
G1 X171.79 Y96.929
X171.781 Y96.915
Y96.899
X171.818 Y96.876
G0 Z5
Z-4.242
G1 Z-5.925 F300
X171.842 Y96.913
X171.834 Y96.927
X171.821 Y96.936
X171.804 Y96.937
G3 X171.832 Y96.815 I0.014 J-0.061
X171.804 Y96.937 I-0.014 J0.061
G1 X171.79 Y96.929
X171.781 Y96.915
Y96.899
X171.818 Y96.876
G0 Z5
Z-5.168
G1 Z-6.85 F300
X171.842 Y96.913
X171.834 Y96.927
X171.821 Y96.936
X171.804 Y96.937
G3 X171.832 Y96.815 I0.014 J-0.061
X171.804 Y96.937 I-0.014 J0.061
G1 X171.79 Y96.929
X171.781 Y96.915
Y96.899
X171.818 Y96.876
G0 Z5
X152.503 Y92.527
Z0.683
G1 Z-1 F300
X152.54 Y92.503
X152.554 Y92.511
X152.563 Y92.525
X152.564 Y92.541
G3 X152.442 Y92.513 I-0.061 J-0.014
X152.564 Y92.541 I0.061 J0.014
G1 X152.556 Y92.555
X152.542 Y92.564
X152.526
X152.503 Y92.527
G0 Z5
Z-0.317
G1 Z-2 F300
X152.54 Y92.503
X152.554 Y92.511
X152.563 Y92.525
X152.564 Y92.541
G3 X152.442 Y92.513 I-0.061 J-0.014
X152.564 Y92.541 I0.061 J0.014
G1 X152.556 Y92.555
X152.542 Y92.564
X152.526
X152.503 Y92.527
G0 Z5
Z-1.317
G1 Z-3 F300
X152.54 Y92.503
X152.554 Y92.511
X152.563 Y92.525
X152.564 Y92.541
G3 X152.442 Y92.513 I-0.061 J-0.014
X152.564 Y92.541 I0.061 J0.014
G1 X152.556 Y92.555
X152.542 Y92.564
X152.526
X152.503 Y92.527
G0 Z5
Z-2.318
G1 Z-4 F300
X152.54 Y92.503
X152.554 Y92.511
X152.563 Y92.525
X152.564 Y92.541
G3 X152.442 Y92.513 I-0.061 J-0.014
X152.564 Y92.541 I0.061 J0.014
G1 X152.556 Y92.555
X152.542 Y92.564
X152.526
X152.503 Y92.527
G0 Z5
Z-3.318
G1 Z-5 F300
X152.54 Y92.503
X152.554 Y92.511
X152.563 Y92.525
X152.564 Y92.541
G3 X152.442 Y92.513 I-0.061 J-0.014
X152.564 Y92.541 I0.061 J0.014
G1 X152.556 Y92.555
X152.542 Y92.564
X152.526
X152.503 Y92.527
G0 Z5
Z-4.242
G1 Z-5.925 F300
X152.54 Y92.503
X152.554 Y92.511
X152.563 Y92.525
X152.564 Y92.541
G3 X152.442 Y92.513 I-0.061 J-0.014
X152.564 Y92.541 I0.061 J0.014
G1 X152.556 Y92.555
X152.542 Y92.564
X152.526
X152.503 Y92.527
G0 Z5
Z-5.168
G1 Z-6.85 F300
X152.54 Y92.503
X152.554 Y92.511
X152.563 Y92.525
X152.564 Y92.541
G3 X152.442 Y92.513 I-0.061 J-0.014
X152.564 Y92.541 I0.061 J0.014
G1 X152.556 Y92.555
X152.542 Y92.564
X152.526
X152.503 Y92.527
G0 Z5
X95.028
Z0.683
G1 Z-1 F300
X95.059 Y92.496
X95.075 Y92.5
X95.086 Y92.511
X95.09 Y92.527
G3 X94.965 Y92.527 I-0.063 J0
X95.09 Y92.527 I0.063 J0
G1 X95.086 Y92.543
X95.075 Y92.554
X95.059 Y92.558
X95.028 Y92.527
G0 Z5
Z-0.317
G1 Z-2 F300
X95.059 Y92.496
X95.075 Y92.5
X95.086 Y92.511
X95.09 Y92.527
G3 X94.965 Y92.527 I-0.063 J0
X95.09 Y92.527 I0.063 J0
G1 X95.086 Y92.543
X95.075 Y92.554
X95.059 Y92.558
X95.028 Y92.527
G0 Z5
Z-1.317
G1 Z-3 F300
X95.059 Y92.496
X95.075 Y92.5
X95.086 Y92.511
X95.09 Y92.527
G3 X94.965 Y92.527 I-0.063 J0
X95.09 Y92.527 I0.063 J0
G1 X95.086 Y92.543
X95.075 Y92.554
X95.059 Y92.558
X95.028 Y92.527
G0 Z5
Z-2.318
G1 Z-4 F300
X95.059 Y92.496
X95.075 Y92.5
X95.086 Y92.511
X95.09 Y92.527
G3 X94.965 Y92.527 I-0.063 J0
X95.09 Y92.527 I0.063 J0
G1 X95.086 Y92.543
X95.075 Y92.554
X95.059 Y92.558
X95.028 Y92.527
G0 Z5
Z-3.318
G1 Z-5 F300
X95.059 Y92.496
X95.075 Y92.5
X95.086 Y92.511
X95.09 Y92.527
G3 X94.965 Y92.527 I-0.063 J0
X95.09 Y92.527 I0.063 J0
G1 X95.086 Y92.543
X95.075 Y92.554
X95.059 Y92.558
X95.028 Y92.527
G0 Z5
Z-4.242
G1 Z-5.925 F300
X95.059 Y92.496
X95.075 Y92.5
X95.086 Y92.511
X95.09 Y92.527
G3 X94.965 Y92.527 I-0.063 J0
X95.09 Y92.527 I0.063 J0
G1 X95.086 Y92.543
X95.075 Y92.554
X95.059 Y92.558
X95.028 Y92.527
G0 Z5
Z-5.168
G1 Z-6.85 F300
X95.059 Y92.496
X95.075 Y92.5
X95.086 Y92.511
X95.09 Y92.527
G3 X94.965 Y92.527 I-0.063 J0
X95.09 Y92.527 I0.063 J0
G1 X95.086 Y92.543
X95.075 Y92.554
X95.059 Y92.558
X95.028 Y92.527
G0 Z5
X114.343 Y96.876
Z0.683
G1 Z-1 F300
X114.306 Y96.899
X114.292 Y96.892
X114.283 Y96.878
X114.282 Y96.862
G3 X114.404 Y96.889 I0.061 J0.014
X114.282 Y96.862 I-0.061 J-0.014
G1 X114.29 Y96.848
X114.303 Y96.839
X114.32 Y96.838
X114.343 Y96.876
G0 Z5
Z-0.317
G1 Z-2 F300
X114.306 Y96.899
X114.292 Y96.892
X114.283 Y96.878
X114.282 Y96.862
G3 X114.404 Y96.889 I0.061 J0.014
X114.282 Y96.862 I-0.061 J-0.014
G1 X114.29 Y96.848
X114.303 Y96.839
X114.32 Y96.838
X114.343 Y96.876
G0 Z5
Z-1.317
G1 Z-3 F300
X114.306 Y96.899
X114.292 Y96.892
X114.283 Y96.878
X114.282 Y96.862
G3 X114.404 Y96.889 I0.061 J0.014
X114.282 Y96.862 I-0.061 J-0.014
G1 X114.29 Y96.848
X114.303 Y96.839
X114.32 Y96.838
X114.343 Y96.876
G0 Z5
Z-2.318
G1 Z-4 F300
X114.306 Y96.899
X114.292 Y96.892
X114.283 Y96.878
X114.282 Y96.862
G3 X114.404 Y96.889 I0.061 J0.014
X114.282 Y96.862 I-0.061 J-0.014
G1 X114.29 Y96.848
X114.303 Y96.839
X114.32 Y96.838
X114.343 Y96.876
G0 Z5
Z-3.318
G1 Z-5 F300
X114.306 Y96.899
X114.292 Y96.892
X114.283 Y96.878
X114.282 Y96.862
G3 X114.404 Y96.889 I0.061 J0.014
X114.282 Y96.862 I-0.061 J-0.014
G1 X114.29 Y96.848
X114.303 Y96.839
X114.32 Y96.838
X114.343 Y96.876
G0 Z5
Z-4.242
G1 Z-5.925 F300
X114.306 Y96.899
X114.292 Y96.892
X114.283 Y96.878
X114.282 Y96.862
G3 X114.404 Y96.889 I0.061 J0.014
X114.282 Y96.862 I-0.061 J-0.014
G1 X114.29 Y96.848
X114.303 Y96.839
X114.32 Y96.838
X114.343 Y96.876
G0 Z5
Z-5.168
G1 Z-6.85 F300
X114.306 Y96.899
X114.292 Y96.892
X114.283 Y96.878
X114.282 Y96.862
G3 X114.404 Y96.889 I0.061 J0.014
X114.282 Y96.862 I-0.061 J-0.014
G1 X114.29 Y96.848
X114.303 Y96.839
X114.32 Y96.838
X114.343 Y96.876
G0 Z5
X109.995 Y116.191
Z0.683
G1 Z-1 F300
X109.971 Y116.154
X109.979 Y116.139
X109.992 Y116.131
X110.008 Y116.13
G3 X109.981 Y116.252 I-0.014 J0.061
X110.008 Y116.13 I0.014 J-0.061
G1 X110.023 Y116.138
X110.031 Y116.151
X110.032 Y116.168
X109.995 Y116.191
G0 Z5
Z-0.317
G1 Z-2 F300
X109.971 Y116.154
X109.979 Y116.139
X109.992 Y116.131
X110.008 Y116.13
G3 X109.981 Y116.252 I-0.014 J0.061
X110.008 Y116.13 I0.014 J-0.061
G1 X110.023 Y116.138
X110.031 Y116.151
X110.032 Y116.168
X109.995 Y116.191
G0 Z5
Z-1.317
G1 Z-3 F300
X109.971 Y116.154
X109.979 Y116.139
X109.992 Y116.131
X110.008 Y116.13
G3 X109.981 Y116.252 I-0.014 J0.061
X110.008 Y116.13 I0.014 J-0.061
G1 X110.023 Y116.138
X110.031 Y116.151
X110.032 Y116.168
X109.995 Y116.191
G0 Z5
Z-2.318
G1 Z-4 F300
X109.971 Y116.154
X109.979 Y116.139
X109.992 Y116.131
X110.008 Y116.13
G3 X109.981 Y116.252 I-0.014 J0.061
X110.008 Y116.13 I0.014 J-0.061
G1 X110.023 Y116.138
X110.031 Y116.151
X110.032 Y116.168
X109.995 Y116.191
G0 Z5
Z-3.318
G1 Z-5 F300
X109.971 Y116.154
X109.979 Y116.139
X109.992 Y116.131
X110.008 Y116.13
G3 X109.981 Y116.252 I-0.014 J0.061
X110.008 Y116.13 I0.014 J-0.061
G1 X110.023 Y116.138
X110.031 Y116.151
X110.032 Y116.168
X109.995 Y116.191
G0 Z5
Z-4.242
G1 Z-5.925 F300
X109.971 Y116.154
X109.979 Y116.139
X109.992 Y116.131
X110.008 Y116.13
G3 X109.981 Y116.252 I-0.014 J0.061
X110.008 Y116.13 I0.014 J-0.061
G1 X110.023 Y116.138
X110.031 Y116.151
X110.032 Y116.168
X109.995 Y116.191
G0 Z5
Z-5.168
G1 Z-6.85 F300
X109.971 Y116.154
X109.979 Y116.139
X109.992 Y116.131
X110.008 Y116.13
G3 X109.981 Y116.252 I-0.014 J0.061
X110.008 Y116.13 I0.014 J-0.061
G1 X110.023 Y116.138
X110.031 Y116.151
X110.032 Y116.168
X109.995 Y116.191
G0 Z5
X90.679 Y111.843
Z0.683
G1 Z-1 F300
X90.717 Y111.819
X90.731 Y111.827
X90.74 Y111.84
Y111.856
G3 X90.618 Y111.829 I-0.061 J-0.014
X90.74 Y111.856 I0.061 J0.014
G1 X90.733 Y111.871
X90.719 Y111.879
X90.703 Y111.88
X90.679 Y111.843
G0 Z5
Z-0.317
G1 Z-2 F300
X90.717 Y111.819
X90.731 Y111.827
X90.74 Y111.84
Y111.856
G3 X90.618 Y111.829 I-0.061 J-0.014
X90.74 Y111.856 I0.061 J0.014
G1 X90.733 Y111.871
X90.719 Y111.879
X90.703 Y111.88
X90.679 Y111.843
G0 Z5
Z-1.317
G1 Z-3 F300
X90.717 Y111.819
X90.731 Y111.827
X90.74 Y111.84
Y111.856
G3 X90.618 Y111.829 I-0.061 J-0.014
X90.74 Y111.856 I0.061 J0.014
G1 X90.733 Y111.871
X90.719 Y111.879
X90.703 Y111.88
X90.679 Y111.843
G0 Z5
Z-2.318
G1 Z-4 F300
X90.717 Y111.819
X90.731 Y111.827
X90.74 Y111.84
Y111.856
G3 X90.618 Y111.829 I-0.061 J-0.014
X90.74 Y111.856 I0.061 J0.014
G1 X90.733 Y111.871
X90.719 Y111.879
X90.703 Y111.88
X90.679 Y111.843
G0 Z5
Z-3.318
G1 Z-5 F300
X90.717 Y111.819
X90.731 Y111.827
X90.74 Y111.84
Y111.856
G3 X90.618 Y111.829 I-0.061 J-0.014
X90.74 Y111.856 I0.061 J0.014
G1 X90.733 Y111.871
X90.719 Y111.879
X90.703 Y111.88
X90.679 Y111.843
G0 Z5
Z-4.242
G1 Z-5.925 F300
X90.717 Y111.819
X90.731 Y111.827
X90.74 Y111.84
Y111.856
G3 X90.618 Y111.829 I-0.061 J-0.014
X90.74 Y111.856 I0.061 J0.014
G1 X90.733 Y111.871
X90.719 Y111.879
X90.703 Y111.88
X90.679 Y111.843
G0 Z5
Z-5.168
G1 Z-6.85 F300
X90.717 Y111.819
X90.731 Y111.827
X90.74 Y111.84
Y111.856
G3 X90.618 Y111.829 I-0.061 J-0.014
X90.74 Y111.856 I0.061 J0.014
G1 X90.733 Y111.871
X90.719 Y111.879
X90.703 Y111.88
X90.679 Y111.843
G0 Z5
X73.147 Y127.224
Z0.683
G1 Z-1 F300
X73.15 Y127.179
X73.165 Y127.172
X73.181 Y127.173
X73.194 Y127.182
G3 X73.1 Y127.265 I-0.047 J0.041
X73.194 Y127.182 I0.047 J-0.041
G1 X73.202 Y127.197
X73.2 Y127.213
X73.191 Y127.226
X73.147 Y127.224
G0 Z5
Z-0.317
G1 Z-2 F300
X73.15 Y127.179
X73.165 Y127.172
X73.181 Y127.173
X73.194 Y127.182
G3 X73.1 Y127.265 I-0.047 J0.041
X73.194 Y127.182 I0.047 J-0.041
G1 X73.202 Y127.197
X73.2 Y127.213
X73.191 Y127.226
X73.147 Y127.224
G0 Z5
Z-1.317
G1 Z-3 F300
X73.15 Y127.179
X73.165 Y127.172
X73.181 Y127.173
X73.194 Y127.182
G3 X73.1 Y127.265 I-0.047 J0.041
X73.194 Y127.182 I0.047 J-0.041
G1 X73.202 Y127.197
X73.2 Y127.213
X73.191 Y127.226
X73.147 Y127.224
G0 Z5
Z-2.318
G1 Z-4 F300
X73.15 Y127.179
X73.165 Y127.172
X73.181 Y127.173
X73.194 Y127.182
G3 X73.1 Y127.265 I-0.047 J0.041
X73.194 Y127.182 I0.047 J-0.041
G1 X73.202 Y127.197
X73.2 Y127.213
X73.191 Y127.226
X73.147 Y127.224
G0 Z5
Z-3.318
G1 Z-5 F300
X73.15 Y127.179
X73.165 Y127.172
X73.181 Y127.173
X73.194 Y127.182
G3 X73.1 Y127.265 I-0.047 J0.041
X73.194 Y127.182 I0.047 J-0.041
G1 X73.202 Y127.197
X73.2 Y127.213
X73.191 Y127.226
X73.147 Y127.224
G0 Z5
Z-4.242
G1 Z-5.925 F300
X73.15 Y127.179
X73.165 Y127.172
X73.181 Y127.173
X73.194 Y127.182
G3 X73.1 Y127.265 I-0.047 J0.041
X73.194 Y127.182 I0.047 J-0.041
G1 X73.202 Y127.197
X73.2 Y127.213
X73.191 Y127.226
X73.147 Y127.224
G0 Z5
Z-5.168
G1 Z-6.85 F300
X73.15 Y127.179
X73.165 Y127.172
X73.181 Y127.173
X73.194 Y127.182
G3 X73.1 Y127.265 I-0.047 J0.041
X73.194 Y127.182 I0.047 J-0.041
G1 X73.202 Y127.197
X73.2 Y127.213
X73.191 Y127.226
X73.147 Y127.224
G0 Z5
Y119.224
Z0.683
G1 Z-1 F300
X73.179 Y119.255
X73.174 Y119.27
X73.163 Y119.282
X73.147 Y119.286
G3 X73.147 Y119.161 I0 J-0.063
X73.147 Y119.286 I0 J0.063
G1 X73.132 Y119.282
X73.12 Y119.27
X73.116 Y119.255
X73.147 Y119.224
G0 Z5
Z-0.317
G1 Z-2 F300
X73.179 Y119.255
X73.174 Y119.27
X73.163 Y119.282
X73.147 Y119.286
G3 X73.147 Y119.161 I0 J-0.063
X73.147 Y119.286 I0 J0.063
G1 X73.132 Y119.282
X73.12 Y119.27
X73.116 Y119.255
X73.147 Y119.224
G0 Z5
Z-1.317
G1 Z-3 F300
X73.179 Y119.255
X73.174 Y119.27
X73.163 Y119.282
X73.147 Y119.286
G3 X73.147 Y119.161 I0 J-0.063
X73.147 Y119.286 I0 J0.063
G1 X73.132 Y119.282
X73.12 Y119.27
X73.116 Y119.255
X73.147 Y119.224
G0 Z5
Z-2.318
G1 Z-4 F300
X73.179 Y119.255
X73.174 Y119.27
X73.163 Y119.282
X73.147 Y119.286
G3 X73.147 Y119.161 I0 J-0.063
X73.147 Y119.286 I0 J0.063
G1 X73.132 Y119.282
X73.12 Y119.27
X73.116 Y119.255
X73.147 Y119.224
G0 Z5
Z-3.318
G1 Z-5 F300
X73.179 Y119.255
X73.174 Y119.27
X73.163 Y119.282
X73.147 Y119.286
G3 X73.147 Y119.161 I0 J-0.063
X73.147 Y119.286 I0 J0.063
G1 X73.132 Y119.282
X73.12 Y119.27
X73.116 Y119.255
X73.147 Y119.224
G0 Z5
Z-4.242
G1 Z-5.925 F300
X73.179 Y119.255
X73.174 Y119.27
X73.163 Y119.282
X73.147 Y119.286
G3 X73.147 Y119.161 I0 J-0.063
X73.147 Y119.286 I0 J0.063
G1 X73.132 Y119.282
X73.12 Y119.27
X73.116 Y119.255
X73.147 Y119.224
G0 Z5
Z-5.168
G1 Z-6.85 F300
X73.179 Y119.255
X73.174 Y119.27
X73.163 Y119.282
X73.147 Y119.286
G3 X73.147 Y119.161 I0 J-0.063
X73.147 Y119.286 I0 J0.063
G1 X73.132 Y119.282
X73.12 Y119.27
X73.116 Y119.255
X73.147 Y119.224
G0 Z5
Y111.224
Z0.683
G1 Z-1 F300
X73.179 Y111.255
X73.174 Y111.27
X73.163 Y111.282
X73.147 Y111.286
G3 X73.147 Y111.161 I0 J-0.063
X73.147 Y111.286 I0 J0.063
G1 X73.132 Y111.282
X73.12 Y111.27
X73.116 Y111.255
X73.147 Y111.224
G0 Z5
Z-0.317
G1 Z-2 F300
X73.179 Y111.255
X73.174 Y111.27
X73.163 Y111.282
X73.147 Y111.286
G3 X73.147 Y111.161 I0 J-0.063
X73.147 Y111.286 I0 J0.063
G1 X73.132 Y111.282
X73.12 Y111.27
X73.116 Y111.255
X73.147 Y111.224
G0 Z5
Z-1.317
G1 Z-3 F300
X73.179 Y111.255
X73.174 Y111.27
X73.163 Y111.282
X73.147 Y111.286
G3 X73.147 Y111.161 I0 J-0.063
X73.147 Y111.286 I0 J0.063
G1 X73.132 Y111.282
X73.12 Y111.27
X73.116 Y111.255
X73.147 Y111.224
G0 Z5
Z-2.318
G1 Z-4 F300
X73.179 Y111.255
X73.174 Y111.27
X73.163 Y111.282
X73.147 Y111.286
G3 X73.147 Y111.161 I0 J-0.063
X73.147 Y111.286 I0 J0.063
G1 X73.132 Y111.282
X73.12 Y111.27
X73.116 Y111.255
X73.147 Y111.224
G0 Z5
Z-3.318
G1 Z-5 F300
X73.179 Y111.255
X73.174 Y111.27
X73.163 Y111.282
X73.147 Y111.286
G3 X73.147 Y111.161 I0 J-0.063
X73.147 Y111.286 I0 J0.063
G1 X73.132 Y111.282
X73.12 Y111.27
X73.116 Y111.255
X73.147 Y111.224
G0 Z5
Z-4.242
G1 Z-5.925 F300
X73.179 Y111.255
X73.174 Y111.27
X73.163 Y111.282
X73.147 Y111.286
G3 X73.147 Y111.161 I0 J-0.063
X73.147 Y111.286 I0 J0.063
G1 X73.132 Y111.282
X73.12 Y111.27
X73.116 Y111.255
X73.147 Y111.224
G0 Z5
Z-5.168
G1 Z-6.85 F300
X73.179 Y111.255
X73.174 Y111.27
X73.163 Y111.282
X73.147 Y111.286
G3 X73.147 Y111.161 I0 J-0.063
X73.147 Y111.286 I0 J0.063
G1 X73.132 Y111.282
X73.12 Y111.27
X73.116 Y111.255
X73.147 Y111.224
G0 Z5
Y103.224
Z0.683
G1 Z-1 F300
X73.179 Y103.255
X73.174 Y103.27
X73.163 Y103.282
X73.147 Y103.286
G3 X73.147 Y103.161 I0 J-0.063
X73.147 Y103.286 I0 J0.063
G1 X73.132 Y103.282
X73.12 Y103.27
X73.116 Y103.255
X73.147 Y103.224
G0 Z5
Z-0.317
G1 Z-2 F300
X73.179 Y103.255
X73.174 Y103.27
X73.163 Y103.282
X73.147 Y103.286
G3 X73.147 Y103.161 I0 J-0.063
X73.147 Y103.286 I0 J0.063
G1 X73.132 Y103.282
X73.12 Y103.27
X73.116 Y103.255
X73.147 Y103.224
G0 Z5
Z-1.317
G1 Z-3 F300
X73.179 Y103.255
X73.174 Y103.27
X73.163 Y103.282
X73.147 Y103.286
G3 X73.147 Y103.161 I0 J-0.063
X73.147 Y103.286 I0 J0.063
G1 X73.132 Y103.282
X73.12 Y103.27
X73.116 Y103.255
X73.147 Y103.224
G0 Z5
Z-2.318
G1 Z-4 F300
X73.179 Y103.255
X73.174 Y103.27
X73.163 Y103.282
X73.147 Y103.286
G3 X73.147 Y103.161 I0 J-0.063
X73.147 Y103.286 I0 J0.063
G1 X73.132 Y103.282
X73.12 Y103.27
X73.116 Y103.255
X73.147 Y103.224
G0 Z5
Z-3.318
G1 Z-5 F300
X73.179 Y103.255
X73.174 Y103.27
X73.163 Y103.282
X73.147 Y103.286
G3 X73.147 Y103.161 I0 J-0.063
X73.147 Y103.286 I0 J0.063
G1 X73.132 Y103.282
X73.12 Y103.27
X73.116 Y103.255
X73.147 Y103.224
G0 Z5
Z-4.242
G1 Z-5.925 F300
X73.179 Y103.255
X73.174 Y103.27
X73.163 Y103.282
X73.147 Y103.286
G3 X73.147 Y103.161 I0 J-0.063
X73.147 Y103.286 I0 J0.063
G1 X73.132 Y103.282
X73.12 Y103.27
X73.116 Y103.255
X73.147 Y103.224
G0 Z5
Z-5.168
G1 Z-6.85 F300
X73.179 Y103.255
X73.174 Y103.27
X73.163 Y103.282
X73.147 Y103.286
G3 X73.147 Y103.161 I0 J-0.063
X73.147 Y103.286 I0 J0.063
G1 X73.132 Y103.282
X73.12 Y103.27
X73.116 Y103.255
X73.147 Y103.224
G0 Z5
Y95.224
Z0.683
G1 Z-1 F300
X73.179 Y95.255
X73.174 Y95.27
X73.163 Y95.282
X73.147 Y95.286
G3 X73.147 Y95.161 I0 J-0.063
X73.147 Y95.286 I0 J0.063
G1 X73.132 Y95.282
X73.12 Y95.27
X73.116 Y95.255
X73.147 Y95.224
G0 Z5
Z-0.317
G1 Z-2 F300
X73.179 Y95.255
X73.174 Y95.27
X73.163 Y95.282
X73.147 Y95.286
G3 X73.147 Y95.161 I0 J-0.063
X73.147 Y95.286 I0 J0.063
G1 X73.132 Y95.282
X73.12 Y95.27
X73.116 Y95.255
X73.147 Y95.224
G0 Z5
Z-1.317
G1 Z-3 F300
X73.179 Y95.255
X73.174 Y95.27
X73.163 Y95.282
X73.147 Y95.286
G3 X73.147 Y95.161 I0 J-0.063
X73.147 Y95.286 I0 J0.063
G1 X73.132 Y95.282
X73.12 Y95.27
X73.116 Y95.255
X73.147 Y95.224
G0 Z5
Z-2.318
G1 Z-4 F300
X73.179 Y95.255
X73.174 Y95.27
X73.163 Y95.282
X73.147 Y95.286
G3 X73.147 Y95.161 I0 J-0.063
X73.147 Y95.286 I0 J0.063
G1 X73.132 Y95.282
X73.12 Y95.27
X73.116 Y95.255
X73.147 Y95.224
G0 Z5
Z-3.318
G1 Z-5 F300
X73.179 Y95.255
X73.174 Y95.27
X73.163 Y95.282
X73.147 Y95.286
G3 X73.147 Y95.161 I0 J-0.063
X73.147 Y95.286 I0 J0.063
G1 X73.132 Y95.282
X73.12 Y95.27
X73.116 Y95.255
X73.147 Y95.224
G0 Z5
Z-4.242
G1 Z-5.925 F300
X73.179 Y95.255
X73.174 Y95.27
X73.163 Y95.282
X73.147 Y95.286
G3 X73.147 Y95.161 I0 J-0.063
X73.147 Y95.286 I0 J0.063
G1 X73.132 Y95.282
X73.12 Y95.27
X73.116 Y95.255
X73.147 Y95.224
G0 Z5
Z-5.168
G1 Z-6.85 F300
X73.179 Y95.255
X73.174 Y95.27
X73.163 Y95.282
X73.147 Y95.286
G3 X73.147 Y95.161 I0 J-0.063
X73.147 Y95.286 I0 J0.063
G1 X73.132 Y95.282
X73.12 Y95.27
X73.116 Y95.255
X73.147 Y95.224
G0 Z5
Y87.224
Z0.683
G1 Z-1 F300
X73.179 Y87.255
X73.174 Y87.27
X73.163 Y87.282
X73.147 Y87.286
G3 X73.147 Y87.161 I0 J-0.063
X73.147 Y87.286 I0 J0.063
G1 X73.132 Y87.282
X73.12 Y87.27
X73.116 Y87.255
X73.147 Y87.224
G0 Z5
Z-0.317
G1 Z-2 F300
X73.179 Y87.255
X73.174 Y87.27
X73.163 Y87.282
X73.147 Y87.286
G3 X73.147 Y87.161 I0 J-0.063
X73.147 Y87.286 I0 J0.063
G1 X73.132 Y87.282
X73.12 Y87.27
X73.116 Y87.255
X73.147 Y87.224
G0 Z5
Z-1.317
G1 Z-3 F300
X73.179 Y87.255
X73.174 Y87.27
X73.163 Y87.282
X73.147 Y87.286
G3 X73.147 Y87.161 I0 J-0.063
X73.147 Y87.286 I0 J0.063
G1 X73.132 Y87.282
X73.12 Y87.27
X73.116 Y87.255
X73.147 Y87.224
G0 Z5
Z-2.318
G1 Z-4 F300
X73.179 Y87.255
X73.174 Y87.27
X73.163 Y87.282
X73.147 Y87.286
G3 X73.147 Y87.161 I0 J-0.063
X73.147 Y87.286 I0 J0.063
G1 X73.132 Y87.282
X73.12 Y87.27
X73.116 Y87.255
X73.147 Y87.224
G0 Z5
Z-3.318
G1 Z-5 F300
X73.179 Y87.255
X73.174 Y87.27
X73.163 Y87.282
X73.147 Y87.286
G3 X73.147 Y87.161 I0 J-0.063
X73.147 Y87.286 I0 J0.063
G1 X73.132 Y87.282
X73.12 Y87.27
X73.116 Y87.255
X73.147 Y87.224
G0 Z5
Z-4.242
G1 Z-5.925 F300
X73.179 Y87.255
X73.174 Y87.27
X73.163 Y87.282
X73.147 Y87.286
G3 X73.147 Y87.161 I0 J-0.063
X73.147 Y87.286 I0 J0.063
G1 X73.132 Y87.282
X73.12 Y87.27
X73.116 Y87.255
X73.147 Y87.224
G0 Z5
Z-5.168
G1 Z-6.85 F300
X73.179 Y87.255
X73.174 Y87.27
X73.163 Y87.282
X73.147 Y87.286
G3 X73.147 Y87.161 I0 J-0.063
X73.147 Y87.286 I0 J0.063
G1 X73.132 Y87.282
X73.12 Y87.27
X73.116 Y87.255
X73.147 Y87.224
G0 Z5
Y79.224
Z0.683
G1 Z-1 F300
X73.179 Y79.255
X73.174 Y79.27
X73.163 Y79.282
X73.147 Y79.286
G3 X73.147 Y79.161 I0 J-0.063
X73.147 Y79.286 I0 J0.063
G1 X73.132 Y79.282
X73.12 Y79.27
X73.116 Y79.255
X73.147 Y79.224
G0 Z5
Z-0.317
G1 Z-2 F300
X73.179 Y79.255
X73.174 Y79.27
X73.163 Y79.282
X73.147 Y79.286
G3 X73.147 Y79.161 I0 J-0.063
X73.147 Y79.286 I0 J0.063
G1 X73.132 Y79.282
X73.12 Y79.27
X73.116 Y79.255
X73.147 Y79.224
G0 Z5
Z-1.317
G1 Z-3 F300
X73.179 Y79.255
X73.174 Y79.27
X73.163 Y79.282
X73.147 Y79.286
G3 X73.147 Y79.161 I0 J-0.063
X73.147 Y79.286 I0 J0.063
G1 X73.132 Y79.282
X73.12 Y79.27
X73.116 Y79.255
X73.147 Y79.224
G0 Z5
Z-2.318
G1 Z-4 F300
X73.179 Y79.255
X73.174 Y79.27
X73.163 Y79.282
X73.147 Y79.286
G3 X73.147 Y79.161 I0 J-0.063
X73.147 Y79.286 I0 J0.063
G1 X73.132 Y79.282
X73.12 Y79.27
X73.116 Y79.255
X73.147 Y79.224
G0 Z5
Z-3.318
G1 Z-5 F300
X73.179 Y79.255
X73.174 Y79.27
X73.163 Y79.282
X73.147 Y79.286
G3 X73.147 Y79.161 I0 J-0.063
X73.147 Y79.286 I0 J0.063
G1 X73.132 Y79.282
X73.12 Y79.27
X73.116 Y79.255
X73.147 Y79.224
G0 Z5
Z-4.242
G1 Z-5.925 F300
X73.179 Y79.255
X73.174 Y79.27
X73.163 Y79.282
X73.147 Y79.286
G3 X73.147 Y79.161 I0 J-0.063
X73.147 Y79.286 I0 J0.063
G1 X73.132 Y79.282
X73.12 Y79.27
X73.116 Y79.255
X73.147 Y79.224
G0 Z5
Z-5.168
G1 Z-6.85 F300
X73.179 Y79.255
X73.174 Y79.27
X73.163 Y79.282
X73.147 Y79.286
G3 X73.147 Y79.161 I0 J-0.063
X73.147 Y79.286 I0 J0.063
G1 X73.132 Y79.282
X73.12 Y79.27
X73.116 Y79.255
X73.147 Y79.224
G0 Z5
Y60.297
Z0.683
G1 Z-1 F300
X73.179 Y60.328
X73.174 Y60.343
X73.163 Y60.355
X73.147 Y60.359
G3 X73.147 Y60.234 I0 J-0.063
X73.147 Y60.359 I0 J0.063
G1 X73.132 Y60.355
X73.12 Y60.343
X73.116 Y60.328
X73.147 Y60.297
G0 Z5
Z-0.317
G1 Z-2 F300
X73.179 Y60.328
X73.174 Y60.343
X73.163 Y60.355
X73.147 Y60.359
G3 X73.147 Y60.234 I0 J-0.063
X73.147 Y60.359 I0 J0.063
G1 X73.132 Y60.355
X73.12 Y60.343
X73.116 Y60.328
X73.147 Y60.297
G0 Z5
Z-1.317
G1 Z-3 F300
X73.179 Y60.328
X73.174 Y60.343
X73.163 Y60.355
X73.147 Y60.359
G3 X73.147 Y60.234 I0 J-0.063
X73.147 Y60.359 I0 J0.063
G1 X73.132 Y60.355
X73.12 Y60.343
X73.116 Y60.328
X73.147 Y60.297
G0 Z5
Z-2.318
G1 Z-4 F300
X73.179 Y60.328
X73.174 Y60.343
X73.163 Y60.355
X73.147 Y60.359
G3 X73.147 Y60.234 I0 J-0.063
X73.147 Y60.359 I0 J0.063
G1 X73.132 Y60.355
X73.12 Y60.343
X73.116 Y60.328
X73.147 Y60.297
G0 Z5
Z-3.318
G1 Z-5 F300
X73.179 Y60.328
X73.174 Y60.343
X73.163 Y60.355
X73.147 Y60.359
G3 X73.147 Y60.234 I0 J-0.063
X73.147 Y60.359 I0 J0.063
G1 X73.132 Y60.355
X73.12 Y60.343
X73.116 Y60.328
X73.147 Y60.297
G0 Z5
Z-4.242
G1 Z-5.925 F300
X73.179 Y60.328
X73.174 Y60.343
X73.163 Y60.355
X73.147 Y60.359
G3 X73.147 Y60.234 I0 J-0.063
X73.147 Y60.359 I0 J0.063
G1 X73.132 Y60.355
X73.12 Y60.343
X73.116 Y60.328
X73.147 Y60.297
G0 Z5
Z-5.168
G1 Z-6.85 F300
X73.179 Y60.328
X73.174 Y60.343
X73.163 Y60.355
X73.147 Y60.359
G3 X73.147 Y60.234 I0 J-0.063
X73.147 Y60.359 I0 J0.063
G1 X73.132 Y60.355
X73.12 Y60.343
X73.116 Y60.328
X73.147 Y60.297
G0 Z5
Y52.297
Z0.683
G1 Z-1 F300
X73.179 Y52.328
X73.174 Y52.343
X73.163 Y52.355
X73.147 Y52.359
G3 X73.147 Y52.234 I0 J-0.063
X73.147 Y52.359 I0 J0.063
G1 X73.132 Y52.355
X73.12 Y52.343
X73.116 Y52.328
X73.147 Y52.297
G0 Z5
Z-0.317
G1 Z-2 F300
X73.179 Y52.328
X73.174 Y52.343
X73.163 Y52.355
X73.147 Y52.359
G3 X73.147 Y52.234 I0 J-0.063
X73.147 Y52.359 I0 J0.063
G1 X73.132 Y52.355
X73.12 Y52.343
X73.116 Y52.328
X73.147 Y52.297
G0 Z5
Z-1.317
G1 Z-3 F300
X73.179 Y52.328
X73.174 Y52.343
X73.163 Y52.355
X73.147 Y52.359
G3 X73.147 Y52.234 I0 J-0.063
X73.147 Y52.359 I0 J0.063
G1 X73.132 Y52.355
X73.12 Y52.343
X73.116 Y52.328
X73.147 Y52.297
G0 Z5
Z-2.318
G1 Z-4 F300
X73.179 Y52.328
X73.174 Y52.343
X73.163 Y52.355
X73.147 Y52.359
G3 X73.147 Y52.234 I0 J-0.063
X73.147 Y52.359 I0 J0.063
G1 X73.132 Y52.355
X73.12 Y52.343
X73.116 Y52.328
X73.147 Y52.297
G0 Z5
Z-3.318
G1 Z-5 F300
X73.179 Y52.328
X73.174 Y52.343
X73.163 Y52.355
X73.147 Y52.359
G3 X73.147 Y52.234 I0 J-0.063
X73.147 Y52.359 I0 J0.063
G1 X73.132 Y52.355
X73.12 Y52.343
X73.116 Y52.328
X73.147 Y52.297
G0 Z5
Z-4.242
G1 Z-5.925 F300
X73.179 Y52.328
X73.174 Y52.343
X73.163 Y52.355
X73.147 Y52.359
G3 X73.147 Y52.234 I0 J-0.063
X73.147 Y52.359 I0 J0.063
G1 X73.132 Y52.355
X73.12 Y52.343
X73.116 Y52.328
X73.147 Y52.297
G0 Z5
Z-5.168
G1 Z-6.85 F300
X73.179 Y52.328
X73.174 Y52.343
X73.163 Y52.355
X73.147 Y52.359
G3 X73.147 Y52.234 I0 J-0.063
X73.147 Y52.359 I0 J0.063
G1 X73.132 Y52.355
X73.12 Y52.343
X73.116 Y52.328
X73.147 Y52.297
G0 Z5
Y44.297
Z0.683
G1 Z-1 F300
X73.179 Y44.328
X73.174 Y44.343
X73.163 Y44.355
X73.147 Y44.359
G3 X73.147 Y44.234 I0 J-0.063
X73.147 Y44.359 I0 J0.063
G1 X73.132 Y44.355
X73.12 Y44.343
X73.116 Y44.328
X73.147 Y44.297
G0 Z5
Z-0.317
G1 Z-2 F300
X73.179 Y44.328
X73.174 Y44.343
X73.163 Y44.355
X73.147 Y44.359
G3 X73.147 Y44.234 I0 J-0.063
X73.147 Y44.359 I0 J0.063
G1 X73.132 Y44.355
X73.12 Y44.343
X73.116 Y44.328
X73.147 Y44.297
G0 Z5
Z-1.317
G1 Z-3 F300
X73.179 Y44.328
X73.174 Y44.343
X73.163 Y44.355
X73.147 Y44.359
G3 X73.147 Y44.234 I0 J-0.063
X73.147 Y44.359 I0 J0.063
G1 X73.132 Y44.355
X73.12 Y44.343
X73.116 Y44.328
X73.147 Y44.297
G0 Z5
Z-2.318
G1 Z-4 F300
X73.179 Y44.328
X73.174 Y44.343
X73.163 Y44.355
X73.147 Y44.359
G3 X73.147 Y44.234 I0 J-0.063
X73.147 Y44.359 I0 J0.063
G1 X73.132 Y44.355
X73.12 Y44.343
X73.116 Y44.328
X73.147 Y44.297
G0 Z5
Z-3.318
G1 Z-5 F300
X73.179 Y44.328
X73.174 Y44.343
X73.163 Y44.355
X73.147 Y44.359
G3 X73.147 Y44.234 I0 J-0.063
X73.147 Y44.359 I0 J0.063
G1 X73.132 Y44.355
X73.12 Y44.343
X73.116 Y44.328
X73.147 Y44.297
G0 Z5
Z-4.242
G1 Z-5.925 F300
X73.179 Y44.328
X73.174 Y44.343
X73.163 Y44.355
X73.147 Y44.359
G3 X73.147 Y44.234 I0 J-0.063
X73.147 Y44.359 I0 J0.063
G1 X73.132 Y44.355
X73.12 Y44.343
X73.116 Y44.328
X73.147 Y44.297
G0 Z5
Z-5.168
G1 Z-6.85 F300
X73.179 Y44.328
X73.174 Y44.343
X73.163 Y44.355
X73.147 Y44.359
G3 X73.147 Y44.234 I0 J-0.063
X73.147 Y44.359 I0 J0.063
G1 X73.132 Y44.355
X73.12 Y44.343
X73.116 Y44.328
X73.147 Y44.297
G0 Z5
Y36.297
Z0.683
G1 Z-1 F300
X73.179 Y36.328
X73.174 Y36.343
X73.163 Y36.355
X73.147 Y36.359
G3 X73.147 Y36.234 I0 J-0.063
X73.147 Y36.359 I0 J0.063
G1 X73.132 Y36.355
X73.12 Y36.343
X73.116 Y36.328
X73.147 Y36.297
G0 Z5
Z-0.317
G1 Z-2 F300
X73.179 Y36.328
X73.174 Y36.343
X73.163 Y36.355
X73.147 Y36.359
G3 X73.147 Y36.234 I0 J-0.063
X73.147 Y36.359 I0 J0.063
G1 X73.132 Y36.355
X73.12 Y36.343
X73.116 Y36.328
X73.147 Y36.297
G0 Z5
Z-1.317
G1 Z-3 F300
X73.179 Y36.328
X73.174 Y36.343
X73.163 Y36.355
X73.147 Y36.359
G3 X73.147 Y36.234 I0 J-0.063
X73.147 Y36.359 I0 J0.063
G1 X73.132 Y36.355
X73.12 Y36.343
X73.116 Y36.328
X73.147 Y36.297
G0 Z5
Z-2.318
G1 Z-4 F300
X73.179 Y36.328
X73.174 Y36.343
X73.163 Y36.355
X73.147 Y36.359
G3 X73.147 Y36.234 I0 J-0.063
X73.147 Y36.359 I0 J0.063
G1 X73.132 Y36.355
X73.12 Y36.343
X73.116 Y36.328
X73.147 Y36.297
G0 Z5
Z-3.318
G1 Z-5 F300
X73.179 Y36.328
X73.174 Y36.343
X73.163 Y36.355
X73.147 Y36.359
G3 X73.147 Y36.234 I0 J-0.063
X73.147 Y36.359 I0 J0.063
G1 X73.132 Y36.355
X73.12 Y36.343
X73.116 Y36.328
X73.147 Y36.297
G0 Z5
Z-4.242
G1 Z-5.925 F300
X73.179 Y36.328
X73.174 Y36.343
X73.163 Y36.355
X73.147 Y36.359
G3 X73.147 Y36.234 I0 J-0.063
X73.147 Y36.359 I0 J0.063
G1 X73.132 Y36.355
X73.12 Y36.343
X73.116 Y36.328
X73.147 Y36.297
G0 Z5
Z-5.168
G1 Z-6.85 F300
X73.179 Y36.328
X73.174 Y36.343
X73.163 Y36.355
X73.147 Y36.359
G3 X73.147 Y36.234 I0 J-0.063
X73.147 Y36.359 I0 J0.063
G1 X73.132 Y36.355
X73.12 Y36.343
X73.116 Y36.328
X73.147 Y36.297
G0 Z5
Y28.297
Z0.683
G1 Z-1 F300
X73.179 Y28.328
X73.174 Y28.343
X73.163 Y28.355
X73.147 Y28.359
G3 X73.147 Y28.234 I0 J-0.063
X73.147 Y28.359 I0 J0.063
G1 X73.132 Y28.355
X73.12 Y28.343
X73.116 Y28.328
X73.147 Y28.297
G0 Z5
Z-0.317
G1 Z-2 F300
X73.179 Y28.328
X73.174 Y28.343
X73.163 Y28.355
X73.147 Y28.359
G3 X73.147 Y28.234 I0 J-0.063
X73.147 Y28.359 I0 J0.063
G1 X73.132 Y28.355
X73.12 Y28.343
X73.116 Y28.328
X73.147 Y28.297
G0 Z5
Z-1.317
G1 Z-3 F300
X73.179 Y28.328
X73.174 Y28.343
X73.163 Y28.355
X73.147 Y28.359
G3 X73.147 Y28.234 I0 J-0.063
X73.147 Y28.359 I0 J0.063
G1 X73.132 Y28.355
X73.12 Y28.343
X73.116 Y28.328
X73.147 Y28.297
G0 Z5
Z-2.318
G1 Z-4 F300
X73.179 Y28.328
X73.174 Y28.343
X73.163 Y28.355
X73.147 Y28.359
G3 X73.147 Y28.234 I0 J-0.063
X73.147 Y28.359 I0 J0.063
G1 X73.132 Y28.355
X73.12 Y28.343
X73.116 Y28.328
X73.147 Y28.297
G0 Z5
Z-3.318
G1 Z-5 F300
X73.179 Y28.328
X73.174 Y28.343
X73.163 Y28.355
X73.147 Y28.359
G3 X73.147 Y28.234 I0 J-0.063
X73.147 Y28.359 I0 J0.063
G1 X73.132 Y28.355
X73.12 Y28.343
X73.116 Y28.328
X73.147 Y28.297
G0 Z5
Z-4.242
G1 Z-5.925 F300
X73.179 Y28.328
X73.174 Y28.343
X73.163 Y28.355
X73.147 Y28.359
G3 X73.147 Y28.234 I0 J-0.063
X73.147 Y28.359 I0 J0.063
G1 X73.132 Y28.355
X73.12 Y28.343
X73.116 Y28.328
X73.147 Y28.297
G0 Z5
Z-5.168
G1 Z-6.85 F300
X73.179 Y28.328
X73.174 Y28.343
X73.163 Y28.355
X73.147 Y28.359
G3 X73.147 Y28.234 I0 J-0.063
X73.147 Y28.359 I0 J0.063
G1 X73.132 Y28.355
X73.12 Y28.343
X73.116 Y28.328
X73.147 Y28.297
G0 Z5
Y20.297
Z0.683
G1 Z-1 F300
X73.179 Y20.328
X73.174 Y20.343
X73.163 Y20.355
X73.147 Y20.359
G3 X73.147 Y20.234 I0 J-0.063
X73.147 Y20.359 I0 J0.063
G1 X73.132 Y20.355
X73.12 Y20.343
X73.116 Y20.328
X73.147 Y20.297
G0 Z5
Z-0.317
G1 Z-2 F300
X73.179 Y20.328
X73.174 Y20.343
X73.163 Y20.355
X73.147 Y20.359
G3 X73.147 Y20.234 I0 J-0.063
X73.147 Y20.359 I0 J0.063
G1 X73.132 Y20.355
X73.12 Y20.343
X73.116 Y20.328
X73.147 Y20.297
G0 Z5
Z-1.317
G1 Z-3 F300
X73.179 Y20.328
X73.174 Y20.343
X73.163 Y20.355
X73.147 Y20.359
G3 X73.147 Y20.234 I0 J-0.063
X73.147 Y20.359 I0 J0.063
G1 X73.132 Y20.355
X73.12 Y20.343
X73.116 Y20.328
X73.147 Y20.297
G0 Z5
Z-2.318
G1 Z-4 F300
X73.179 Y20.328
X73.174 Y20.343
X73.163 Y20.355
X73.147 Y20.359
G3 X73.147 Y20.234 I0 J-0.063
X73.147 Y20.359 I0 J0.063
G1 X73.132 Y20.355
X73.12 Y20.343
X73.116 Y20.328
X73.147 Y20.297
G0 Z5
Z-3.318
G1 Z-5 F300
X73.179 Y20.328
X73.174 Y20.343
X73.163 Y20.355
X73.147 Y20.359
G3 X73.147 Y20.234 I0 J-0.063
X73.147 Y20.359 I0 J0.063
G1 X73.132 Y20.355
X73.12 Y20.343
X73.116 Y20.328
X73.147 Y20.297
G0 Z5
Z-4.242
G1 Z-5.925 F300
X73.179 Y20.328
X73.174 Y20.343
X73.163 Y20.355
X73.147 Y20.359
G3 X73.147 Y20.234 I0 J-0.063
X73.147 Y20.359 I0 J0.063
G1 X73.132 Y20.355
X73.12 Y20.343
X73.116 Y20.328
X73.147 Y20.297
G0 Z5
Z-5.168
G1 Z-6.85 F300
X73.179 Y20.328
X73.174 Y20.343
X73.163 Y20.355
X73.147 Y20.359
G3 X73.147 Y20.234 I0 J-0.063
X73.147 Y20.359 I0 J0.063
G1 X73.132 Y20.355
X73.12 Y20.343
X73.116 Y20.328
X73.147 Y20.297
G0 Z5
Y12.297
Z0.683
G1 Z-1 F300
X73.179 Y12.328
X73.174 Y12.343
X73.163 Y12.355
X73.147 Y12.359
G3 X73.147 Y12.234 I0 J-0.063
X73.147 Y12.359 I0 J0.063
G1 X73.132 Y12.355
X73.12 Y12.343
X73.116 Y12.328
X73.147 Y12.297
G0 Z5
Z-0.317
G1 Z-2 F300
X73.179 Y12.328
X73.174 Y12.343
X73.163 Y12.355
X73.147 Y12.359
G3 X73.147 Y12.234 I0 J-0.063
X73.147 Y12.359 I0 J0.063
G1 X73.132 Y12.355
X73.12 Y12.343
X73.116 Y12.328
X73.147 Y12.297
G0 Z5
Z-1.317
G1 Z-3 F300
X73.179 Y12.328
X73.174 Y12.343
X73.163 Y12.355
X73.147 Y12.359
G3 X73.147 Y12.234 I0 J-0.063
X73.147 Y12.359 I0 J0.063
G1 X73.132 Y12.355
X73.12 Y12.343
X73.116 Y12.328
X73.147 Y12.297
G0 Z5
Z-2.318
G1 Z-4 F300
X73.179 Y12.328
X73.174 Y12.343
X73.163 Y12.355
X73.147 Y12.359
G3 X73.147 Y12.234 I0 J-0.063
X73.147 Y12.359 I0 J0.063
G1 X73.132 Y12.355
X73.12 Y12.343
X73.116 Y12.328
X73.147 Y12.297
G0 Z5
Z-3.318
G1 Z-5 F300
X73.179 Y12.328
X73.174 Y12.343
X73.163 Y12.355
X73.147 Y12.359
G3 X73.147 Y12.234 I0 J-0.063
X73.147 Y12.359 I0 J0.063
G1 X73.132 Y12.355
X73.12 Y12.343
X73.116 Y12.328
X73.147 Y12.297
G0 Z5
Z-4.242
G1 Z-5.925 F300
X73.179 Y12.328
X73.174 Y12.343
X73.163 Y12.355
X73.147 Y12.359
G3 X73.147 Y12.234 I0 J-0.063
X73.147 Y12.359 I0 J0.063
G1 X73.132 Y12.355
X73.12 Y12.343
X73.116 Y12.328
X73.147 Y12.297
G0 Z5
Z-5.168
G1 Z-6.85 F300
X73.179 Y12.328
X73.174 Y12.343
X73.163 Y12.355
X73.147 Y12.359
G3 X73.147 Y12.234 I0 J-0.063
X73.147 Y12.359 I0 J0.063
G1 X73.132 Y12.355
X73.12 Y12.343
X73.116 Y12.328
X73.147 Y12.297
G0 Z5
X95.028 Y25.6
Z0.683
G1 Z-1 F300
X94.985 Y25.611
X94.974 Y25.599
X94.97 Y25.583
X94.974 Y25.568
G3 X95.081 Y25.633 I0.053 J0.032
X94.974 Y25.568 I-0.053 J-0.032
G1 X94.986 Y25.557
X95.002 Y25.553
X95.017 Y25.557
X95.028 Y25.6
G0 Z5
Z-0.317
G1 Z-2 F300
X94.985 Y25.611
X94.974 Y25.599
X94.97 Y25.583
X94.974 Y25.568
G3 X95.081 Y25.633 I0.053 J0.032
X94.974 Y25.568 I-0.053 J-0.032
G1 X94.986 Y25.557
X95.002 Y25.553
X95.017 Y25.557
X95.028 Y25.6
G0 Z5
Z-1.317
G1 Z-3 F300
X94.985 Y25.611
X94.974 Y25.599
X94.97 Y25.583
X94.974 Y25.568
G3 X95.081 Y25.633 I0.053 J0.032
X94.974 Y25.568 I-0.053 J-0.032
G1 X94.986 Y25.557
X95.002 Y25.553
X95.017 Y25.557
X95.028 Y25.6
G0 Z5
Z-2.318
G1 Z-4 F300
X94.985 Y25.611
X94.974 Y25.599
X94.97 Y25.583
X94.974 Y25.568
G3 X95.081 Y25.633 I0.053 J0.032
X94.974 Y25.568 I-0.053 J-0.032
G1 X94.986 Y25.557
X95.002 Y25.553
X95.017 Y25.557
X95.028 Y25.6
G0 Z5
Z-3.318
G1 Z-5 F300
X94.985 Y25.611
X94.974 Y25.599
X94.97 Y25.583
X94.974 Y25.568
G3 X95.081 Y25.633 I0.053 J0.032
X94.974 Y25.568 I-0.053 J-0.032
G1 X94.986 Y25.557
X95.002 Y25.553
X95.017 Y25.557
X95.028 Y25.6
G0 Z5
Z-4.242
G1 Z-5.925 F300
X94.985 Y25.611
X94.974 Y25.599
X94.97 Y25.583
X94.974 Y25.568
G3 X95.081 Y25.633 I0.053 J0.032
X94.974 Y25.568 I-0.053 J-0.032
G1 X94.986 Y25.557
X95.002 Y25.553
X95.017 Y25.557
X95.028 Y25.6
G0 Z5
Z-5.168
G1 Z-6.85 F300
X94.985 Y25.611
X94.974 Y25.599
X94.97 Y25.583
X94.974 Y25.568
G3 X95.081 Y25.633 I0.053 J0.032
X94.974 Y25.568 I-0.053 J-0.032
G1 X94.986 Y25.557
X95.002 Y25.553
X95.017 Y25.557
X95.028 Y25.6
G0 Z5
X114.343 Y29.949
Z0.683
G1 Z-1 F300
X114.306 Y29.972
X114.292 Y29.965
X114.283 Y29.951
X114.282 Y29.935
G3 X114.404 Y29.962 I0.061 J0.014
X114.282 Y29.935 I-0.061 J-0.014
G1 X114.29 Y29.921
X114.303 Y29.912
X114.32 Y29.911
X114.343 Y29.949
G0 Z5
Z-0.317
G1 Z-2 F300
X114.306 Y29.972
X114.292 Y29.965
X114.283 Y29.951
X114.282 Y29.935
G3 X114.404 Y29.962 I0.061 J0.014
X114.282 Y29.935 I-0.061 J-0.014
G1 X114.29 Y29.921
X114.303 Y29.912
X114.32 Y29.911
X114.343 Y29.949
G0 Z5
Z-1.317
G1 Z-3 F300
X114.306 Y29.972
X114.292 Y29.965
X114.283 Y29.951
X114.282 Y29.935
G3 X114.404 Y29.962 I0.061 J0.014
X114.282 Y29.935 I-0.061 J-0.014
G1 X114.29 Y29.921
X114.303 Y29.912
X114.32 Y29.911
X114.343 Y29.949
G0 Z5
Z-2.318
G1 Z-4 F300
X114.306 Y29.972
X114.292 Y29.965
X114.283 Y29.951
X114.282 Y29.935
G3 X114.404 Y29.962 I0.061 J0.014
X114.282 Y29.935 I-0.061 J-0.014
G1 X114.29 Y29.921
X114.303 Y29.912
X114.32 Y29.911
X114.343 Y29.949
G0 Z5
Z-3.318
G1 Z-5 F300
X114.306 Y29.972
X114.292 Y29.965
X114.283 Y29.951
X114.282 Y29.935
G3 X114.404 Y29.962 I0.061 J0.014
X114.282 Y29.935 I-0.061 J-0.014
G1 X114.29 Y29.921
X114.303 Y29.912
X114.32 Y29.911
X114.343 Y29.949
G0 Z5
Z-4.242
G1 Z-5.925 F300
X114.306 Y29.972
X114.292 Y29.965
X114.283 Y29.951
X114.282 Y29.935
G3 X114.404 Y29.962 I0.061 J0.014
X114.282 Y29.935 I-0.061 J-0.014
G1 X114.29 Y29.921
X114.303 Y29.912
X114.32 Y29.911
X114.343 Y29.949
G0 Z5
Z-5.168
G1 Z-6.85 F300
X114.306 Y29.972
X114.292 Y29.965
X114.283 Y29.951
X114.282 Y29.935
G3 X114.404 Y29.962 I0.061 J0.014
X114.282 Y29.935 I-0.061 J-0.014
G1 X114.29 Y29.921
X114.303 Y29.912
X114.32 Y29.911
X114.343 Y29.949
G0 Z5
X109.995 Y49.264
Z0.683
G1 Z-1 F300
X109.971 Y49.227
X109.979 Y49.213
X109.992 Y49.204
X110.008 Y49.203
G3 X109.981 Y49.325 I-0.014 J0.061
X110.008 Y49.203 I0.014 J-0.061
G1 X110.023 Y49.211
X110.031 Y49.224
X110.032 Y49.241
X109.995 Y49.264
G0 Z5
Z-0.317
G1 Z-2 F300
X109.971 Y49.227
X109.979 Y49.213
X109.992 Y49.204
X110.008 Y49.203
G3 X109.981 Y49.325 I-0.014 J0.061
X110.008 Y49.203 I0.014 J-0.061
G1 X110.023 Y49.211
X110.031 Y49.224
X110.032 Y49.241
X109.995 Y49.264
G0 Z5
Z-1.317
G1 Z-3 F300
X109.971 Y49.227
X109.979 Y49.213
X109.992 Y49.204
X110.008 Y49.203
G3 X109.981 Y49.325 I-0.014 J0.061
X110.008 Y49.203 I0.014 J-0.061
G1 X110.023 Y49.211
X110.031 Y49.224
X110.032 Y49.241
X109.995 Y49.264
G0 Z5
Z-2.318
G1 Z-4 F300
X109.971 Y49.227
X109.979 Y49.213
X109.992 Y49.204
X110.008 Y49.203
G3 X109.981 Y49.325 I-0.014 J0.061
X110.008 Y49.203 I0.014 J-0.061
G1 X110.023 Y49.211
X110.031 Y49.224
X110.032 Y49.241
X109.995 Y49.264
G0 Z5
Z-3.318
G1 Z-5 F300
X109.971 Y49.227
X109.979 Y49.213
X109.992 Y49.204
X110.008 Y49.203
G3 X109.981 Y49.325 I-0.014 J0.061
X110.008 Y49.203 I0.014 J-0.061
G1 X110.023 Y49.211
X110.031 Y49.224
X110.032 Y49.241
X109.995 Y49.264
G0 Z5
Z-4.242
G1 Z-5.925 F300
X109.971 Y49.227
X109.979 Y49.213
X109.992 Y49.204
X110.008 Y49.203
G3 X109.981 Y49.325 I-0.014 J0.061
X110.008 Y49.203 I0.014 J-0.061
G1 X110.023 Y49.211
X110.031 Y49.224
X110.032 Y49.241
X109.995 Y49.264
G0 Z5
Z-5.168
G1 Z-6.85 F300
X109.971 Y49.227
X109.979 Y49.213
X109.992 Y49.204
X110.008 Y49.203
G3 X109.981 Y49.325 I-0.014 J0.061
X110.008 Y49.203 I0.014 J-0.061
G1 X110.023 Y49.211
X110.031 Y49.224
X110.032 Y49.241
X109.995 Y49.264
G0 Z5
X90.679 Y44.916
Z0.683
G1 Z-1 F300
X90.717 Y44.892
X90.731 Y44.9
X90.74 Y44.913
Y44.929
G3 X90.618 Y44.902 I-0.061 J-0.014
X90.74 Y44.929 I0.061 J0.014
G1 X90.733 Y44.944
X90.719 Y44.952
X90.703 Y44.953
X90.679 Y44.916
G0 Z5
Z-0.317
G1 Z-2 F300
X90.717 Y44.892
X90.731 Y44.9
X90.74 Y44.913
Y44.929
G3 X90.618 Y44.902 I-0.061 J-0.014
X90.74 Y44.929 I0.061 J0.014
G1 X90.733 Y44.944
X90.719 Y44.952
X90.703 Y44.953
X90.679 Y44.916
G0 Z5
Z-1.317
G1 Z-3 F300
X90.717 Y44.892
X90.731 Y44.9
X90.74 Y44.913
Y44.929
G3 X90.618 Y44.902 I-0.061 J-0.014
X90.74 Y44.929 I0.061 J0.014
G1 X90.733 Y44.944
X90.719 Y44.952
X90.703 Y44.953
X90.679 Y44.916
G0 Z5
Z-2.318
G1 Z-4 F300
X90.717 Y44.892
X90.731 Y44.9
X90.74 Y44.913
Y44.929
G3 X90.618 Y44.902 I-0.061 J-0.014
X90.74 Y44.929 I0.061 J0.014
G1 X90.733 Y44.944
X90.719 Y44.952
X90.703 Y44.953
X90.679 Y44.916
G0 Z5
Z-3.318
G1 Z-5 F300
X90.717 Y44.892
X90.731 Y44.9
X90.74 Y44.913
Y44.929
G3 X90.618 Y44.902 I-0.061 J-0.014
X90.74 Y44.929 I0.061 J0.014
G1 X90.733 Y44.944
X90.719 Y44.952
X90.703 Y44.953
X90.679 Y44.916
G0 Z5
Z-4.242
G1 Z-5.925 F300
X90.717 Y44.892
X90.731 Y44.9
X90.74 Y44.913
Y44.929
G3 X90.618 Y44.902 I-0.061 J-0.014
X90.74 Y44.929 I0.061 J0.014
G1 X90.733 Y44.944
X90.719 Y44.952
X90.703 Y44.953
X90.679 Y44.916
G0 Z5
Z-5.168
G1 Z-6.85 F300
X90.717 Y44.892
X90.731 Y44.9
X90.74 Y44.913
Y44.929
G3 X90.618 Y44.902 I-0.061 J-0.014
X90.74 Y44.929 I0.061 J0.014
G1 X90.733 Y44.944
X90.719 Y44.952
X90.703 Y44.953
X90.679 Y44.916
G0 Z15

(Large holes)
X102.742 Y35.941
Z15
Z0.504
G3 X102.28 Y38.922 Z0.339 I-0.231 J1.49 F300
X102.742 Y35.941 Z0.174 I0.231 J-1.49
X102.28 Y38.922 Z0.008 I-0.231 J1.49
X102.742 Y35.941 Z-0.157 I0.231 J-1.49
X102.28 Y38.922 Z-0.323 I-0.231 J1.49
X102.742 Y35.941 Z-0.488 I0.231 J-1.49
X102.28 Y38.922 Z-0.654 I-0.231 J1.49
X102.742 Y35.941 Z-0.819 I0.231 J-1.49
X102.28 Y38.922 Z-0.985 I-0.231 J1.49
X102.742 Y35.941 Z-1.15 I0.231 J-1.49
X102.28 Y38.922 Z-1.315 I-0.231 J1.49
X102.742 Y35.941 Z-1.481 I0.231 J-1.49
X102.28 Y38.922 Z-1.646 I-0.231 J1.49
X102.742 Y35.941 Z-1.812 I0.231 J-1.49
X102.28 Y38.922 Z-1.977 I-0.231 J1.49
X102.742 Y35.941 Z-2.143 I0.231 J-1.49
X102.28 Y38.922 Z-2.308 I-0.231 J1.49
X102.742 Y35.941 Z-2.474 I0.231 J-1.49
X102.28 Y38.922 Z-2.639 I-0.231 J1.49
X102.742 Y35.941 Z-2.805 I0.231 J-1.49
X102.28 Y38.922 Z-2.97 I-0.231 J1.49
X102.742 Y35.941 Z-3.135 I0.231 J-1.49
X102.28 Y38.922 Z-3.301 I-0.231 J1.49
X102.742 Y35.941 Z-3.466 I0.231 J-1.49
X102.28 Y38.922 Z-3.632 I-0.231 J1.49
X102.742 Y35.941 Z-3.797 I0.231 J-1.49
X102.28 Y38.922 Z-3.963 I-0.231 J1.49
X102.742 Y35.941 Z-4.128 I0.231 J-1.49
X102.28 Y38.922 Z-4.294 I-0.231 J1.49
X102.742 Y35.941 Z-4.459 I0.231 J-1.49
X102.28 Y38.922 Z-4.625 I-0.231 J1.49
X102.742 Y35.941 Z-4.79 I0.231 J-1.49
X102.28 Y38.922 Z-4.955 I-0.231 J1.49
X102.742 Y35.941 Z-5.121 I0.231 J-1.49
X102.28 Y38.922 Z-5.286 I-0.231 J1.49
X102.742 Y35.941 Z-5.452 I0.231 J-1.49
X102.28 Y38.922 Z-5.617 I-0.231 J1.49
X102.742 Y35.941 Z-5.783 I0.231 J-1.49
X102.28 Y38.922 Z-5.948 I-0.231 J1.49
X102.742 Y35.941 Z-6.114 I0.231 J-1.49
X102.28 Y38.922 Z-6.279 I-0.231 J1.49
X102.742 Y35.941 Z-6.444 I0.231 J-1.49
X102.28 Y38.922 Z-6.61 I-0.231 J1.49
X102.742 Y35.941 Z-6.775 I0.231 J-1.49
X104.019 Y37.432 Z-6.85 I-0.231 J1.49
X101.003 Y37.432 I-1.508 J0
X104.019 Y37.432 I1.508 J0
G1 X104.02 Y37.632 F600
X104.036 Y37.73
G3 X104.041 Y38.092 I-0.725 J0.191
X103.833 Y38.56 I-1.17 J-0.241
X103.172 Y39.084 I-1.255 J-0.903
X101.682 Y39.025 I-0.682 J-1.6
X101.75 Y35.802 I0.826 J-1.595
X104.197 Y36.802 I0.763 J1.628
G1 X104.256 Y36.964
G3 X104.366 Y37.393 I-2.506 J0.867
X104.332 Y38.166 I-1.83 J0.306
X103.591 Y39.191 I-1.739 J-0.476
X102.236 Y39.513 I-1.106 J-1.641
X100.48 Y38.002 I0.251 J-2.069
X104.149 Y36.099 I2.031 J-0.572
X104.699 Y37.344 I-1.98 J1.618
X104.658 Y38.178 I-2.231 J0.309
X103.558 Y39.582 I-2.113 J-0.524
X101.944 Y39.793 I-1.088 J-2.043
X100.175 Y38.14 I0.538 J-2.348
X104.004 Y35.498 I2.335 J-0.711
X104.615 Y36.16 I-1.61 J2.099
X105.062 Y37.552 I-2.267 J1.496
X104.737 Y38.884 I-2.547 J0.085
X103.146 Y40.105 I-2.239 J-1.271
X101.269 Y39.917 I-0.687 J-2.598
X99.723 Y37.492 I1.217 J-2.481
X103.874 Y34.996 I2.788 J-0.063
X104.732 Y35.717 I-1.428 J2.571
X105.419 Y37.59 I-2.343 J1.922
X105.13 Y38.893 I-2.926 J0.034
X103.412 Y40.396 I-2.637 J-1.28
X101.528 Y40.407 I-0.959 J-2.872
X99.635 Y38.715 I0.944 J-2.96
X101.174 Y34.576 I2.871 J-1.288
X103.879 Y34.589 I1.339 J2.856
X104.884 Y35.329 I-1.414 J2.973
X105.786 Y37.509 I-2.475 J2.301
X105.491 Y38.988 I-3.3 J0.11
X103.724 Y40.674 I-3.002 J-1.377
X101.762 Y40.852 I-1.273 J-3.139
X99.707 Y39.561 I0.699 J-3.393
X99.259 Y36.065 I2.788 J-2.134
X103.408 Y34.019 I3.252 J1.364
X104.516 Y34.519 I-0.906 J3.484
X106.163 Y37.414 I-2.089 J3.105
X105.734 Y39.351 I-3.675 J0.202
X103.937 Y40.998 I-3.254 J-1.746
X102.077 Y41.286 I-1.488 J-3.455
X100.022 Y40.435 I0.374 J-3.813
X98.655 Y38.088 I2.458 J-3.002
X100.28 Y34.214 I3.851 J-0.662
X103.102 Y33.561 I2.232 J3.217
X104.373 Y33.98 I-0.595 J3.938
X105.573 Y34.942 I-1.91 J3.612
X106.548 Y37.303 I-3.135 J2.677
X106.376 Y38.826 I-4.07 J0.31
X104.771 Y40.985 I-3.888 J-1.214
X103.174 Y41.633 I-2.315 J-3.413
X101.428 Y41.572 I-0.731 J-4.119
X99.841 Y40.796 I1.024 J-4.105
X98.618 Y39.268 I2.632 J-3.359
X98.278 Y36.628 I3.877 J-1.843
X100.439 Y33.651 I4.231 J0.799
X102.526 Y33.12 I2.074 J3.782
X103.614 Y33.261 I-0.012 J4.351
X104.48 Y33.587 I-1.111 J4.265
X105.119 Y33.978 I-1.999 J3.984
X105.688 Y34.474 I-2.659 J3.623
G1 X105.817 Y34.613
G3 X106.369 Y35.383 I-3.374 J3.005
X106.688 Y36.071 I-3.927 J2.235
X106.886 Y36.802 I-4.237 J1.544
X106.958 Y37.741 I-4.419 J0.81
X106.784 Y38.853 I-4.474 J-0.129
X105.904 Y40.498 I-4.295 J-1.24
X105.225 Y41.15 I-3.428 J-2.896
G1 X105.073 Y41.263
X104.916 Y41.369
X104.755 Y41.469
X104.589 Y41.562
X104.42 Y41.648
X104.247 Y41.727
X104.07 Y41.799
X103.891 Y41.863
X103.708 Y41.92
X103.523 Y41.969
X103.336 Y42.011
X103.148 Y42.044
X102.958 Y42.07
X102.766 Y42.087
X102.574 Y42.097
X102.381 Y42.099
X102.189 Y42.092
X101.996 Y42.077
X101.804 Y42.055
X101.613 Y42.024
X101.423 Y41.985
X101.235 Y41.938
X101.049 Y41.883
X100.865 Y41.82
X100.683 Y41.75
X100.505 Y41.672
X100.33 Y41.586
X100.158 Y41.494
X99.991 Y41.393
X99.827 Y41.286
X99.669 Y41.172
X99.515 Y41.052
X99.366 Y40.924
X99.222 Y40.791
X99.084 Y40.652
X98.952 Y40.507
X98.826 Y40.356
X98.707 Y40.2
X98.594 Y40.039
X98.488 Y39.874
X98.389 Y39.704
X98.297 Y39.53
X98.212 Y39.352
X98.135 Y39.171
X98.066 Y38.986
X98.004 Y38.799
X97.95 Y38.609
X97.905 Y38.417
X97.867 Y38.224
X97.837 Y38.029
X97.816 Y37.832
X97.803 Y37.635
X97.799 Y37.438
X97.802 Y37.24
X97.814 Y37.043
X97.834 Y36.846
X97.863 Y36.651
X97.899 Y36.456
X97.944 Y36.264
X97.997 Y36.073
X98.058 Y35.885
X98.127 Y35.699
X98.203 Y35.517
X98.287 Y35.338
X98.378 Y35.162
X98.477 Y34.991
X98.583 Y34.823
X98.696 Y34.661
X98.816 Y34.503
X98.942 Y34.35
X99.074 Y34.203
X99.213 Y34.062
X99.357 Y33.926
X99.507 Y33.797
X99.662 Y33.674
X99.823 Y33.557
X99.988 Y33.448
X100.157 Y33.345
X100.331 Y33.25
X100.509 Y33.162
X100.69 Y33.082
X100.874 Y33.009
X101.061 Y32.944
X101.251 Y32.887
X101.444 Y32.838
X101.638 Y32.797
X101.834 Y32.764
X102.031 Y32.74
X102.23 Y32.723
X102.429 Y32.716
X102.629
X102.828 Y32.725
X103.028 Y32.742
X103.226 Y32.768
X103.423 Y32.802
X103.619 Y32.844
X103.813 Y32.894
X104.004 Y32.953
X104.193 Y33.019
X104.379 Y33.093
X104.561 Y33.174
X104.741 Y33.263
X104.916 Y33.36
X105.087 Y33.463
X105.254 Y33.574
X105.416 Y33.691
X105.573 Y33.815
X105.725 Y33.945
X105.872 Y34.081
X106.013 Y34.223
X106.148 Y34.371
X106.276 Y34.524
X106.399 Y34.682
X106.515 Y34.845
X106.624 Y35.013
X106.726 Y35.185
X106.821 Y35.361
X106.909 Y35.541
X106.99 Y35.724
X107.063 Y35.91
X107.129 Y36.099
X107.186 Y36.291
X107.236 Y36.484
X107.278 Y36.68
X107.312 Y36.877
X107.338 Y37.075
X107.356 Y37.275
X107.366 Y37.475
X107.367 Y37.675
X107.361 Y37.875
X107.346 Y38.074
X107.323 Y38.273
X107.292 Y38.471
X107.252 Y38.667
X107.205 Y38.861
X107.15 Y39.054
X107.087 Y39.244
X107.017 Y39.431
X106.938 Y39.615
X106.853 Y39.796
X106.759 Y39.973
X106.659 Y40.146
X106.552 Y40.315
X106.438 Y40.479
X106.317 Y40.638
X106.19 Y40.793
X106.056 Y40.942
X105.917 Y41.085
X105.771 Y41.223
X105.621 Y41.355
X105.465 Y41.48
X105.304 Y41.599
X105.138 Y41.711
X104.968 Y41.817
X104.794 Y41.915
X104.616 Y42.006
X104.434 Y42.09
X104.25 Y42.167
X104.062 Y42.236
X103.871 Y42.297
X103.679 Y42.351
X103.484 Y42.397
X103.287 Y42.435
X103.09 Y42.465
X102.891 Y42.488
X102.691 Y42.502
X102.491 Y42.508
X102.291 Y42.506
X102.091 Y42.496
X101.892 Y42.478
X101.694 Y42.452
X101.496 Y42.419
G3 X100.726 Y42.206 I0.948 J-4.934
X99.826 Y41.773 I1.731 J-4.753
X99.028 Y41.172 I2.638 J-4.334
X98.484 Y40.586 I3.421 J-3.715
X97.778 Y39.381 I4.005 J-3.16
X97.486 Y38.426 I4.711 J-1.958
X97.391 Y37.232 I5 J-0.999
X97.699 Y35.668 I5.131 J0.195
X98.239 Y34.599 I4.796 J1.754
X99.315 Y33.422 I4.286 J2.842
X100.333 Y32.79 I3.186 J3.995
X101.864 Y32.345 I2.189 J4.667
X102.862 Y32.315 I0.653 J5.102
X104.785 Y32.823 I-0.35 J5.211
X106.242 Y33.866 I-2.311 J4.771
X107.085 Y34.979 I-3.758 J3.722
X107.697 Y36.664 I-4.647 J2.64
X107.585 Y39.042 I-5.243 J0.945
X106.697 Y40.822 I-5.107 J-1.435
X105.712 Y41.812 I-4.197 J-3.195
X103.549 Y42.807 I-3.266 J-4.25
X101.168 Y42.772 I-1.113 J-5.299
X98.876 Y41.594 I1.292 J-5.331
X97.239 Y39.123 I3.61 J-4.17
X97.04 Y36.553 I5.267 J-1.699
X97.913 Y34.336 I5.474 J0.875
X99.467 Y32.798 I4.613 J3.107
X102.49 Y31.886 I3.053 J4.653
X105.693 Y32.867 I0.024 J5.642
X107.63 Y35.115 I-3.216 J4.727
X108.185 Y38.03 I-5.154 J2.492
X107.42 Y40.493 I-5.679 J-0.412
X105.652 Y42.37 I-4.929 J-2.873
X103.043 Y43.311 I-3.204 J-4.795
X100.481 Y43.006 I-0.61 J-5.782
X97.895 Y41.187 I1.963 J-5.541
X96.647 Y38.493 I4.569 J-3.751
X96.799 Y35.721 I5.83 J-1.07
X98.055 Y33.467 I5.685 J1.691
X100.518 Y31.809 I4.445 J3.945
X103.079 Y31.491 I1.999 J5.617
X105.711 Y32.375 I-0.557 J6.018
X107.882 Y34.678 I-3.224 J5.212
X108.614 Y37.956 I-5.404 J2.928
X107.93 Y40.445 I-6.099 J-0.337
X106.125 Y42.555 I-5.432 J-2.82
X103.578 Y43.661 I-3.67 J-4.964
X100.419 Y43.434 I-1.145 J-6.129
X97.909 Y41.842 I2.014 J-5.952
X96.346 Y39.087 I4.546 J-4.4
X96.26 Y36.115 I6.123 J-1.663
X97.532 Y33.427 I6.22 J1.298
X99.883 Y31.606 I4.961 J3.979
X102.803 Y31.045 I2.633 J5.816
X105.489 Y31.759 I-0.275 J6.442
X107.984 Y34.014 I-2.991 J5.816
X109.048 Y37.408 I-5.505 J3.59
X108.464 Y40.325 I-6.545 J0.206
X106.806 Y42.556 I-5.962 J-2.699
X103.99 Y44.011 I-4.348 J-4.961
X101.014 Y44.043 I-1.557 J-6.459
X98.009 Y42.529 I1.42 J-6.558
X96.106 Y39.753 I4.445 J-5.086
X95.771 Y36.403 I6.371 J-2.328
X99.718 Y31.209 I6.736 J1.021
X104.791 Y30.992 I2.809 J6.258
X107.873 Y33.136 I-2.283 J6.569
X108.696 Y40.836 I-5.403 J4.471
X104.689 Y44.26 I-6.238 J-3.245
X99.607 Y44.044 I-2.259 J-6.74
X96.229 Y41.036 I2.841 J-6.592
X96.054 Y34.129 I6.263 J-3.614
X101.353 Y30.269 I6.459 J3.299
X106.004 Y31.052 I1.174 J7.23
X108.962 Y33.956 I-3.508 J6.531
X106.543 Y43.841 I-6.487 J3.651
X100.988 Y44.924 I-4.11 J-6.293
X97.288 Y43.05 I1.445 J-7.445
X94.875 Y36.543 I5.188 J-5.624
X99.973 Y30.17 I7.633 J0.881
X104.888 Y30.105 I2.555 J7.3
X108.748 Y32.834 I-2.382 J7.464
X106.395 Y44.446 I-6.275 J4.773
X100.208 Y45.187 I-3.965 J-6.905
X96.124 Y42.439 I2.23 J-7.721
X94.735 Y35.064 I6.359 J-5.017
X101.946 Y29.318 I7.778 J2.364
X105.849 Y29.999 I0.586 J8.164
X110.509 Y35.436 I-3.359 J7.595
X106.558 Y44.861 I-8.033 J2.173
X102.143 Y45.939 I-4.12 J-7.291
X95.88 Y42.84 I0.291 J-8.467
X94.259 Y35.117 I6.598 J-5.417
X100.028 Y29.224 I8.25 J2.307
X106.085 Y29.619 I2.503 J8.261
X109.935 Y33.002 I-3.581 J7.959
X106.529 Y45.382 I-7.462 J4.605
X101.891 Y46.372 I-4.093 J-7.814
X95.254 Y42.759 I0.544 J-8.903
X93.896 Y34.773 I7.225 J-5.337
X100.078 Y28.746 I8.614 J2.651
X106.689 Y29.415 I2.454 J8.745
X111.297 Y34.953 I-4.195 J8.176
X108.028 Y44.959 I-8.82 J2.655
X101.637 Y46.801 I-5.594 J-7.399
X94.872 Y42.995 I0.798 J-9.332
X93.364 Y35.008 I7.605 J-5.572
X99.738 Y28.379 I9.145 J2.415
X106.927 Y29.034 I2.794 J9.11
X110.587 Y32.36 I-4.415 J8.536
X111.956 Y39.467 I-8.109 J5.246
G1 X111.91 Y39.657
X111.837 Y39.949
X111.813 Y40.038
X111.785 Y40.133
X111.666 Y40.514
X111.646 Y40.575
X111.599 Y40.705
X111.49 Y40.99
X111.415 Y41.181
X111.2 Y41.657
X110.979 Y42.079
X110.95 Y42.133
X110.884 Y42.248
X110.694 Y42.565
G3 X110.275 Y43.181 I-9.741 J-6.186
G1 X110.027 Y43.5
X109.979 Y43.561
X109.932 Y43.618
X109.646 Y43.943
X109.551 Y44.046
X109.265 Y44.336
X109.17 Y44.432
X108.789 Y44.775
X108.694 Y44.854
X108.404 Y45.085
X108.278 Y45.18
X108.218 Y45.225
X107.932 Y45.426
X107.837 Y45.49
X107.728 Y45.561
X107.456 Y45.729
X107.361 Y45.786
X107.254 Y45.847
X106.885 Y46.046
X106.79 Y46.093
X106.409 Y46.271
X106.314 Y46.313
X106.218 Y46.352
X105.837 Y46.502
X105.742 Y46.536
X105.266 Y46.692
X105.226 Y46.704
X104.79 Y46.819
X104.6 Y46.863
X104.219 Y46.94
X104.123 Y46.957
X103.838 Y46.998
X103.647 Y47.024
X103.552 Y47.036
X103.457 Y47.045
X103.076 Y47.075
X102.886 Y47.085
X102.6 Y47.092
X102.409 Y47.091
X102.029 Y47.08
X101.933 Y47.075
X101.648 Y47.051
X101.457 Y47.034
X101.362 Y47.024
X101.267 Y47.011
X100.886 Y46.954
X100.695 Y46.919
X100.314 Y46.839
X100.219 Y46.818
X99.743 Y46.687
X99.648 Y46.659
X99.172 Y46.497
X99.077 Y46.461
X98.696 Y46.306
X98.519 Y46.228
X98.12 Y46.037
G3 X97.553 Y45.723 I8.258 J-15.592
G1 X97.146 Y45.466
X97.077 Y45.42
X96.696 Y45.145
X96.615 Y45.085
X96.264 Y44.799
X96.152 Y44.704
X95.839 Y44.417
X95.742 Y44.323
X95.458 Y44.031
X95.373 Y43.942
X95.045 Y43.561
X94.968 Y43.466
X94.822 Y43.276
X94.677 Y43.085
X94.601 Y42.976
X94.355 Y42.609
X94.296 Y42.514
X94.072 Y42.133
X93.971 Y41.943
X93.825 Y41.657
X93.744 Y41.487
X93.61 Y41.181
X93.554 Y41.049
X93.53 Y40.99
X93.363 Y40.536
X93.325 Y40.419
X93.21 Y40.038
X93.182 Y39.943
X93.068 Y39.467
X93.03 Y39.276
X92.963 Y38.895
X92.948 Y38.8
X92.903 Y38.419
X92.893 Y38.324
X92.884 Y38.229
X92.873 Y38.038
X92.856 Y37.753
X92.854 Y37.658
X92.853 Y37.562
X92.855 Y37.181
X92.857 Y37.086
X92.88 Y36.705
X92.887 Y36.608
X92.895 Y36.515
X92.906 Y36.42
X92.952 Y36.039
G3 X93.073 Y35.372 I14.154 J2.223
G1 X93.173 Y34.964
X93.19 Y34.896
X93.246 Y34.706
X93.334 Y34.42
X93.364 Y34.325
X93.398 Y34.23
X93.554 Y33.815
X93.62 Y33.658
X93.747 Y33.373
X93.79 Y33.277
X93.839 Y33.177
X94.03 Y32.81
X94.086 Y32.706
X94.315 Y32.32
X94.37 Y32.23
X94.629 Y31.849
X94.696 Y31.753
X94.989 Y31.373
X95.065 Y31.278
X95.363 Y30.935
X95.397 Y30.897
X95.458 Y30.832
X95.768 Y30.516
X95.867 Y30.421
X96.125 Y30.187
X96.22 Y30.102
X96.293 Y30.04
X96.648 Y29.754
X96.696 Y29.718
X96.912 Y29.564
X97.077 Y29.446
X97.187 Y29.373
X97.267 Y29.321
X97.553 Y29.142
X97.648 Y29.086
X97.743 Y29.032
X98.029 Y28.876
X98.171 Y28.802
X98.6 Y28.6
X98.696 Y28.557
X99.077 Y28.405
X99.172 Y28.368
X99.291 Y28.326
X99.648 Y28.207
X99.743 Y28.176
X100.219 Y28.048
G3 X100.886 Y27.909 I3.373 J14.538
G1 X101.299 Y27.85
X101.362 Y27.841
X101.457 Y27.83
X101.552 Y27.821
X101.933 Y27.789
G3 X102.6 Y27.772 I0.779 J17.328
G1 X102.981 Y27.785
X103.076 Y27.789
X103.171 Y27.795
X103.266 Y27.803
X103.647 Y27.839
X103.743 Y27.851
X104.123 Y27.909
X104.314 Y27.941
X104.79 Y28.045
X104.98 Y28.095
X105.266 Y28.175
X105.361 Y28.202
X105.457 Y28.232
X105.837 Y28.363
X105.933 Y28.399
X106.028 Y28.436
X106.314 Y28.554
X106.504 Y28.636
X106.98 Y28.866
X107.376 Y29.087
X107.456 Y29.133
X107.686 Y29.278
X107.932 Y29.437
X108.123 Y29.572
X108.373 Y29.754
G3 X108.885 Y30.172 I-11.451 J14.548
G1 X109.265 Y30.525
X109.361 Y30.622
X109.646 Y30.92
X109.712 Y30.992
X109.955 Y31.278
X110.033 Y31.373
X110.109 Y31.468
X110.325 Y31.754
X110.408 Y31.868
X110.503 Y32.009
X110.65 Y32.23
X110.711 Y32.325
X110.769 Y32.42
X110.934 Y32.706
X110.988 Y32.801
X111.039 Y32.896
X111.265 Y33.345
X111.456 Y33.784
X111.482 Y33.849
X111.519 Y33.944
X111.658 Y34.325
X111.69 Y34.42
X111.837 Y34.91
G3 X111.989 Y35.563 I-15.142 J3.883
G1 X112.054 Y35.944
X112.07 Y36.039
X112.082 Y36.134
X112.105 Y36.324
X112.137 Y36.61
X112.143 Y36.705
X112.163 Y37.086
X112.17 Y37.277
X112.167 Y37.658
X112.165 Y37.753
X112.161 Y37.848
X112.15 Y38.038
X112.131 Y38.324
X112.121 Y38.419
X112.073 Y38.8
X112.045 Y38.991
X111.992 Y39.276
X111.976 Y39.31 Z-6.844 F300
X111.963 Y39.341 Z-6.827
X111.952 Y39.365 Z-6.8
X111.945 Y39.381 Z-6.766
X111.943 Y39.386 Z-6.729
G0 Z5
X160.217 Y35.942
Z0.504
G3 X159.755 Y38.923 Z0.339 I-0.231 J1.49 F300
X160.217 Y35.942 Z0.174 I0.231 J-1.49
X159.755 Y38.923 Z0.008 I-0.231 J1.49
X160.217 Y35.942 Z-0.157 I0.231 J-1.49
X159.755 Y38.923 Z-0.323 I-0.231 J1.49
X160.217 Y35.942 Z-0.488 I0.231 J-1.49
X159.755 Y38.923 Z-0.654 I-0.231 J1.49
X160.217 Y35.942 Z-0.819 I0.231 J-1.49
X159.755 Y38.923 Z-0.985 I-0.231 J1.49
X160.217 Y35.942 Z-1.15 I0.231 J-1.49
X159.755 Y38.923 Z-1.315 I-0.231 J1.49
X160.217 Y35.942 Z-1.481 I0.231 J-1.49
X159.755 Y38.923 Z-1.646 I-0.231 J1.49
X160.217 Y35.942 Z-1.812 I0.231 J-1.49
X159.755 Y38.923 Z-1.977 I-0.231 J1.49
X160.217 Y35.942 Z-2.143 I0.231 J-1.49
X159.755 Y38.923 Z-2.308 I-0.231 J1.49
X160.217 Y35.942 Z-2.474 I0.231 J-1.49
X159.755 Y38.923 Z-2.639 I-0.231 J1.49
X160.217 Y35.942 Z-2.805 I0.231 J-1.49
X159.755 Y38.923 Z-2.97 I-0.231 J1.49
X160.217 Y35.942 Z-3.135 I0.231 J-1.49
X159.755 Y38.923 Z-3.301 I-0.231 J1.49
X160.217 Y35.942 Z-3.466 I0.231 J-1.49
X159.755 Y38.923 Z-3.632 I-0.231 J1.49
X160.217 Y35.942 Z-3.797 I0.231 J-1.49
X159.755 Y38.923 Z-3.963 I-0.231 J1.49
X160.217 Y35.942 Z-4.128 I0.231 J-1.49
X159.755 Y38.923 Z-4.294 I-0.231 J1.49
X160.217 Y35.942 Z-4.459 I0.231 J-1.49
X159.755 Y38.923 Z-4.625 I-0.231 J1.49
X160.217 Y35.942 Z-4.79 I0.231 J-1.49
X159.755 Y38.923 Z-4.955 I-0.231 J1.49
X160.217 Y35.942 Z-5.121 I0.231 J-1.49
X159.755 Y38.923 Z-5.286 I-0.231 J1.49
X160.217 Y35.942 Z-5.452 I0.231 J-1.49
X159.755 Y38.923 Z-5.617 I-0.231 J1.49
X160.217 Y35.942 Z-5.783 I0.231 J-1.49
X159.755 Y38.923 Z-5.948 I-0.231 J1.49
X160.217 Y35.942 Z-6.114 I0.231 J-1.49
X159.755 Y38.923 Z-6.279 I-0.231 J1.49
X160.217 Y35.942 Z-6.444 I0.231 J-1.49
X159.755 Y38.923 Z-6.61 I-0.231 J1.49
X160.217 Y35.942 Z-6.775 I0.231 J-1.49
X161.494 Y37.432 Z-6.85 I-0.231 J1.49
X158.478 Y37.432 I-1.508 J0
X161.494 Y37.432 I1.508 J0
G1 Y37.632 F600
X161.511 Y37.731
G3 X161.516 Y38.093 I-0.725 J0.191
X161.307 Y38.561 I-1.17 J-0.241
X160.646 Y39.085 I-1.255 J-0.903
X159.156 Y39.026 I-0.682 J-1.6
X159.224 Y35.803 I0.826 J-1.595
X161.671 Y36.803 I0.763 J1.628
G1 X161.731 Y36.965
G3 X161.84 Y37.394 I-2.507 J0.867
X161.806 Y38.167 I-1.83 J0.306
X161.066 Y39.192 I-1.739 J-0.476
X159.711 Y39.514 I-1.106 J-1.641
X157.954 Y38.003 I0.251 J-2.069
X161.624 Y36.1 I2.031 J-0.572
X162.173 Y37.344 I-1.98 J1.618
X162.132 Y38.179 I-2.231 J0.309
X161.032 Y39.582 I-2.113 J-0.524
X159.418 Y39.793 I-1.088 J-2.043
X157.65 Y38.14 I0.538 J-2.348
X161.478 Y35.499 I2.335 J-0.711
X162.089 Y36.16 I-1.61 J2.099
X162.536 Y37.553 I-2.267 J1.496
X162.211 Y38.885 I-2.547 J0.085
X160.621 Y40.106 I-2.239 J-1.271
X158.743 Y39.917 I-0.687 J-2.598
X157.197 Y37.493 I1.217 J-2.481
X161.349 Y34.997 I2.788 J-0.063
X162.206 Y35.717 I-1.428 J2.571
X162.893 Y37.591 I-2.343 J1.922
X162.604 Y38.894 I-2.926 J0.034
X160.887 Y40.397 I-2.637 J-1.28
X159.003 Y40.408 I-0.959 J-2.872
X157.11 Y38.715 I0.944 J-2.96
X158.649 Y34.577 I2.871 J-1.288
X161.353 Y34.59 I1.339 J2.856
X162.358 Y35.33 I-1.414 J2.973
X163.261 Y37.51 I-2.475 J2.301
X162.965 Y38.989 I-3.3 J0.11
X161.199 Y40.675 I-3.002 J-1.377
X159.237 Y40.852 I-1.273 J-3.139
X157.182 Y39.561 I0.699 J-3.393
X156.734 Y36.066 I2.788 J-2.134
X160.883 Y34.019 I3.252 J1.364
X161.991 Y34.519 I-0.906 J3.484
X163.638 Y37.414 I-2.089 J3.105
X163.209 Y39.352 I-3.675 J0.202
X161.411 Y40.999 I-3.254 J-1.746
X159.552 Y41.287 I-1.488 J-3.455
X157.624 Y40.536 I0.374 J-3.811
X156.161 Y38.25 I2.329 J-3.101
X157.493 Y34.414 I3.819 J-0.823
X160.576 Y33.561 I2.494 J3.018
X161.847 Y33.98 I-0.594 J3.936
X163.047 Y34.943 I-1.91 J3.612
X164.023 Y37.304 I-3.135 J2.677
X163.85 Y38.827 I-4.07 J0.31
X162.246 Y40.986 I-3.888 J-1.214
X160.649 Y41.634 I-2.315 J-3.413
X158.902 Y41.573 I-0.731 J-4.119
X157.315 Y40.797 I1.024 J-4.106
X156.093 Y39.269 I2.632 J-3.359
X155.722 Y36.807 I3.876 J-1.842
X157.913 Y33.652 I4.261 J0.621
X159.819 Y33.124 I2.074 J3.78
X160.909 Y33.219 I0.171 J4.341
X161.786 Y33.508 I-0.929 J4.299
X162.439 Y33.871 I-1.826 J4.055
X163.027 Y34.342 I-2.5 J3.725
G1 X163.162 Y34.475
X163.291 Y34.614
G3 X164.162 Y36.072 I-3.375 J3.006
G1 X164.223 Y36.252
G3 X164.428 Y37.365 I-4.291 J1.362
X164.348 Y38.489 I-4.475 J0.247
X163.497 Y40.353 I-4.383 J-0.875
X162.846 Y41.032 I-3.545 J-2.747
X162.229 Y41.47 I-2.906 J-3.441
G1 X162.064 Y41.563
X161.894 Y41.649
X161.721 Y41.728
X161.545 Y41.8
X161.365 Y41.864
X161.183 Y41.921
X160.998 Y41.97
X160.811 Y42.011
X160.622 Y42.045
X160.432 Y42.071
X160.241 Y42.088
X160.048 Y42.098
X159.856 Y42.099
X159.663 Y42.093
X159.47 Y42.078
X159.278 Y42.055
X159.087 Y42.024
X158.898 Y41.986
X158.709 Y41.939
X158.523 Y41.884
X158.339 Y41.821
X158.158 Y41.751
X157.979 Y41.673
X157.804 Y41.587
X157.633 Y41.494
X157.465 Y41.394
X157.302 Y41.287
X157.143 Y41.173
X156.989 Y41.052
X156.84 Y40.925
X156.697 Y40.792
X156.559 Y40.653
X156.427 Y40.507
X156.301 Y40.357
X156.181 Y40.201
X156.068 Y40.04
X155.962 Y39.875
X155.863 Y39.705
X155.771 Y39.531
X155.686 Y39.353
X155.609 Y39.171
X155.54 Y38.987
X155.478 Y38.8
X155.425 Y38.61
X155.379 Y38.418
X155.341 Y38.224
X155.312 Y38.029
X155.291 Y37.833
X155.278 Y37.636
X155.273 Y37.438
X155.277 Y37.241
X155.289 Y37.044
X155.309 Y36.847
X155.337 Y36.651
X155.374 Y36.457
X155.419 Y36.264
X155.471 Y36.074
X155.532 Y35.886
X155.601 Y35.7
X155.677 Y35.518
X155.761 Y35.338
X155.853 Y35.163
X155.952 Y34.991
X156.058 Y34.824
X156.17 Y34.662
X156.29 Y34.504
X156.416 Y34.351
X156.549 Y34.204
X156.687 Y34.062
X156.832 Y33.927
X156.982 Y33.797
X157.137 Y33.674
X157.297 Y33.558
X157.462 Y33.449
X157.632 Y33.346
X157.805 Y33.251
X157.983 Y33.163
X158.164 Y33.082
X158.349 Y33.01
X158.536 Y32.945
X158.726 Y32.888
X158.918 Y32.839
X159.112 Y32.798
X159.309 Y32.765
X159.506 Y32.74
X159.704 Y32.724
X159.904 Y32.716
X160.103 Y32.717
X160.303 Y32.726
X160.502 Y32.743
X160.701 Y32.769
X160.898 Y32.803
X161.093 Y32.845
X161.287 Y32.895
X161.478 Y32.953
X161.667 Y33.02
X161.853 Y33.093
X162.036 Y33.175
X162.215 Y33.264
X162.39 Y33.361
X162.561 Y33.464
X162.728 Y33.575
X162.89 Y33.692
X163.048 Y33.815
X163.2 Y33.946
X163.346 Y34.082
X163.487 Y34.224
X163.622 Y34.372
X163.751 Y34.525
X163.873 Y34.683
X163.989 Y34.846
X164.098 Y35.014
X164.201 Y35.186
X164.296 Y35.362
X164.384 Y35.541
X164.465 Y35.724
X164.538 Y35.911
X164.603 Y36.1
X164.661 Y36.291
X164.711 Y36.485
X164.753 Y36.681
X164.787 Y36.878
X164.813 Y37.076
X164.83 Y37.276
X164.84 Y37.475
X164.842 Y37.675
X164.835 Y37.875
X164.82 Y38.075
X164.797 Y38.274
X164.766 Y38.471
X164.727 Y38.668
X164.68 Y38.862
X164.625 Y39.054
X164.562 Y39.244
X164.491 Y39.431
X164.413 Y39.616
X164.327 Y39.796
X164.234 Y39.973
X164.133 Y40.147
X164.026 Y40.315
X163.912 Y40.48
X163.791 Y40.639
X163.664 Y40.794
X163.531 Y40.943
X163.391 Y41.086
X163.246 Y41.224
X163.095 Y41.355
X162.939 Y41.481
X162.778 Y41.6
X162.613 Y41.712
X162.443 Y41.817
X162.268 Y41.916
X162.09 Y42.007
X161.909 Y42.091
X161.724 Y42.168
X161.536 Y42.237
X161.346 Y42.298
X161.153 Y42.352
X160.958 Y42.398
X160.762 Y42.436
X160.564 Y42.466
X160.365 Y42.488
X160.166 Y42.502
X159.966 Y42.509
X159.766 Y42.507
X159.566 Y42.497
X159.366 Y42.479
X159.168 Y42.453
X158.971 Y42.419
G3 X158.2 Y42.206 I0.948 J-4.934
X157.131 Y41.666 I1.732 J-4.756
X156.358 Y41.035 I2.8 J-4.218
X155.723 Y40.263 I3.579 J-3.588
X155.004 Y38.622 I4.252 J-2.842
X154.866 Y37.633 I4.937 J-1.192
X155.108 Y35.858 I5.129 J-0.205
X155.506 Y34.941 I4.843 J1.556
X156.79 Y33.423 I4.493 J2.499
X157.807 Y32.791 I3.186 J3.994
X159.537 Y32.324 I2.188 J4.663
X160.932 Y32.39 I0.454 J5.159
X162.612 Y33.012 I-0.944 J5.132
X164.235 Y34.476 I-2.67 J4.59
X165.171 Y36.665 I-4.327 J3.146
X165.059 Y39.043 I-5.244 J0.945
X164.047 Y40.98 I-5.109 J-1.436
X163.025 Y41.932 I-4.08 J-3.358
X160.629 Y42.876 I-3.105 J-4.367
X158.448 Y42.722 I-0.719 J-5.359
X156.35 Y41.595 I1.486 J-5.281
X154.713 Y39.123 I3.61 J-4.17
X154.55 Y36.357 I5.265 J-1.699
X155.387 Y34.337 I5.438 J1.072
X156.942 Y32.799 I4.613 J3.106
X159.964 Y31.887 I3.053 J4.653
X163.168 Y32.868 I0.024 J5.642
X165.104 Y35.116 I-3.216 J4.727
X165.659 Y38.031 I-5.154 J2.492
X164.895 Y40.494 I-5.679 J-0.412
X163.126 Y42.37 I-4.929 J-2.873
X160.517 Y43.311 I-3.204 J-4.795
X157.768 Y42.936 I-0.61 J-5.785
X155.369 Y41.188 I2.147 J-5.466
X154.121 Y38.493 I4.568 J-3.751
X154.273 Y35.722 I5.83 J-1.07
X155.529 Y33.468 I5.685 J1.691
X157.993 Y31.81 I4.445 J3.945
X160.554 Y31.491 I1.999 J5.617
X163.185 Y32.375 I-0.557 J6.018
X165.356 Y34.679 I-3.224 J5.212
X166.088 Y37.957 I-5.404 J2.928
X165.405 Y40.446 I-6.099 J-0.337
X163.758 Y42.435 I-5.427 J-2.817
X160.855 Y43.696 I-3.832 J-4.851
X158.084 Y43.496 I-0.949 J-6.153
X155.246 Y41.696 I1.828 J-6.021
X153.82 Y39.088 I4.679 J-4.253
X153.735 Y36.115 I6.122 J-1.663
X155.006 Y33.428 I6.22 J1.298
X157.357 Y31.607 I4.961 J3.978
X160.278 Y31.045 I2.633 J5.815
X162.963 Y31.76 I-0.275 J6.442
X165.458 Y34.015 I-2.991 J5.816
X166.523 Y37.409 I-5.505 J3.59
X165.939 Y40.326 I-6.545 J0.206
X164.28 Y42.557 I-5.962 J-2.699
X161.464 Y44.012 I-4.348 J-4.961
X158.488 Y44.044 I-1.557 J-6.459
X155.483 Y42.53 I1.419 J-6.558
X153.581 Y39.753 I4.445 J-5.086
X153.246 Y36.404 I6.371 J-2.328
X157.192 Y31.209 I6.736 J1.021
X162.266 Y30.993 I2.809 J6.258
X165.218 Y32.985 I-2.281 J6.565
X166.171 Y40.837 I-5.274 J4.624
X162.164 Y44.261 I-6.239 J-3.245
X157.081 Y44.045 I-2.259 J-6.74
X153.703 Y41.036 I2.841 J-6.592
X153.528 Y34.13 I6.262 J-3.614
X158.827 Y30.269 I6.459 J3.299
X163.478 Y31.052 I1.174 J7.23
X166.436 Y33.957 I-3.508 J6.531
X165.392 Y42.686 I-6.487 J3.651
X160.852 Y45.005 I-5.475 J-5.114
X155.219 Y43.44 I-0.946 J-7.514
X152.304 Y37.142 I4.725 J-6.01
X156.707 Y30.474 I7.675 J0.281
X162.171 Y30.048 I3.294 J6.989
X165.842 Y32.371 I-2.185 J7.511
X163.869 Y44.447 I-5.894 J5.236
X157.682 Y45.188 I-3.965 J-6.905
X153.599 Y42.44 I2.23 J-7.721
X152.154 Y35.257 I6.359 J-5.016
X159.421 Y29.319 I7.834 J2.172
X163.324 Y30 I0.586 J8.163
X167.983 Y35.436 I-3.359 J7.595
X164.032 Y44.862 I-8.033 J2.173
X159.618 Y45.94 I-4.12 J-7.291
X153.355 Y42.841 I0.291 J-8.467
X151.733 Y35.118 I6.598 J-5.417
X157.502 Y29.225 I8.25 J2.307
X163.559 Y29.62 I2.503 J8.261
X167.303 Y32.834 I-3.579 J7.956
X164.003 Y45.382 I-7.355 J4.774
X159.365 Y46.373 I-4.093 J-7.814
X152.728 Y42.76 I0.544 J-8.903
X151.431 Y34.584 I7.226 J-5.337
X157.552 Y28.747 I8.553 J2.842
X164.163 Y29.416 I2.454 J8.745
X168.771 Y34.954 I-4.195 J8.176
X165.341 Y45.079 I-8.82 J2.655
X159.111 Y46.802 I-5.433 J-7.518
X152.346 Y42.996 I0.798 J-9.332
X150.891 Y34.816 I7.606 J-5.572
X157.213 Y28.38 I9.092 J2.608
X164.401 Y29.035 I2.794 J9.11
X168.062 Y32.361 I-4.415 J8.536
X169.432 Y39.455 I-8.11 J5.247
G1 X169.422 Y39.503
X169.313 Y39.943
X169.287 Y40.038
X169.256 Y40.144
X169.142 Y40.514
X169.109 Y40.609
X168.966 Y40.99
X168.928 Y41.086
X168.888 Y41.181
X168.762 Y41.466
X168.674 Y41.657
X168.477 Y42.038
X168.427 Y42.133
X168.201 Y42.514
X168.143 Y42.609
X168.015 Y42.8
X167.886 Y42.99
X167.819 Y43.085
X167.675 Y43.276
X167.529 Y43.466
X167.447 Y43.569
X167.256 Y43.789
X167.123 Y43.942
X167.066 Y44.005
X166.755 Y44.323
X166.685 Y44.394
X166.304 Y44.74
X166.235 Y44.799
X165.828 Y45.127
X165.447 Y45.399
X165.352 Y45.466
X164.876 Y45.764
X164.59 Y45.922
X164.378 Y46.037
X164.114 Y46.163
X163.924 Y46.252
X163.763 Y46.323
X163.352 Y46.487
X163.282 Y46.513
X162.876 Y46.649
X162.781 Y46.679
X162.686 Y46.707
X162.21 Y46.834
X161.734 Y46.932
X161.638 Y46.949
X161.543 Y46.965
X161.162 Y47.02
X161.067 Y47.031
X160.972 Y47.041
X160.591 Y47.073
X160.496 Y47.08
X160.019 Y47.092
X159.924 Y47.091
X159.829 Y47.09
X159.448 Y47.077
X159.353 Y47.072
X159.162 Y47.055
X158.877 Y47.027
X158.782 Y47.017
X158.401 Y46.959
X158.305 Y46.945
X158.115 Y46.908
X157.734 Y46.826
X157.639 Y46.803
X157.163 Y46.671
X157.068 Y46.641
X156.591 Y46.477
X156.444 Y46.418
X156.115 Y46.283
X155.925 Y46.196
X155.597 Y46.037
X155.449 Y45.96
X155.068 Y45.747
X154.973 Y45.689
X154.592 Y45.446
X154.482 Y45.371
X154.09 Y45.085
X154.02 Y45.03
X153.735 Y44.795
X153.627 Y44.704
X153.522 Y44.609
X153.259 Y44.364
X153.215 Y44.323
X153.068 Y44.171
X152.849 Y43.942
X152.783 Y43.868
X152.497 Y43.533
X152.369 Y43.371
X152.154 Y43.085
X152.116 Y43.033
X152.021 Y42.894
X151.83 Y42.608
X151.735 Y42.453
X151.545 Y42.127
X151.445 Y41.943
X151.252 Y41.562
X151.209 Y41.466
X151.044 Y41.086
X151.005 Y40.99
X150.878 Y40.645
X150.831 Y40.514
X150.8 Y40.419
X150.77 Y40.324
X150.657 Y39.943
X150.633 Y39.848
X150.543 Y39.467
X150.523 Y39.372
X150.504 Y39.276
X150.438 Y38.895
X150.423 Y38.8
X150.4 Y38.61
X150.358 Y38.229
X150.352 Y38.134
X150.332 Y37.753
X150.327 Y37.562
X150.33 Y37.181
X150.332 Y37.086
X150.343 Y36.896
X150.362 Y36.61
X150.37 Y36.515
X150.38 Y36.42
X150.428 Y36.039
X150.457 Y35.848
X150.547 Y35.372
X150.642 Y34.991
X150.666 Y34.896
X150.692 Y34.801
X150.72 Y34.706
X150.84 Y34.325
X150.878 Y34.215
X151.017 Y33.849
X151.068 Y33.72
X151.094 Y33.658
X151.266 Y33.277
X151.31 Y33.182
X151.559 Y32.706
X151.83 Y32.256
X151.846 Y32.23
X151.926 Y32.111
X152.171 Y31.754
X152.211 Y31.699
X152.497 Y31.331
X152.54 Y31.278
X152.622 Y31.182
X152.878 Y30.892
X152.973 Y30.79
X153.259 Y30.5
X153.354 Y30.409
X153.449 Y30.322
X153.735 Y30.066
X153.766 Y30.04
X154.125 Y29.754
X154.211 Y29.688
X154.306 Y29.62
X154.592 Y29.42
X154.687 Y29.355
X155.068 Y29.119
X155.163 Y29.061
X155.644 Y28.802
X156.052 Y28.611
X156.115 Y28.582
X156.271 Y28.516
X156.591 Y28.39
X156.687 Y28.353
X156.782 Y28.319
X157.163 Y28.194
X157.258 Y28.165
X157.366 Y28.135
X157.734 Y28.039
X157.829 Y28.015
X158.305 Y27.92
X158.496 Y27.889
X158.877 Y27.836
X158.972 Y27.825
X159.353 Y27.795
X159.543 Y27.782
X159.829 Y27.774
X160.019 Y27.772
X160.496 Y27.786
X160.686 Y27.799
X161.067 Y27.833
X161.162 Y27.844
X161.543 Y27.9
X161.734 Y27.931
X162.114 Y28.011
X162.21 Y28.031
G3 X162.876 Y28.214 I-3.375 J13.59
G1 X163.257 Y28.344
X163.352 Y28.378
G3 X163.924 Y28.611 I-5.25 J13.67
G1 X164.209 Y28.747
X164.4 Y28.838
X164.781 Y29.048
X164.876 Y29.1
X165.01 Y29.183
X165.352 Y29.399
X165.453 Y29.468
X165.828 Y29.738
X166.019 Y29.89
X166.209 Y30.045
X166.304 Y30.124
X166.59 Y30.385
X166.731 Y30.516
X166.876 Y30.664
X167.066 Y30.861
X167.185 Y30.992
X167.447 Y31.296
X167.542 Y31.414
X167.828 Y31.789
X167.87 Y31.849
X168.126 Y32.23
X168.186 Y32.325
X168.411 Y32.706
X168.463 Y32.801
X168.494 Y32.858
X168.659 Y33.182
X168.706 Y33.277
X168.751 Y33.373
X168.918 Y33.753
X168.958 Y33.849
X169.098 Y34.23
X169.132 Y34.325
X169.164 Y34.42
X169.256 Y34.722
X169.309 Y34.896
X169.355 Y35.087
X169.424 Y35.372
X169.463 Y35.563
X169.542 Y36.011
X169.58 Y36.324
X169.602 Y36.515
X169.612 Y36.61
X169.618 Y36.705
X169.64 Y37.086
X169.644 Y37.277
X169.643 Y37.658
X169.642 Y37.753
X169.619 Y38.134
X169.613 Y38.229
X169.605 Y38.324
X169.595 Y38.419
X169.548 Y38.8
X169.542 Y38.847
X169.518 Y38.991
X169.447 Y39.383
X169.43 Y39.467
X169.422 Y39.503
X169.405 Y39.536 Z-6.844 F300
X169.39 Y39.566 Z-6.827
X169.378 Y39.589 Z-6.8
X169.37 Y39.604 Z-6.766
X169.367 Y39.61 Z-6.729
G0 Z5
X160.217 Y102.869
Z0.504
G3 X159.755 Y105.849 Z0.339 I-0.231 J1.49 F300
X160.217 Y102.869 Z0.174 I0.231 J-1.49
X159.755 Y105.849 Z0.008 I-0.231 J1.49
X160.217 Y102.869 Z-0.157 I0.231 J-1.49
X159.755 Y105.849 Z-0.323 I-0.231 J1.49
X160.217 Y102.869 Z-0.488 I0.231 J-1.49
X159.755 Y105.849 Z-0.654 I-0.231 J1.49
X160.217 Y102.869 Z-0.819 I0.231 J-1.49
X159.755 Y105.849 Z-0.985 I-0.231 J1.49
X160.217 Y102.869 Z-1.15 I0.231 J-1.49
X159.755 Y105.849 Z-1.315 I-0.231 J1.49
X160.217 Y102.869 Z-1.481 I0.231 J-1.49
X159.755 Y105.849 Z-1.646 I-0.231 J1.49
X160.217 Y102.869 Z-1.812 I0.231 J-1.49
X159.755 Y105.849 Z-1.977 I-0.231 J1.49
X160.217 Y102.869 Z-2.143 I0.231 J-1.49
X159.755 Y105.849 Z-2.308 I-0.231 J1.49
X160.217 Y102.869 Z-2.474 I0.231 J-1.49
X159.755 Y105.849 Z-2.639 I-0.231 J1.49
X160.217 Y102.869 Z-2.805 I0.231 J-1.49
X159.755 Y105.849 Z-2.97 I-0.231 J1.49
X160.217 Y102.869 Z-3.135 I0.231 J-1.49
X159.755 Y105.849 Z-3.301 I-0.231 J1.49
X160.217 Y102.869 Z-3.466 I0.231 J-1.49
X159.755 Y105.849 Z-3.632 I-0.231 J1.49
X160.217 Y102.869 Z-3.797 I0.231 J-1.49
X159.755 Y105.849 Z-3.963 I-0.231 J1.49
X160.217 Y102.869 Z-4.128 I0.231 J-1.49
X159.755 Y105.849 Z-4.294 I-0.231 J1.49
X160.217 Y102.869 Z-4.459 I0.231 J-1.49
X159.755 Y105.849 Z-4.625 I-0.231 J1.49
X160.217 Y102.869 Z-4.79 I0.231 J-1.49
X159.755 Y105.849 Z-4.955 I-0.231 J1.49
