(Orbital_Motor_Mount)
(Machine)
(  vendor: Carbide 3D)
(  model: 3)
(  description: Shapeoko)
(T2  D=3.175 CR=0 - ZMIN=-6.8 - flat end mill)
G90 G94
G17
G21
G28 G91 Z0
G90

(Mount Holes)
T2 M6
S22000 M3
G54
G0 X97.522 Y57.72
Z15
Z0.683
G1 Z-1 F50
X97.553 Y57.751
X97.568 Y57.747
X97.58 Y57.736
X97.584 Y57.72
G2 X97.459 Y57.72 I-0.063 J0
X97.584 Y57.72 I0.063 J0
G1 X97.58 Y57.704
X97.568 Y57.693
X97.553 Y57.689
X97.522 Y57.72
G0 Z5
Z-0.317
G1 Z-2 F50
X97.553 Y57.751
X97.568 Y57.747
X97.58 Y57.736
X97.584 Y57.72
G2 X97.459 Y57.72 I-0.063 J0
X97.584 Y57.72 I0.063 J0
G1 X97.58 Y57.704
X97.568 Y57.693
X97.553 Y57.689
X97.522 Y57.72
G0 Z5
Z-1.317
G1 Z-3 F50
X97.553 Y57.751
X97.568 Y57.747
X97.58 Y57.736
X97.584 Y57.72
G2 X97.459 Y57.72 I-0.063 J0
X97.584 Y57.72 I0.063 J0
G1 X97.58 Y57.704
X97.568 Y57.693
X97.553 Y57.689
X97.522 Y57.72
G0 Z5
Z-2.318
G1 Z-4 F50
X97.553 Y57.751
X97.568 Y57.747
X97.58 Y57.736
X97.584 Y57.72
G2 X97.459 Y57.72 I-0.063 J0
X97.584 Y57.72 I0.063 J0
G1 X97.58 Y57.704
X97.568 Y57.693
X97.553 Y57.689
X97.522 Y57.72
G0 Z5
Z-3.318
G1 Z-5 F50
X97.553 Y57.751
X97.568 Y57.747
X97.58 Y57.736
X97.584 Y57.72
G2 X97.459 Y57.72 I-0.063 J0
X97.584 Y57.72 I0.063 J0
G1 X97.58 Y57.704
X97.568 Y57.693
X97.553 Y57.689
X97.522 Y57.72
G0 Z5
Z-4.218
G1 Z-5.9 F50
X97.553 Y57.751
X97.568 Y57.747
X97.58 Y57.736
X97.584 Y57.72
G2 X97.459 Y57.72 I-0.063 J0
X97.584 Y57.72 I0.063 J0
G1 X97.58 Y57.704
X97.568 Y57.693
X97.553 Y57.689
X97.522 Y57.72
G0 Z5
Z-5.117
G1 Z-6.8 F50
X97.553 Y57.751
X97.568 Y57.747
X97.58 Y57.736
X97.584 Y57.72
G2 X97.459 Y57.72 I-0.063 J0
X97.584 Y57.72 I0.063 J0
G1 X97.58 Y57.704
X97.568 Y57.693
X97.553 Y57.689
X97.522 Y57.72
G0 Z5
X105.522
Z0.683
G1 Z-1 F50
X105.49 Y57.689
X105.475 Y57.693
X105.463 Y57.704
X105.459 Y57.72
G2 X105.584 Y57.72 I0.063 J0
X105.459 Y57.72 I-0.063 J0
G1 X105.463 Y57.736
X105.475 Y57.747
X105.49 Y57.751
X105.522 Y57.72
G0 Z5
Z-0.317
G1 Z-2 F50
X105.49 Y57.689
X105.475 Y57.693
X105.463 Y57.704
X105.459 Y57.72
G2 X105.584 Y57.72 I0.063 J0
X105.459 Y57.72 I-0.063 J0
G1 X105.463 Y57.736
X105.475 Y57.747
X105.49 Y57.751
X105.522 Y57.72
G0 Z5
Z-1.317
G1 Z-3 F50
X105.49 Y57.689
X105.475 Y57.693
X105.463 Y57.704
X105.459 Y57.72
G2 X105.584 Y57.72 I0.063 J0
X105.459 Y57.72 I-0.063 J0
G1 X105.463 Y57.736
X105.475 Y57.747
X105.49 Y57.751
X105.522 Y57.72
G0 Z5
Z-2.318
G1 Z-4 F50
X105.49 Y57.689
X105.475 Y57.693
X105.463 Y57.704
X105.459 Y57.72
G2 X105.584 Y57.72 I0.063 J0
X105.459 Y57.72 I-0.063 J0
G1 X105.463 Y57.736
X105.475 Y57.747
X105.49 Y57.751
X105.522 Y57.72
G0 Z5
Z-3.318
G1 Z-5 F50
X105.49 Y57.689
X105.475 Y57.693
X105.463 Y57.704
X105.459 Y57.72
G2 X105.584 Y57.72 I0.063 J0
X105.459 Y57.72 I-0.063 J0
G1 X105.463 Y57.736
X105.475 Y57.747
X105.49 Y57.751
X105.522 Y57.72
G0 Z5
Z-4.218
G1 Z-5.9 F50
X105.49 Y57.689
X105.475 Y57.693
X105.463 Y57.704
X105.459 Y57.72
G2 X105.584 Y57.72 I0.063 J0
X105.459 Y57.72 I-0.063 J0
G1 X105.463 Y57.736
X105.475 Y57.747
X105.49 Y57.751
X105.522 Y57.72
G0 Z5
Z-5.117
G1 Z-6.8 F50
X105.49 Y57.689
X105.475 Y57.693
X105.463 Y57.704
X105.459 Y57.72
G2 X105.584 Y57.72 I0.063 J0
X105.459 Y57.72 I-0.063 J0
G1 X105.463 Y57.736
X105.475 Y57.747
X105.49 Y57.751
X105.522 Y57.72
G0 Z5
X113.522
Z0.683
G1 Z-1 F50
X113.49 Y57.689
X113.475 Y57.693
X113.463 Y57.704
X113.459 Y57.72
G2 X113.584 Y57.72 I0.063 J0
X113.459 Y57.72 I-0.063 J0
G1 X113.463 Y57.736
X113.475 Y57.747
X113.49 Y57.751
X113.522 Y57.72
G0 Z5
Z-0.317
G1 Z-2 F50
X113.49 Y57.689
X113.475 Y57.693
X113.463 Y57.704
X113.459 Y57.72
G2 X113.584 Y57.72 I0.063 J0
X113.459 Y57.72 I-0.063 J0
G1 X113.463 Y57.736
X113.475 Y57.747
X113.49 Y57.751
X113.522 Y57.72
G0 Z5
Z-1.317
G1 Z-3 F50
X113.49 Y57.689
X113.475 Y57.693
X113.463 Y57.704
X113.459 Y57.72
G2 X113.584 Y57.72 I0.063 J0
X113.459 Y57.72 I-0.063 J0
G1 X113.463 Y57.736
X113.475 Y57.747
X113.49 Y57.751
X113.522 Y57.72
G0 Z5
Z-2.318
G1 Z-4 F50
X113.49 Y57.689
X113.475 Y57.693
X113.463 Y57.704
X113.459 Y57.72
G2 X113.584 Y57.72 I0.063 J0
X113.459 Y57.72 I-0.063 J0
G1 X113.463 Y57.736
X113.475 Y57.747
X113.49 Y57.751
X113.522 Y57.72
G0 Z5
Z-3.318
G1 Z-5 F50
X113.49 Y57.689
X113.475 Y57.693
X113.463 Y57.704
X113.459 Y57.72
G2 X113.584 Y57.72 I0.063 J0
X113.459 Y57.72 I-0.063 J0
G1 X113.463 Y57.736
X113.475 Y57.747
X113.49 Y57.751
X113.522 Y57.72
G0 Z5
Z-4.218
G1 Z-5.9 F50
X113.49 Y57.689
X113.475 Y57.693
X113.463 Y57.704
X113.459 Y57.72
G2 X113.584 Y57.72 I0.063 J0
X113.459 Y57.72 I-0.063 J0
G1 X113.463 Y57.736
X113.475 Y57.747
X113.49 Y57.751
X113.522 Y57.72
G0 Z5
Z-5.117
G1 Z-6.8 F50
X113.49 Y57.689
X113.475 Y57.693
X113.463 Y57.704
X113.459 Y57.72
G2 X113.584 Y57.72 I0.063 J0
X113.459 Y57.72 I-0.063 J0
G1 X113.463 Y57.736
X113.475 Y57.747
X113.49 Y57.751
X113.522 Y57.72
G0 Z5
X121.522
Z0.683
G1 Z-1 F50
X121.49 Y57.689
X121.475 Y57.693
X121.463 Y57.704
X121.459 Y57.72
G2 X121.584 Y57.72 I0.063 J0
X121.459 Y57.72 I-0.063 J0
G1 X121.463 Y57.736
X121.475 Y57.747
X121.49 Y57.751
X121.522 Y57.72
G0 Z5
Z-0.317
G1 Z-2 F50
X121.49 Y57.689
X121.475 Y57.693
X121.463 Y57.704
X121.459 Y57.72
G2 X121.584 Y57.72 I0.063 J0
X121.459 Y57.72 I-0.063 J0
G1 X121.463 Y57.736
X121.475 Y57.747
X121.49 Y57.751
X121.522 Y57.72
G0 Z5
Z-1.317
G1 Z-3 F50
X121.49 Y57.689
X121.475 Y57.693
X121.463 Y57.704
X121.459 Y57.72
G2 X121.584 Y57.72 I0.063 J0
X121.459 Y57.72 I-0.063 J0
G1 X121.463 Y57.736
X121.475 Y57.747
X121.49 Y57.751
X121.522 Y57.72
G0 Z5
Z-2.318
G1 Z-4 F50
X121.49 Y57.689
X121.475 Y57.693
X121.463 Y57.704
X121.459 Y57.72
G2 X121.584 Y57.72 I0.063 J0
X121.459 Y57.72 I-0.063 J0
G1 X121.463 Y57.736
X121.475 Y57.747
X121.49 Y57.751
X121.522 Y57.72
G0 Z5
Z-3.318
G1 Z-5 F50
X121.49 Y57.689
X121.475 Y57.693
X121.463 Y57.704
X121.459 Y57.72
G2 X121.584 Y57.72 I0.063 J0
X121.459 Y57.72 I-0.063 J0
G1 X121.463 Y57.736
X121.475 Y57.747
X121.49 Y57.751
X121.522 Y57.72
G0 Z5
Z-4.218
G1 Z-5.9 F50
X121.49 Y57.689
X121.475 Y57.693
X121.463 Y57.704
X121.459 Y57.72
G2 X121.584 Y57.72 I0.063 J0
X121.459 Y57.72 I-0.063 J0
G1 X121.463 Y57.736
X121.475 Y57.747
X121.49 Y57.751
X121.522 Y57.72
G0 Z5
Z-5.117
G1 Z-6.8 F50
X121.49 Y57.689
X121.475 Y57.693
X121.463 Y57.704
X121.459 Y57.72
G2 X121.584 Y57.72 I0.063 J0
X121.459 Y57.72 I-0.063 J0
G1 X121.463 Y57.736
X121.475 Y57.747
X121.49 Y57.751
X121.522 Y57.72
G0 Z5
X129.522
Z0.683
G1 Z-1 F50
X129.49 Y57.689
X129.475 Y57.693
X129.463 Y57.704
X129.459 Y57.72
G2 X129.584 Y57.72 I0.063 J0
X129.459 Y57.72 I-0.063 J0
G1 X129.463 Y57.736
X129.475 Y57.747
X129.49 Y57.751
X129.522 Y57.72
G0 Z5
Z-0.317
G1 Z-2 F50
X129.49 Y57.689
X129.475 Y57.693
X129.463 Y57.704
X129.459 Y57.72
G2 X129.584 Y57.72 I0.063 J0
X129.459 Y57.72 I-0.063 J0
G1 X129.463 Y57.736
X129.475 Y57.747
X129.49 Y57.751
X129.522 Y57.72
G0 Z5
Z-1.317
G1 Z-3 F50
X129.49 Y57.689
X129.475 Y57.693
X129.463 Y57.704
X129.459 Y57.72
G2 X129.584 Y57.72 I0.063 J0
X129.459 Y57.72 I-0.063 J0
G1 X129.463 Y57.736
X129.475 Y57.747
X129.49 Y57.751
X129.522 Y57.72
G0 Z5
Z-2.318
G1 Z-4 F50
X129.49 Y57.689
X129.475 Y57.693
X129.463 Y57.704
X129.459 Y57.72
G2 X129.584 Y57.72 I0.063 J0
X129.459 Y57.72 I-0.063 J0
G1 X129.463 Y57.736
X129.475 Y57.747
X129.49 Y57.751
X129.522 Y57.72
G0 Z5
Z-3.318
G1 Z-5 F50
X129.49 Y57.689
X129.475 Y57.693
X129.463 Y57.704
X129.459 Y57.72
G2 X129.584 Y57.72 I0.063 J0
X129.459 Y57.72 I-0.063 J0
G1 X129.463 Y57.736
X129.475 Y57.747
X129.49 Y57.751
X129.522 Y57.72
G0 Z5
Z-4.218
G1 Z-5.9 F50
X129.49 Y57.689
X129.475 Y57.693
X129.463 Y57.704
X129.459 Y57.72
G2 X129.584 Y57.72 I0.063 J0
X129.459 Y57.72 I-0.063 J0
G1 X129.463 Y57.736
X129.475 Y57.747
X129.49 Y57.751
X129.522 Y57.72
G0 Z5
Z-5.117
G1 Z-6.8 F50
X129.49 Y57.689
X129.475 Y57.693
X129.463 Y57.704
X129.459 Y57.72
G2 X129.584 Y57.72 I0.063 J0
X129.459 Y57.72 I-0.063 J0
G1 X129.463 Y57.736
X129.475 Y57.747
X129.49 Y57.751
X129.522 Y57.72
G0 Z5
X137.522
Z0.683
G1 Z-1 F50
X137.49 Y57.689
X137.475 Y57.693
X137.463 Y57.704
X137.459 Y57.72
G2 X137.584 Y57.72 I0.063 J0
X137.459 Y57.72 I-0.063 J0
G1 X137.463 Y57.736
X137.475 Y57.747
X137.49 Y57.751
X137.522 Y57.72
G0 Z5
Z-0.317
G1 Z-2 F50
X137.49 Y57.689
X137.475 Y57.693
X137.463 Y57.704
X137.459 Y57.72
G2 X137.584 Y57.72 I0.063 J0
X137.459 Y57.72 I-0.063 J0
G1 X137.463 Y57.736
X137.475 Y57.747
X137.49 Y57.751
X137.522 Y57.72
G0 Z5
Z-1.317
G1 Z-3 F50
X137.49 Y57.689
X137.475 Y57.693
X137.463 Y57.704
X137.459 Y57.72
G2 X137.584 Y57.72 I0.063 J0
X137.459 Y57.72 I-0.063 J0
G1 X137.463 Y57.736
X137.475 Y57.747
X137.49 Y57.751
X137.522 Y57.72
G0 Z5
Z-2.318
G1 Z-4 F50
X137.49 Y57.689
X137.475 Y57.693
X137.463 Y57.704
X137.459 Y57.72
G2 X137.584 Y57.72 I0.063 J0
X137.459 Y57.72 I-0.063 J0
G1 X137.463 Y57.736
X137.475 Y57.747
X137.49 Y57.751
X137.522 Y57.72
G0 Z5
Z-3.318
G1 Z-5 F50
X137.49 Y57.689
X137.475 Y57.693
X137.463 Y57.704
X137.459 Y57.72
G2 X137.584 Y57.72 I0.063 J0
X137.459 Y57.72 I-0.063 J0
G1 X137.463 Y57.736
X137.475 Y57.747
X137.49 Y57.751
X137.522 Y57.72
G0 Z5
Z-4.218
G1 Z-5.9 F50
X137.49 Y57.689
X137.475 Y57.693
X137.463 Y57.704
X137.459 Y57.72
G2 X137.584 Y57.72 I0.063 J0
X137.459 Y57.72 I-0.063 J0
G1 X137.463 Y57.736
X137.475 Y57.747
X137.49 Y57.751
X137.522 Y57.72
G0 Z5
Z-5.117
G1 Z-6.8 F50
X137.49 Y57.689
X137.475 Y57.693
X137.463 Y57.704
X137.459 Y57.72
G2 X137.584 Y57.72 I0.063 J0
X137.459 Y57.72 I-0.063 J0
G1 X137.463 Y57.736
X137.475 Y57.747
X137.49 Y57.751
X137.522 Y57.72
G0 Z5
X145.522
Z0.683
G1 Z-1 F50
X145.49 Y57.689
X145.475 Y57.693
X145.463 Y57.704
X145.459 Y57.72
G2 X145.584 Y57.72 I0.063 J0
X145.459 Y57.72 I-0.063 J0
G1 X145.463 Y57.736
X145.475 Y57.747
X145.49 Y57.751
X145.522 Y57.72
G0 Z5
Z-0.317
G1 Z-2 F50
X145.49 Y57.689
X145.475 Y57.693
X145.463 Y57.704
X145.459 Y57.72
G2 X145.584 Y57.72 I0.063 J0
X145.459 Y57.72 I-0.063 J0
G1 X145.463 Y57.736
X145.475 Y57.747
X145.49 Y57.751
X145.522 Y57.72
G0 Z5
Z-1.317
G1 Z-3 F50
X145.49 Y57.689
X145.475 Y57.693
X145.463 Y57.704
X145.459 Y57.72
G2 X145.584 Y57.72 I0.063 J0
X145.459 Y57.72 I-0.063 J0
G1 X145.463 Y57.736
X145.475 Y57.747
X145.49 Y57.751
X145.522 Y57.72
G0 Z5
Z-2.318
G1 Z-4 F50
X145.49 Y57.689
X145.475 Y57.693
X145.463 Y57.704
X145.459 Y57.72
G2 X145.584 Y57.72 I0.063 J0
X145.459 Y57.72 I-0.063 J0
G1 X145.463 Y57.736
X145.475 Y57.747
X145.49 Y57.751
X145.522 Y57.72
G0 Z5
Z-3.318
G1 Z-5 F50
X145.49 Y57.689
X145.475 Y57.693
X145.463 Y57.704
X145.459 Y57.72
G2 X145.584 Y57.72 I0.063 J0
X145.459 Y57.72 I-0.063 J0
G1 X145.463 Y57.736
X145.475 Y57.747
X145.49 Y57.751
X145.522 Y57.72
G0 Z5
Z-4.218
G1 Z-5.9 F50
X145.49 Y57.689
X145.475 Y57.693
X145.463 Y57.704
X145.459 Y57.72
G2 X145.584 Y57.72 I0.063 J0
X145.459 Y57.72 I-0.063 J0
G1 X145.463 Y57.736
X145.475 Y57.747
X145.49 Y57.751
X145.522 Y57.72
G0 Z5
Z-5.117
G1 Z-6.8 F50
X145.49 Y57.689
X145.475 Y57.693
X145.463 Y57.704
X145.459 Y57.72
G2 X145.584 Y57.72 I0.063 J0
X145.459 Y57.72 I-0.063 J0
G1 X145.463 Y57.736
X145.475 Y57.747
X145.49 Y57.751
X145.522 Y57.72
G0 Z5
X130.141 Y40.188
Z0.683
G1 Z-1 F50
X130.138 Y40.232
X130.151 Y40.241
X130.167 Y40.242
X130.182 Y40.235
G2 X130.1 Y40.141 I-0.041 J-0.047
X130.182 Y40.235 I0.041 J0.047
G1 X130.191 Y40.222
X130.192 Y40.206
X130.185 Y40.191
X130.141 Y40.188
G0 Z5
Z-0.317
G1 Z-2 F50
X130.138 Y40.232
X130.151 Y40.241
X130.167 Y40.242
X130.182 Y40.235
G2 X130.1 Y40.141 I-0.041 J-0.047
X130.182 Y40.235 I0.041 J0.047
G1 X130.191 Y40.222
X130.192 Y40.206
X130.185 Y40.191
X130.141 Y40.188
G0 Z5
Z-1.317
G1 Z-3 F50
X130.138 Y40.232
X130.151 Y40.241
X130.167 Y40.242
X130.182 Y40.235
G2 X130.1 Y40.141 I-0.041 J-0.047
X130.182 Y40.235 I0.041 J0.047
G1 X130.191 Y40.222
X130.192 Y40.206
X130.185 Y40.191
X130.141 Y40.188
G0 Z5
Z-2.318
G1 Z-4 F50
X130.138 Y40.232
X130.151 Y40.241
X130.167 Y40.242
X130.182 Y40.235
G2 X130.1 Y40.141 I-0.041 J-0.047
X130.182 Y40.235 I0.041 J0.047
G1 X130.191 Y40.222
X130.192 Y40.206
X130.185 Y40.191
X130.141 Y40.188
G0 Z5
Z-3.318
G1 Z-5 F50
X130.138 Y40.232
X130.151 Y40.241
X130.167 Y40.242
X130.182 Y40.235
G2 X130.1 Y40.141 I-0.041 J-0.047
X130.182 Y40.235 I0.041 J0.047
G1 X130.191 Y40.222
X130.192 Y40.206
X130.185 Y40.191
X130.141 Y40.188
G0 Z5
Z-4.218
G1 Z-5.9 F50
X130.138 Y40.232
X130.151 Y40.241
X130.167 Y40.242
X130.182 Y40.235
G2 X130.1 Y40.141 I-0.041 J-0.047
X130.182 Y40.235 I0.041 J0.047
G1 X130.191 Y40.222
X130.192 Y40.206
X130.185 Y40.191
X130.141 Y40.188
G0 Z5
Z-5.117
G1 Z-6.8 F50
X130.138 Y40.232
X130.151 Y40.241
X130.167 Y40.242
X130.182 Y40.235
G2 X130.1 Y40.141 I-0.041 J-0.047
X130.182 Y40.235 I0.041 J0.047
G1 X130.191 Y40.222
X130.192 Y40.206
X130.185 Y40.191
X130.141 Y40.188
G0 Z5
X110.825 Y35.84
Z0.683
G1 Z-1 F50
X110.849 Y35.877
X110.865 Y35.876
X110.879 Y35.868
X110.886 Y35.853
G2 X110.764 Y35.826 I-0.061 J-0.014
X110.886 Y35.853 I0.061 J0.014
G1 X110.885 Y35.837
X110.877 Y35.824
X110.863 Y35.816
X110.825 Y35.84
G0 Z5
Z-0.317
G1 Z-2 F50
X110.849 Y35.877
X110.865 Y35.876
X110.879 Y35.868
X110.886 Y35.853
G2 X110.764 Y35.826 I-0.061 J-0.014
X110.886 Y35.853 I0.061 J0.014
G1 X110.885 Y35.837
X110.877 Y35.824
X110.863 Y35.816
X110.825 Y35.84
G0 Z5
Z-1.317
G1 Z-3 F50
X110.849 Y35.877
X110.865 Y35.876
X110.879 Y35.868
X110.886 Y35.853
G2 X110.764 Y35.826 I-0.061 J-0.014
X110.886 Y35.853 I0.061 J0.014
G1 X110.885 Y35.837
X110.877 Y35.824
X110.863 Y35.816
X110.825 Y35.84
G0 Z5
Z-2.318
G1 Z-4 F50
X110.849 Y35.877
X110.865 Y35.876
X110.879 Y35.868
X110.886 Y35.853
G2 X110.764 Y35.826 I-0.061 J-0.014
X110.886 Y35.853 I0.061 J0.014
G1 X110.885 Y35.837
X110.877 Y35.824
X110.863 Y35.816
X110.825 Y35.84
G0 Z5
Z-3.318
G1 Z-5 F50
X110.849 Y35.877
X110.865 Y35.876
X110.879 Y35.868
X110.886 Y35.853
G2 X110.764 Y35.826 I-0.061 J-0.014
X110.886 Y35.853 I0.061 J0.014
G1 X110.885 Y35.837
X110.877 Y35.824
X110.863 Y35.816
X110.825 Y35.84
G0 Z5
Z-4.218
G1 Z-5.9 F50
X110.849 Y35.877
X110.865 Y35.876
X110.879 Y35.868
X110.886 Y35.853
G2 X110.764 Y35.826 I-0.061 J-0.014
X110.886 Y35.853 I0.061 J0.014
G1 X110.885 Y35.837
X110.877 Y35.824
X110.863 Y35.816
X110.825 Y35.84
G0 Z5
Z-5.117
G1 Z-6.8 F50
X110.849 Y35.877
X110.865 Y35.876
X110.879 Y35.868
X110.886 Y35.853
G2 X110.764 Y35.826 I-0.061 J-0.014
X110.886 Y35.853 I0.061 J0.014
G1 X110.885 Y35.837
X110.877 Y35.824
X110.863 Y35.816
X110.825 Y35.84
G0 Z5
X115.174 Y16.524
Z0.683
G1 Z-1 F50
X115.136 Y16.548
X115.137 Y16.564
X115.146 Y16.578
X115.16 Y16.585
G2 X115.187 Y16.463 I0.014 J-0.061
X115.16 Y16.585 I-0.014 J0.061
G1 X115.176 Y16.584
X115.19 Y16.576
X115.197 Y16.562
X115.174 Y16.524
G0 Z5
Z-0.317
G1 Z-2 F50
X115.136 Y16.548
X115.137 Y16.564
X115.146 Y16.578
X115.16 Y16.585
G2 X115.187 Y16.463 I0.014 J-0.061
X115.16 Y16.585 I-0.014 J0.061
G1 X115.176 Y16.584
X115.19 Y16.576
X115.197 Y16.562
X115.174 Y16.524
G0 Z5
Z-1.317
G1 Z-3 F50
X115.136 Y16.548
X115.137 Y16.564
X115.146 Y16.578
X115.16 Y16.585
G2 X115.187 Y16.463 I0.014 J-0.061
X115.16 Y16.585 I-0.014 J0.061
G1 X115.176 Y16.584
X115.19 Y16.576
X115.197 Y16.562
X115.174 Y16.524
G0 Z5
Z-2.318
G1 Z-4 F50
X115.136 Y16.548
X115.137 Y16.564
X115.146 Y16.578
X115.16 Y16.585
G2 X115.187 Y16.463 I0.014 J-0.061
X115.16 Y16.585 I-0.014 J0.061
G1 X115.176 Y16.584
X115.19 Y16.576
X115.197 Y16.562
X115.174 Y16.524
G0 Z5
Z-3.318
G1 Z-5 F50
X115.136 Y16.548
X115.137 Y16.564
X115.146 Y16.578
X115.16 Y16.585
G2 X115.187 Y16.463 I0.014 J-0.061
X115.16 Y16.585 I-0.014 J0.061
G1 X115.176 Y16.584
X115.19 Y16.576
X115.197 Y16.562
X115.174 Y16.524
G0 Z5
Z-4.218
G1 Z-5.9 F50
X115.136 Y16.548
X115.137 Y16.564
X115.146 Y16.578
X115.16 Y16.585
G2 X115.187 Y16.463 I0.014 J-0.061
X115.16 Y16.585 I-0.014 J0.061
G1 X115.176 Y16.584
X115.19 Y16.576
X115.197 Y16.562
X115.174 Y16.524
G0 Z5
Z-5.117
G1 Z-6.8 F50
X115.136 Y16.548
X115.137 Y16.564
X115.146 Y16.578
X115.16 Y16.585
G2 X115.187 Y16.463 I0.014 J-0.061
X115.16 Y16.585 I-0.014 J0.061
G1 X115.176 Y16.584
X115.19 Y16.576
X115.197 Y16.562
X115.174 Y16.524
G0 Z5
X134.489 Y20.873
Z0.683
G1 Z-1 F50
X134.466 Y20.835
X134.449 Y20.836
X134.436 Y20.845
X134.428 Y20.859
G2 X134.55 Y20.886 I0.061 J0.014
X134.428 Y20.859 I-0.061 J-0.014
G1 X134.429 Y20.875
X134.438 Y20.889
X134.452 Y20.896
X134.489 Y20.873
G0 Z5
Z-0.317
G1 Z-2 F50
X134.466 Y20.835
X134.449 Y20.836
X134.436 Y20.845
X134.428 Y20.859
G2 X134.55 Y20.886 I0.061 J0.014
X134.428 Y20.859 I-0.061 J-0.014
G1 X134.429 Y20.875
X134.438 Y20.889
X134.452 Y20.896
X134.489 Y20.873
G0 Z5
Z-1.317
G1 Z-3 F50
X134.466 Y20.835
X134.449 Y20.836
X134.436 Y20.845
X134.428 Y20.859
G2 X134.55 Y20.886 I0.061 J0.014
X134.428 Y20.859 I-0.061 J-0.014
G1 X134.429 Y20.875
X134.438 Y20.889
X134.452 Y20.896
X134.489 Y20.873
G0 Z5
Z-2.318
G1 Z-4 F50
X134.466 Y20.835
X134.449 Y20.836
X134.436 Y20.845
X134.428 Y20.859
G2 X134.55 Y20.886 I0.061 J0.014
X134.428 Y20.859 I-0.061 J-0.014
G1 X134.429 Y20.875
X134.438 Y20.889
X134.452 Y20.896
X134.489 Y20.873
G0 Z5
Z-3.318
G1 Z-5 F50
X134.466 Y20.835
X134.449 Y20.836
X134.436 Y20.845
X134.428 Y20.859
G2 X134.55 Y20.886 I0.061 J0.014
X134.428 Y20.859 I-0.061 J-0.014
G1 X134.429 Y20.875
X134.438 Y20.889
X134.452 Y20.896
X134.489 Y20.873
G0 Z5
Z-4.218
G1 Z-5.9 F50
X134.466 Y20.835
X134.449 Y20.836
X134.436 Y20.845
X134.428 Y20.859
G2 X134.55 Y20.886 I0.061 J0.014
X134.428 Y20.859 I-0.061 J-0.014
G1 X134.429 Y20.875
X134.438 Y20.889
X134.452 Y20.896
X134.489 Y20.873
G0 Z5
Z-5.117
G1 Z-6.8 F50
X134.466 Y20.835
X134.449 Y20.836
X134.436 Y20.845
X134.428 Y20.859
G2 X134.55 Y20.886 I0.061 J0.014
X134.428 Y20.859 I-0.061 J-0.014
G1 X134.429 Y20.875
X134.438 Y20.889
X134.452 Y20.896
X134.489 Y20.873
G0 Z15

(Motor Clearance Rough)
S26000 M3
X123.767 Y29.378
Z15
Z2.504
G2 X121.549 Y27.334 Z2.339 I-1.109 J-1.022 F397
X123.767 Y29.378 Z2.174 I1.109 J1.022
X121.549 Y27.334 Z2.008 I-1.109 J-1.022
X123.767 Y29.378 Z1.843 I1.109 J1.022
X121.549 Y27.334 Z1.677 I-1.109 J-1.022
X123.767 Y29.378 Z1.512 I1.109 J1.022
X121.549 Y27.334 Z1.346 I-1.109 J-1.022
X123.767 Y29.378 Z1.181 I1.109 J1.022
X121.549 Y27.334 Z1.015 I-1.109 J-1.022
X123.767 Y29.378 Z0.85 I1.109 J1.022
X121.549 Y27.334 Z0.685 I-1.109 J-1.022
X123.767 Y29.378 Z0.519 I1.109 J1.022
X121.549 Y27.334 Z0.354 I-1.109 J-1.022
X123.767 Y29.378 Z0.188 I1.109 J1.022
X121.549 Y27.334 Z0.023 I-1.109 J-1.022
X123.767 Y29.378 Z-0.143 I1.109 J1.022
X121.549 Y27.334 Z-0.308 I-1.109 J-1.022
X123.767 Y29.378 Z-0.474 I1.109 J1.022
X121.549 Y27.334 Z-0.639 I-1.109 J-1.022
X123.767 Y29.378 Z-0.805 I1.109 J1.022
X121.549 Y27.334 Z-0.97 I-1.109 J-1.022
X123.767 Y29.378 Z-1.135 I1.109 J1.022
X121.549 Y27.334 Z-1.301 I-1.109 J-1.022
X123.767 Y29.378 Z-1.466 I1.109 J1.022
X121.549 Y27.334 Z-1.632 I-1.109 J-1.022
X123.767 Y29.378 Z-1.797 I1.109 J1.022
X121.549 Y27.334 Z-1.963 I-1.109 J-1.022
X123.767 Y29.378 Z-2.128 I1.109 J1.022
X121.549 Y27.334 Z-2.294 I-1.109 J-1.022
X123.767 Y29.378 Z-2.459 I1.109 J1.022
X121.549 Y27.334 Z-2.625 I-1.109 J-1.022
X123.767 Y29.378 Z-2.79 I1.109 J1.022
X121.549 Y27.334 Z-2.955 I-1.109 J-1.022
X123.767 Y29.378 Z-3.121 I1.109 J1.022
X121.549 Y27.334 Z-3.286 I-1.109 J-1.022
X123.767 Y29.378 Z-3.452 I1.109 J1.022
X121.549 Y27.334 Z-3.617 I-1.109 J-1.022
X123.767 Y29.378 Z-3.783 I1.109 J1.022
X121.549 Y27.334 Z-3.948 I-1.109 J-1.022
X123.767 Y29.378 Z-4.114 I1.109 J1.022
X121.549 Y27.334 Z-4.279 I-1.109 J-1.022
X123.767 Y29.378 Z-4.444 I1.109 J1.022
X121.549 Y27.334 Z-4.61 I-1.109 J-1.022
X123.767 Y29.378 Z-4.775 I1.109 J1.022
X121.549 Y27.334 Z-4.941 I-1.109 J-1.022
X123.767 Y29.378 Z-5.106 I1.109 J1.022
X121.549 Y27.334 Z-5.272 I-1.109 J-1.022
X123.767 Y29.378 Z-5.437 I1.109 J1.022
X121.549 Y27.334 Z-5.603 I-1.109 J-1.022
X123.767 Y29.378 Z-5.768 I1.109 J1.022
X121.549 Y27.334 Z-5.934 I-1.109 J-1.022
X123.767 Y29.378 Z-6.099 I1.109 J1.022
X121.549 Y27.334 Z-6.264 I-1.109 J-1.022
X123.767 Y29.378 Z-6.43 I1.109 J1.022
X121.549 Y27.334 Z-6.595 I-1.109 J-1.022
X123.767 Y29.378 Z-6.761 I1.109 J1.022
X124.166 Y28.356 Z-6.8 I-1.109 J-1.022
X121.15 Y28.356 I-1.508 J0
X124.166 Y28.356 I1.508 J0
G1 Y28.156 F450
G2 X124.15 Y27.794 I-0.795 J-0.146
X123.818 Y27.208 I-1.279 J0.338
X122.827 Y26.722 I-1.147 J1.085
X121.013 Y28.329 I-0.171 J1.634
X122.772 Y29.996 I1.643 J0.028
X124.253 Y28.752 I-0.112 J-1.638
X124.338 Y28.226 I-2.243 J-0.628
X123.828 Y27.029 I-1.557 J-0.045
X122.52 Y26.578 I-1.169 J1.265
X121.488 Y29.705 I0.134 J1.778
X124.28 Y29.103 I1.17 J-1.348
X124.487 Y28.146 I-1.853 J-0.901
X123.615 Y26.693 I-1.77 J0.073
X121.909 Y26.576 I-0.968 J1.622
X123.258 Y30.193 I0.747 J1.782
X124.292 Y29.389 I-0.598 J-1.836
X124.634 Y28.082 I-1.775 J-1.163
X123.468 Y26.449 I-1.943 J0.156
X121.423 Y26.678 I-0.826 J1.875
X120.998 Y29.619 I1.233 J1.68
X123.947 Y29.994 I1.658 J-1.262
X124.724 Y28.794 I-1.384 J-1.748
X124.161 Y26.734 I-2.05 J-0.546
X121.983 Y26.222 I-1.518 J1.567
X120.776 Y29.574 I0.668 J2.134
X124.117 Y30.058 I1.881 J-1.216
X124.937 Y27.962 I-1.539 J-1.811
X123.232 Y26.037 I-2.27 J0.293
X120.942 Y26.676 I-0.594 J2.292
X123.847 Y30.443 I1.714 J1.681
X124.916 Y29.24 I-1.235 J-2.174
X124.706 Y26.893 I-2.27 J-0.98
X122.325 Y25.818 I-2.062 J1.391
X120.107 Y28.064 I0.317 J2.532
X123.89 Y30.609 I2.55 J0.293
X125.202 Y28.92 I-1.278 J-2.346
X123.333 Y25.722 I-2.541 J-0.66
X120.563 Y26.598 I-0.699 J2.608
X122.418 Y31.082 I2.092 J1.76
X124.516 Y30.372 I0.24 J-2.747
X125.357 Y27.515 I-1.899 J-2.111
X122.871 Y25.468 I-2.707 J0.754
X120.263 Y26.706 I-0.237 J2.867
X123.416 Y31.165 I2.393 J1.652
X125.24 Y29.745 I-0.775 J-2.876
X124.925 Y26.337 I-2.595 J-1.478
X121.746 Y25.416 I-2.29 J1.959
X119.593 Y28.708 I0.897 J2.937
X123.663 Y31.274 I3.065 J-0.35
X125.495 Y29.643 I-1.023 J-2.993
X123.194 Y25.154 I-2.845 J-1.376
X119.986 Y26.483 I-0.563 J3.178
X122.842 Y31.616 I2.669 J1.876
X125.213 Y30.415 I-0.186 J-3.308
X125.441 Y26.429 I-2.575 J-2.147
X121.948 Y24.992 I-2.807 J1.86
X119.235 Y27.942 I0.69 J3.356
X123.278 Y31.749 I3.422 J0.417
X125.766 Y29.918 I-0.629 J-3.46
X123.285 Y24.799 I-3.118 J-1.65
X120.029 Y25.852 I-0.658 J3.527
X122.112 Y31.948 I2.625 J2.507
X125.031 Y31.122 I0.551 J-3.623
X125.823 Y26.34 I-2.394 J-2.853
X122.007 Y24.603 I-3.19 J1.947
X118.856 Y27.973 I0.628 J3.746
X122.99 Y32.164 I3.801 J0.386
X125.914 Y30.409 I-0.334 J-3.868
X123.385 Y24.434 I-3.268 J-2.139
X119.7 Y25.649 I-0.759 J3.892
X121.577 Y32.221 I2.953 J2.711
X125.07 Y31.577 I1.089 J-3.891
X125.761 Y25.606 I-2.429 J-3.307
X121.291 Y24.389 I-3.134 J2.691
X118.481 Y28.85 I1.348 J3.964
X123.109 Y32.54 I4.177 J-0.491
X126.219 Y30.65 I-0.45 J-4.244
X123.613 Y24.087 I-3.574 J-2.38
X119.355 Y25.452 I-0.989 J4.239
X120.517 Y32.202 I3.296 J2.908
X124.733 Y32.247 I2.15 J-3.862
X123.488 Y23.859 I-2.091 J-3.976
X119.012 Y25.557 I-0.864 J4.47
X120.932 Y32.62 I3.64 J2.803
X125.097 Y32.269 I1.735 J-4.286
X123.61 Y23.681 I-2.454 J-3.998
X119.175 Y25.06 I-0.988 J4.644
X120.529 Y32.658 I3.476 J3.3
X124.884 Y32.618 I2.139 J-4.319
X124.01 Y23.574 I-2.241 J-4.348
X119.193 Y24.757 I-1.388 J4.747
X119.527 Y32.256 I3.456 J3.604
X124.366 Y33.064 I3.14 J-3.909
X127.737 Y28.31 I-1.717 J-4.789
X123.877 Y23.327 I-5.094 J-0.041
X119.121 Y24.544 I-1.256 J4.993
X118.997 Y32.057 I3.527 J3.816
X124.06 Y33.375 I3.668 J-3.707
X127.808 Y29.451 I-1.406 J-5.096
X124.31 Y23.24 I-5.164 J-1.182
X119.409 Y24.038 I-1.69 J5.075
X118.033 Y31.165 I3.235 J4.321
X123.564 Y33.695 I4.63 J-2.811
X127.478 Y30.902 I-0.903 J-5.405
X124.471 Y23.077 I-4.835 J-2.632
X119.498 Y23.721 I-1.851 J5.236
X117.514 Y30.617 I3.145 J4.638
X123.177 Y33.954 I5.147 J-2.26
X127.352 Y31.505 I-0.513 J-5.657
X124.64 Y22.917 I-4.709 J-3.235
X119.608 Y23.402 I-2.02 J5.393
X117.11 Y30.137 I3.033 J4.956
X122.757 Y34.185 I5.55 J-1.78
X127.153 Y32.109 I-0.09 J-5.882
X124.815 Y22.76 I-4.509 J-3.839
X119.741 Y23.082 I-2.195 J5.548
X116.718 Y29.431 I2.898 J5.274
X122.305 Y34.385 I5.941 J-1.073
X126.879 Y32.706 I0.364 J-6.076
X124.997 Y22.607 I-4.235 J-4.436
X119.896 Y22.764 I-2.377 J5.699
X116.428 Y28.828 I2.74 J5.591
X122.001 Y34.572 I6.23 J-0.47
X126.669 Y33.174 I0.67 J-6.258
X125.186 Y22.457 I-4.026 J-4.904
X120.243 Y22.377 I-2.566 J5.845
X116.221 Y27.812 I2.39 J5.975
X121.317 Y34.678 I6.436 J0.547
X126.261 Y33.74 I1.355 J-6.357
X125.716 Y22.476 I-3.616 J-5.47
X120.812 Y21.958 I-3.095 J5.819
X116.182 Y26.743 I1.818 J6.391
X120.424 Y34.648 I6.473 J1.618
X125.608 Y34.359 I2.247 J-6.318
X129.333 Y27.212 I-2.958 J-6.086
X124.689 Y21.811 I-6.695 J1.059
X119.092 Y22.471 I-2.071 J6.502
X115.806 Y29.082 I3.545 J5.885
X121.363 Y35.127 I6.853 J-0.723
X126.45 Y34.131 I1.309 J-6.807
X126.646 Y22.54 I-3.805 J-5.861
X121.531 Y21.358 I-4.023 J5.75
X116.269 Y25.247 I1.094 J6.984
X118.714 Y34.27 I6.382 J3.114
X124.46 Y35.24 I3.956 J-5.929
X129.282 Y31.074 I-1.796 J-6.953
X125.736 Y21.76 I-6.638 J-2.805
X119.359 Y21.829 I-3.118 J6.544
X115.339 Y28.085 I3.272 J6.523
X118.375 Y34.299 I7.31 J0.277
X123.681 Y35.616 I4.292 J-5.946
X129.204 Y31.746 I-1.013 J-7.321
X125.993 Y21.643 I-6.56 J-3.476
X118.383 Y22.153 I-3.376 J6.667
X115.122 Y28.664 I4.247 J6.2
X118.388 Y34.575 I7.524 J-0.3
X124.308 Y35.725 I4.28 J-6.223
X129.656 Y31.307 I-1.639 J-7.431
X127.992 Y22.811 I-7.008 J-3.038
X123.764 Y20.705 I-5.358 J5.46
X117.61 Y22.47 I-1.148 J7.609
X114.95 Y29.269 I5.021 J5.884
X118.767 Y35.073 I7.696 J-0.904
X124.95 Y35.782 I3.903 J-6.724
X130.077 Y30.827 I-2.282 J-7.492
X128.186 Y22.694 I-7.426 J-2.559
X123.194 Y20.421 I-5.553 J5.578
X116.873 Y22.866 I-0.578 J7.899
X114.867 Y30.087 I5.759 J5.49
X119.186 Y35.544 I7.781 J-1.721
X125.784 Y35.714 I3.486 J-7.202
X130.51 Y30.119 I-3.117 J-7.427
X128.365 Y22.563 I-7.855 J-1.853
X122.401 Y20.183 I-5.737 J5.715
X116.061 Y23.491 I0.216 J8.144
X114.862 Y30.905 I6.573 J4.867
X119.827 Y36.056 I7.788 J-2.54
X126.426 Y35.659 I2.847 J-7.719
X130.871 Y29.377 I-3.762 J-7.376
X128.096 Y22.01 I-8.216 J-1.112
X121.794 Y20 I-5.47 J6.27
X115.438 Y24.026 I0.824 J8.332
X115.015 Y31.896 I7.199 J4.333
X120.313 Y36.448 I7.637 J-3.53
X127.229 Y35.454 I2.362 J-8.119
X131.16 Y28.613 I-4.568 J-7.174
X128.106 Y21.727 I-8.503 J-0.35
X120.983 Y19.896 I-5.483 J6.556
X114.872 Y24.608 I1.635 J8.44
X115.073 Y32.503 I7.765 J3.752
X120.819 Y36.805 I7.581 J-4.137
X127.841 Y35.303 I1.857 J-8.479
X131.386 Y28.039 I-5.181 J-7.025
X127.952 Y21.319 I-8.728 J0.223
X120.566 Y19.759 I-5.329 J6.965
X114.515 Y24.854 I2.052 J8.577
X115.06 Y32.927 I8.121 J3.507
X121.14 Y37.095 I7.595 J-4.56
X128.279 Y35.246 I1.537 J-8.77
X131.575 Y27.461 I-5.619 J-6.969
X127.785 Y20.922 I-8.917 J0.799
X120.15 Y19.638 I-5.164 J7.362
X114.171 Y25.109 I2.467 J8.698
X114.952 Y33.177 I8.462 J3.253
X121.267 Y37.342 I7.702 J-4.808
X128.708 Y35.176 I1.41 J-9.018
X131.781 Y27.284 I-6.046 J-6.899
X127.777 Y20.646 I-9.122 J0.976
X119.93 Y19.47 I-5.156 J7.637
X113.907 Y25.178 I2.686 J8.865
X114.844 Y33.424 I8.725 J3.185
X121.392 Y37.586 I7.809 J-5.053
X128.979 Y35.234 I1.287 J-9.261
X131.986 Y27.109 I-6.315 J-6.956
X127.938 Y20.485 I-9.325 J1.149
X119.905 Y19.244 I-5.317 J7.797
X113.714 Y25.055 I2.71 J9.091
X114.626 Y33.498 I8.917 J3.308
X121.313 Y37.801 I8.026 J-5.126
X129.243 Y35.294 I1.366 J-9.476
X132.215 Y27.141 I-6.577 J-7.016
X131.661 Y24.862 I-9.487 J1.103
G1 X131.547 Y24.574
X131.522 Y24.517
X131.345 Y24.136
X131.299 Y24.041
X131.25 Y23.945
X131.045 Y23.565
X130.99 Y23.469
X130.755 Y23.088
X130.69 Y22.989
X130.424 Y22.612
X130.353 Y22.517
X130.118 Y22.222
X130.023 Y22.108
X129.966 Y22.041
X129.642 Y21.682
X129.261 Y21.306
X129.234 Y21.279
X128.88 Y20.969
X128.785 Y20.89
X128.676 Y20.803
X128.404 Y20.592
X128.301 Y20.517
X128.119 Y20.391
X127.928 Y20.26
X127.833 Y20.2
X127.643 Y20.085
X127.452 Y19.97
X127.262 Y19.866
X126.976 Y19.716
X126.863 Y19.66
X126.786 Y19.624
X126.405 Y19.453
X126.309 Y19.413
X125.929 Y19.268
X125.833 Y19.233
X125.643 Y19.171
X125.357 Y19.082
X125.262 Y19.053
X124.786 Y18.934
X124.691 Y18.913
X124.595 Y18.894
X124.215 Y18.822
X124.119 Y18.807
X123.738 Y18.759
X123.643 Y18.747
X123.548 Y18.738
X123.358 Y18.724
X123.072 Y18.705
X122.881 Y18.7
X122.501 Y18.698
X122.405 Y18.699
X122.024 Y18.719
X121.929 Y18.724
X121.834 Y18.732
X121.739 Y18.741
X121.358 Y18.784
G2 X120.691 Y18.898 I2.42 J16.161
G1 X120.281 Y18.994
X120.215 Y19.01
X120.12 Y19.036
X119.939 Y19.089
X119.622 Y19.184
X119.263 Y19.314
X119.168 Y19.349
X119.073 Y19.385
X118.875 Y19.47
X118.656 Y19.565
X118.501 Y19.636
X118.076 Y19.851
X118.025 Y19.878
X117.581 Y20.136
G2 X117.073 Y20.473 I13.248 J20.555
G1 X116.978 Y20.543
X116.633 Y20.803
X116.406 Y20.995
X116.216 Y21.158
X116.186 Y21.184
X116.121 Y21.244
X115.787 Y21.565
X115.74 Y21.613
X115.431 Y21.946
X115.359 Y22.027
X115.073 Y22.374
X114.962 Y22.517
X114.754 Y22.803
X114.688 Y22.898
X114.623 Y22.993
X114.44 Y23.279
X114.382 Y23.374
X114.325 Y23.469
X114.121 Y23.835
X114.063 Y23.945
X113.835 Y24.418
X113.645 Y24.879
X113.602 Y24.993
X113.55 Y25.143
X113.439 Y25.469
X113.41 Y25.564
X113.304 Y25.945
X113.264 Y26.106
X113.257 Y26.136
X113.169 Y26.545
X113.155 Y26.612
X113.082 Y27.088
X113.069 Y27.183
X113.059 Y27.278
X113.023 Y27.659
X113.017 Y27.754
X113.012 Y27.85
X112.998 Y28.23
X112.996 Y28.326
X113.008 Y28.802
X113.013 Y28.897
X113.019 Y28.992
X113.051 Y29.373
X113.062 Y29.468
X113.088 Y29.659
X113.13 Y29.944
X113.144 Y30.04
X113.242 Y30.516
X113.289 Y30.706
X113.392 Y31.087
X113.42 Y31.182
X113.55 Y31.574
X113.579 Y31.658
X113.615 Y31.754
X113.74 Y32.067
X113.807 Y32.23
X113.896 Y32.42
X114.031 Y32.706
X114.133 Y32.896
X114.289 Y33.182
X114.407 Y33.377
X114.597 Y33.682
X114.692 Y33.821
X114.916 Y34.134
G2 X115.295 Y34.61 I12.044 J-9.202
G1 X115.378 Y34.706
X115.645 Y35
X115.726 Y35.087
X116.025 Y35.379
X116.121 Y35.468
X116.227 Y35.563
X116.502 Y35.801
X116.558 Y35.848
X116.929 Y36.134
X116.978 Y36.17
X117.073 Y36.237
X117.359 Y36.431
X117.454 Y36.494
X117.549 Y36.554
X117.93 Y36.781
X118.025 Y36.833
X118.33 Y36.991
X118.521 Y37.086
X118.977 Y37.289
X119.195 Y37.372
X119.453 Y37.469
X119.549 Y37.502
X119.644 Y37.533
X120.047 Y37.658
X120.12 Y37.678
X120.501 Y37.771
X120.596 Y37.793
X120.691 Y37.814
X121.072 Y37.884
X121.167 Y37.901
G2 X121.834 Y37.981 I2.241 J-15.837
G1 X122.215 Y38.005
X122.31 Y38.009
X122.405 Y38.012
X122.596 Y38.014
X122.881
X122.977 Y38.011
X123.358 Y37.989
X123.453 Y37.983
X123.548 Y37.975
X123.929 Y37.931
X124.024 Y37.919
X124.119 Y37.904
X124.31 Y37.871
X124.595 Y37.821
X124.691 Y37.8
X125.072 Y37.709
X125.264 Y37.658
X125.643 Y37.543
X125.738 Y37.513
X126.121 Y37.372
X126.214 Y37.337
X126.362 Y37.277
X126.69 Y37.133
X126.795 Y37.086
X126.881 Y37.043
X127.262 Y36.849
X127.357 Y36.796
X127.738 Y36.572
G2 X128.309 Y36.19 I-6.76 J-10.724
G1 X128.404 Y36.118
X128.69 Y35.901
X128.757 Y35.848
X129.166 Y35.496
X129.491 Y35.182
X129.586 Y35.087
X129.642 Y35.028
X129.938 Y34.706
X130.023 Y34.605
X130.251 Y34.325
X130.309 Y34.252
X130.404 Y34.125
X130.603 Y33.849
X130.69 Y33.72
X130.73 Y33.658
X130.911 Y33.373
X130.975 Y33.266
X131.024 Y33.182
X131.182 Y32.896
X131.261 Y32.747
X131.282 Y32.706
X131.463 Y32.325
X131.507 Y32.23
X131.662 Y31.849
X131.7 Y31.754
G2 X131.895 Y31.182 I-17.022 J-6.114
G1 X131.928 Y31.069
X132.027 Y30.706
X132.05 Y30.611
X132.072 Y30.516
X132.152 Y30.135
X132.171 Y30.04
X132.241 Y29.564
X132.252 Y29.468
X132.262 Y29.373
X132.296 Y28.992
X132.302 Y28.897
X132.314 Y28.516
X132.318 Y28.326
X132.308 Y27.945
X132.305 Y27.85
X132.267 Y27.373
X132.256 Y27.278
X132.245 Y27.183
X132.192 Y26.802
G2 X132.059 Y26.136 I-14.979 J2.642
G1 X131.934 Y25.659
X131.874 Y25.469
X131.78 Y25.183
X131.737 Y25.059
X131.712 Y24.993
X131.661 Y24.863
X131.63 Y24.808
X131.59 Y24.761
X131.539 Y24.712 Z-6.792
X131.491 Y24.665 Z-6.769
X131.447 Y24.624 Z-6.731
X131.411 Y24.589 Z-6.68
X131.384 Y24.563 Z-6.62
X131.367 Y24.546 Z-6.553
X131.361 Y24.541 Z-6.483
G0 Z15

(Motor Clearance Finish)
X119.412 Y25.356
Z15
Z5
G1 Z-3.8 F100
G18 G3 X116.412 Z-6.8 I-3 K0
G1 X116.094 F300
G17 G2 X113.094 Y28.356 I0 J3
X132.219 Y28.356 I9.563 J0
X113.094 Y28.356 I-9.563 J0
X132.32 Y28.356 I9.613 J0
X112.994 Y28.356 I-9.663 J0
X132.419 Y28.356 I9.713 J0
X112.894 Y28.356 I-9.762 J0
X132.42 Y28.356 I9.763 J0
X129.321 Y21.222 I-9.763 J0
X125.081 Y21.366 I-2.048 J2.192
G1 X124.864 Y21.598
X124.718 Y21.755 Z-6.792
X124.573 Y21.91 Z-6.769
X124.429 Y22.065 Z-6.731
X124.287 Y22.216 Z-6.678
X124.148 Y22.365 Z-6.611
X124.013 Y22.509 Z-6.529
X123.883 Y22.649 Z-6.433
X123.757 Y22.784 Z-6.324
X123.637 Y22.912 Z-6.202
X123.523 Y23.034 Z-6.067
X123.416 Y23.149 Z-5.921
X123.316 Y23.255 Z-5.765
X123.225 Y23.354 Z-5.598
X123.141 Y23.443 Z-5.422
X123.067 Y23.523 Z-5.238
X123.001 Y23.593 Z-5.046
X122.945 Y23.653 Z-4.848
X122.899 Y23.702 Z-4.645
X122.863 Y23.741 Z-4.438
X122.837 Y23.769 Z-4.227
X122.821 Y23.785 Z-4.014
X122.816 Y23.791 Z-3.8
G0 Z15

(Mount Outline)
S12000 M3
X154.095 Y23.512
Z15
Z5
G1 Z0.5 F100
G3 X155.313 Y29.011 Z0.488 I-31.438 J9.844 F311
G1 X155.323 Y29.115
X155.327 Y29.22
Y65.22 Z0.411
G3 X153.739 Y66.808 Z0.405 I-1.588 J0
G1 X91.575 Z0.273
G3 X89.988 Y65.22 Z0.267 I0 J-1.588
G1 Y29.22 Z0.191
X89.991 Y29.115 Z0.19
X90.001 Y29.011
G3 X155.313 Y29.011 Z-0.012 I32.656 J4.346
G1 X155.323 Y29.115
X155.327 Y29.22
Y65.22 Z-0.089
G3 X153.739 Y66.808 Z-0.095 I-1.588 J0
G1 X91.575 Z-0.227
G3 X89.988 Y65.22 Z-0.233 I0 J-1.588
G1 Y29.22 Z-0.309
X89.991 Y29.115 Z-0.31
X90.001 Y29.011
G3 X155.313 Y29.011 Z-0.512 I32.656 J4.346
G1 X155.323 Y29.115
X155.327 Y29.22
Y65.22 Z-0.589
G3 X153.739 Y66.808 Z-0.595 I-1.588 J0
G1 X91.575 Z-0.727
G3 X89.988 Y65.22 Z-0.733 I0 J-1.588
G1 Y29.22 Z-0.809
X89.991 Y29.115 Z-0.81
X90.001 Y29.011
G3 X155.313 Y29.011 Z-1.012 I32.656 J4.346
G1 X155.323 Y29.115
X155.327 Y29.22
Y65.22 Z-1.089
G3 X153.739 Y66.808 Z-1.095 I-1.588 J0
G1 X91.575 Z-1.227
G3 X89.988 Y65.22 Z-1.233 I0 J-1.588
G1 Y29.22 Z-1.309
X89.991 Y29.115 Z-1.31
X90.001 Y29.011
G3 X155.313 Y29.011 Z-1.512 I32.656 J4.346
G1 X155.323 Y29.115
X155.327 Y29.22
Y65.22 Z-1.589
G3 X153.739 Y66.808 Z-1.595 I-1.588 J0
G1 X91.575 Z-1.727
G3 X89.988 Y65.22 Z-1.733 I0 J-1.588
G1 Y29.22 Z-1.809
X89.991 Y29.115 Z-1.81
X90.001 Y29.011
G3 X155.313 Y29.011 Z-2.012 I32.656 J4.346
G1 X155.323 Y29.115
X155.327 Y29.22
Y65.22 Z-2.089
G3 X153.739 Y66.808 Z-2.095 I-1.588 J0
G1 X91.575 Z-2.227
G3 X89.988 Y65.22 Z-2.233 I0 J-1.588
G1 Y29.22 Z-2.309
X89.991 Y29.115 Z-2.31
X90.001 Y29.011
G3 X155.313 Y29.011 Z-2.512 I32.656 J4.346
G1 X155.323 Y29.115
X155.327 Y29.22
Y65.22 Z-2.589
G3 X153.739 Y66.808 Z-2.595 I-1.588 J0
G1 X91.575 Z-2.727
G3 X89.988 Y65.22 Z-2.733 I0 J-1.588
G1 Y29.22 Z-2.809
X89.991 Y29.115 Z-2.81
X90.001 Y29.011
G3 X155.313 Y29.011 Z-3.012 I32.656 J4.346
G1 X155.323 Y29.115
X155.327 Y29.22
Y65.22 Z-3.089
G3 X153.739 Y66.808 Z-3.095 I-1.588 J0
G1 X91.575 Z-3.227
G3 X89.988 Y65.22 Z-3.233 I0 J-1.588
G1 Y29.22 Z-3.309
X89.991 Y29.115 Z-3.31
X90.001 Y29.011
G3 X155.313 Y29.011 Z-3.512 I32.656 J4.346
G1 X155.323 Y29.115
X155.327 Y29.22
Y65.22 Z-3.589
G3 X153.739 Y66.808 Z-3.595 I-1.588 J0
G1 X91.575 Z-3.727
G3 X89.988 Y65.22 Z-3.733 I0 J-1.588
G1 Y29.22 Z-3.809
X89.991 Y29.115 Z-3.81
X90.001 Y29.011
G3 X155.313 Y29.011 Z-4.012 I32.656 J4.346
G1 X155.323 Y29.115
X155.327 Y29.22
Y65.22 Z-4.089
G3 X153.739 Y66.808 Z-4.095 I-1.588 J0
G1 X91.575 Z-4.227
G3 X89.988 Y65.22 Z-4.233 I0 J-1.588
G1 Y29.22 Z-4.309
X89.991 Y29.115 Z-4.31
X90.001 Y29.011
G3 X155.313 Y29.011 Z-4.512 I32.656 J4.346
G1 X155.323 Y29.115
X155.327 Y29.22
Y65.22 Z-4.589
G3 X153.739 Y66.808 Z-4.595 I-1.588 J0
G1 X91.575 Z-4.727
G3 X89.988 Y65.22 Z-4.733 I0 J-1.588
G1 Y29.22 Z-4.809
X89.991 Y29.115 Z-4.81
X90.001 Y29.011
G3 X155.313 Y29.011 Z-5.012 I32.656 J4.346
G1 X155.323 Y29.115
X155.327 Y29.22
Y65.22 Z-5.089
G3 X153.739 Y66.808 Z-5.095 I-1.588 J0
G1 X91.575 Z-5.227
G3 X89.988 Y65.22 Z-5.233 I0 J-1.588
G1 Y29.22 Z-5.309
X89.991 Y29.115 Z-5.31
X90.001 Y29.011
G3 X155.313 Y29.011 Z-5.512 I32.656 J4.346
G1 X155.323 Y29.115
X155.327 Y29.22
Y65.22 Z-5.589
G3 X153.739 Y66.808 Z-5.595 I-1.588 J0
G1 X91.575 Z-5.727
G3 X89.988 Y65.22 Z-5.733 I0 J-1.588
G1 Y29.22 Z-5.809
X89.991 Y29.115 Z-5.81
X90.001 Y29.011
G3 X155.313 Y29.011 Z-6.012 I32.656 J4.346
G1 X155.323 Y29.115
X155.327 Y29.22
Y65.22 Z-6.089
G3 X153.739 Y66.808 Z-6.095 I-1.588 J0
G1 X91.575 Z-6.227
G3 X89.988 Y65.22 Z-6.233 I0 J-1.588
G1 Y29.22 Z-6.309
X89.991 Y29.115 Z-6.31
X90.001 Y29.011
G3 X155.313 Y29.011 Z-6.512 I32.656 J4.346
G1 X155.323 Y29.115
X155.327 Y29.22
Y65.22 Z-6.589
G3 X153.739 Y66.808 Z-6.595 I-1.588 J0
G1 X91.575 Z-6.727
G3 X89.988 Y65.22 Z-6.733 I0 J-1.588
G1 Y33.61 Z-6.8
Y29.22 F274
X89.991 Y29.115
X90.001 Y29.011
G3 X155.313 Y29.011 I32.656 J4.346
G1 X155.323 Y29.115
X155.327 Y29.22
Y65.22
G3 X153.739 Y66.808 I-1.588 J0
G1 X91.575
G3 X89.988 Y65.22 I0 J-1.588
G1 Y33.61
Y29.22
X89.991 Y29.115
X90.001 Y29.011
G3 X155.313 Y29.011 I32.656 J4.346
G1 X155.323 Y29.115
X155.327 Y29.22
Y65.22
G3 X153.739 Y66.808 I-1.588 J0
G1 X91.575
G3 X89.988 Y65.22 I0 J-1.588
G1 Y33.61
Y29.22
X89.991 Y29.115
X90.001 Y29.011
G3 X90.623 Y25.67 I32.656 J4.346
G0 Z15
G28 G91 Z0
G90
G28 G91 X0 Y0
G90
M5
M30
